<?xml version="1.0" encoding="UTF-8"?>
<map version="1.10" tiledversion="1.10.2" orientation="orthogonal" renderorder="right-down" width="100" height="100" tilewidth="32" tileheight="32" infinite="0" nextlayerid="17" nextobjectid="1">
 <tileset firstgid="1" source="tsx/FLSET1_ground.tsx"/>
 <tileset firstgid="1057" source="tsx/FLSET1_ground_dec_props.tsx"/>
 <tileset firstgid="1417" source="tsx/FLSET1_bridges and fences.tsx"/>
 <tileset firstgid="2033" source="tsx/FLSET1_hills.tsx"/>
 <tileset firstgid="2433" source="tsx/FLSET1_water_env.tsx"/>
 <tileset firstgid="2671" source="tsx/Tree_A_v1.tsx"/>
 <tileset firstgid="3247" source="tsx/output-onlinepngtools.tsx"/>
 <tileset firstgid="4147" source="tsx/MegaPixelArt32x32pxIcons_SpriteSheet.tsx"/>
 <tileset firstgid="4651" source="tsx/assets_version1.1.tsx"/>
 <tileset firstgid="4675" source="tsx/#1 - Transparent Icons.tsx"/>
 <tileset firstgid="5107" source="tsx/#2 - Transparent Icons &amp; Drop Shadow.tsx"/>
 <tileset firstgid="5539" source="tsx/floor_and_deoratives.tsx"/>
 <tileset firstgid="5619" source="tsx/ready_to_use_houses.tsx"/>
 <tileset firstgid="6189" source="tsx/walls_roofs_and_other.tsx"/>
 <tileset firstgid="6423" source="tsx/Knight-Captain1-0-0-1-1.tsx"/>
 <tileset firstgid="6424" source="tsx/Knight-Captain1-1-0-1-1.tsx"/>
 <tileset firstgid="6425" source="tsx/Knight-Captain1-3-0-1-1.tsx"/>
 <tileset firstgid="6426" source="tsx/Knight-Captain1-0-1-1-1.tsx"/>
 <tileset firstgid="6427" source="tsx/Knight-Captain1-1-1-1-1.tsx"/>
 <tileset firstgid="6428" source="tsx/Knight-Captain1-3-1-1-1.tsx"/>
 <tileset firstgid="6429" source="tsx/Knight-Captain1-0-2-1-1.tsx"/>
 <tileset firstgid="6430" source="tsx/Knight-Captain1-1-2-1-1.tsx"/>
 <tileset firstgid="6431" source="tsx/Knight-Captain1-3-2-1-1.tsx"/>
 <tileset firstgid="6432" source="tsx/Knight-Captain1-0-3-1-1.tsx"/>
 <tileset firstgid="6433" source="tsx/Knight-Captain1-1-3-1-1.tsx"/>
 <tileset firstgid="6434" source="tsx/Knight-Captain1-3-3-1-1.tsx"/>
 <tileset firstgid="6435" source="tsx/1.tsx"/>
 <tileset firstgid="6436" source="tsx/3a.tsx"/>
 <tileset firstgid="6437" source="tsx/4a.tsx"/>
 <tileset firstgid="6438" source="tsx/test3.tsx"/>
 <tileset firstgid="6439" source="tsx/test4.tsx"/>
 <tileset firstgid="6440" source="tsx/test5.tsx"/>
 <tileset firstgid="6441" source="tsx/1s.tsx"/>
 <tileset firstgid="6442" source="tsx/2a.tsx"/>
 <tileset firstgid="6443" source="tsx/NPC1.tsx"/>
 <tileset firstgid="6444" source="tsx/NPC2.tsx"/>
 <tileset firstgid="6445" source="tsx/NPC3.tsx"/>
 <tileset firstgid="6446" source="tsx/Boar_Idle-0-0-1-1.tsx"/>
 <tileset firstgid="6447" source="tsx/Boar_Idle-0-1-1-1.tsx"/>
 <tileset firstgid="6448" source="tsx/Boar_Idle-0-2-1-1.tsx"/>
 <tileset firstgid="6449" source="tsx/Boar_Idle-0-3-1-1.tsx"/>
 <tileset firstgid="6450" source="tsx/white_spider1.tsx"/>
 <tileset firstgid="6451" source="tsx/white_spider2.tsx"/>
 <tileset firstgid="6452" source="tsx/white_spider3.tsx"/>
 <tileset firstgid="6453" source="tsx/white_spider4.tsx"/>
 <tileset firstgid="6454" source="tsx/_32x32_assorted_tileset__by_thebigblueserpent_d69io1m.tsx"/>
 <tileset firstgid="6650" source="tsx/Icon8_no_effect.tsx"/>
 <tileset firstgid="6651" source="tsx/Icon1_no_effect.tsx"/>
 <tileset firstgid="6652" source="tsx/Icon2_no_effect.tsx"/>
 <tileset firstgid="6653" source="tsx/Icon21_no_effect.tsx"/>
 <tileset firstgid="6654" source="tsx/arrow_01_orcish.tsx"/>
 <tileset firstgid="6655" source="tsx/arrow_02.tsx"/>
 <tileset firstgid="6656" source="tsx/bolt_fire.tsx"/>
 <tileset firstgid="6657" source="tsx/arrow_02_ice.tsx"/>
 <tileset firstgid="6658" source="tsx/arrow_01_elven.tsx"/>
 <tileset firstgid="6659" source="tsx/arrow_01_silver.tsx"/>
 <tileset firstgid="6660" source="tsx/arrow_iron.tsx"/>
 <tileset firstgid="6661" source="tsx/bolt_fire2.tsx"/>
 <tileset firstgid="6662" source="tsx/rabbit1.tsx"/>
 <tileset firstgid="6663" source="tsx/rabbit2.tsx"/>
 <tileset firstgid="6664" source="tsx/rabbit3.tsx"/>
 <tileset firstgid="6665" source="tsx/rabbit4.tsx"/>
 <tileset firstgid="6666" source="tsx/pirat1.tsx"/>
 <tileset firstgid="6667" source="tsx/pirat2.tsx"/>
 <tileset firstgid="6668" source="tsx/pirat3.tsx"/>
 <tileset firstgid="6669" source="tsx/pirat4.tsx"/>
 <tileset firstgid="6670" source="tsx/loot.tsx"/>
 <tileset firstgid="6671" source="tsx/sling_bullet_04.tsx"/>
 <tileset firstgid="6672" source="tsx/pirat2_1.tsx"/>
 <tileset firstgid="6673" source="tsx/pirat2_2.tsx"/>
 <tileset firstgid="6674" source="tsx/pirat2_3.tsx"/>
 <tileset firstgid="6675" source="tsx/pirat2_4.tsx"/>
 <tileset firstgid="6676" source="tsx/body32.tsx"/>
 <tileset firstgid="6677" source="tsx/zielarka.tsx"/>
 <tileset firstgid="6678" source="tsx/black_wolf_w_1.tsx"/>
 <tileset firstgid="6679" source="tsx/black_wolf_w_2.tsx"/>
 <tileset firstgid="6680" source="tsx/black_wolf_w_3.tsx"/>
 <tileset firstgid="6681" source="tsx/black_wolf_w_6.tsx"/>
 <tileset firstgid="6682" source="tsx/black_wolf_s_1.tsx"/>
 <tileset firstgid="6683" source="tsx/black_wolf_s_2.tsx"/>
 <tileset firstgid="6684" source="tsx/black_wolf_w_4.tsx"/>
 <tileset firstgid="6685" source="tsx/black_wolf_w_5.tsx"/>
 <tileset firstgid="6686" source="tsx/black_wolf_s_3.tsx"/>
 <tileset firstgid="6687" source="tsx/black_wolf_s_4.tsx"/>
 <tileset firstgid="6688" source="tsx/black_wolf_s_5.tsx"/>
 <tileset firstgid="6689" source="tsx/black_wolf_s_6.tsx"/>
 <tileset firstgid="6690" source="tsx/black_wolf_a_1.tsx"/>
 <tileset firstgid="6691" source="tsx/black_wolf_a_2.tsx"/>
 <tileset firstgid="6692" source="tsx/black_wolf_a_3.tsx"/>
 <tileset firstgid="6693" source="tsx/black_wolf_a_4.tsx"/>
 <tileset firstgid="6694" source="tsx/black_wolf_a_5.tsx"/>
 <tileset firstgid="6695" source="tsx/black_wolf_a_6.tsx"/>
 <tileset firstgid="6696" source="tsx/black_wolf_d_1.tsx"/>
 <tileset firstgid="6697" source="tsx/black_wolf_d_2.tsx"/>
 <tileset firstgid="6698" source="tsx/black_wolf_d_3.tsx"/>
 <tileset firstgid="6699" source="tsx/black_wolf_d_4.tsx"/>
 <tileset firstgid="6700" source="tsx/black_wolf_d_5.tsx"/>
 <tileset firstgid="6701" source="tsx/black_wolf_d_6.tsx"/>
 <tileset firstgid="6702" source="tsx/black_wolf_idle_w_1.tsx"/>
 <tileset firstgid="6703" source="tsx/black_wolf_idle_s_1.tsx"/>
 <tileset firstgid="6704" source="tsx/black_wolf_idle_a_1.tsx"/>
 <tileset firstgid="6705" source="tsx/black_wolf_idle_d_1.tsx"/>
 <tileset firstgid="6706" source="tsx/spider_w_1.tsx"/>
 <tileset firstgid="6707" source="tsx/spider_w_2.tsx"/>
 <tileset firstgid="6708" source="tsx/spider_w_3.tsx"/>
 <tileset firstgid="6709" source="tsx/spider_w_4.tsx"/>
 <tileset firstgid="6710" source="tsx/spider_w_5.tsx"/>
 <tileset firstgid="6711" source="tsx/spider_w_6.tsx"/>
 <tileset firstgid="6712" source="tsx/spider_s_1.tsx"/>
 <tileset firstgid="6713" source="tsx/spider_s_2.tsx"/>
 <tileset firstgid="6714" source="tsx/spider_s_3.tsx"/>
 <tileset firstgid="6715" source="tsx/spider_s_4.tsx"/>
 <tileset firstgid="6716" source="tsx/spider_s_5.tsx"/>
 <tileset firstgid="6717" source="tsx/spider_s_6.tsx"/>
 <tileset firstgid="6718" source="tsx/spider_a_1.tsx"/>
 <tileset firstgid="6719" source="tsx/spider_a_2.tsx"/>
 <tileset firstgid="6720" source="tsx/spider_a_3.tsx"/>
 <tileset firstgid="6721" source="tsx/spider_a_4.tsx"/>
 <tileset firstgid="6722" source="tsx/spider_a_5.tsx"/>
 <tileset firstgid="6723" source="tsx/spider_a_6.tsx"/>
 <tileset firstgid="6724" source="tsx/spider_d_1.tsx"/>
 <tileset firstgid="6725" source="tsx/spider_d_2.tsx"/>
 <tileset firstgid="6726" source="tsx/spider_d_3.tsx"/>
 <tileset firstgid="6727" source="tsx/spider_d_4.tsx"/>
 <tileset firstgid="6728" source="tsx/spider_d_5.tsx"/>
 <tileset firstgid="6729" source="tsx/spider_d_6.tsx"/>
 <tileset firstgid="6730" source="tsx/spider_idle_w_1.tsx"/>
 <tileset firstgid="6731" source="tsx/spider_idle_s_1.tsx"/>
 <tileset firstgid="6732" source="tsx/spider_idle_a_1.tsx"/>
 <tileset firstgid="6733" source="tsx/spider_idle_d_1.tsx"/>
 <tileset firstgid="6734" source="tsx/blood_1.tsx"/>
 <tileset firstgid="6735" source="tsx/blood_2.tsx"/>
 <tileset firstgid="6736" source="tsx/blood_3.tsx"/>
 <tileset firstgid="6737" source="tsx/blood_4.tsx"/>
 <tileset firstgid="6738" source="tsx/blood_5.tsx"/>
 <tileset firstgid="6739" source="tsx/blood_6.tsx"/>
 <tileset firstgid="6740" source="tsx/blood_7.tsx"/>
 <tileset firstgid="6741" source="tsx/white_spider_w_1.tsx"/>
 <tileset firstgid="6742" source="tsx/white_spider_w_2.tsx"/>
 <tileset firstgid="6743" source="tsx/white_spider_w_3.tsx"/>
 <tileset firstgid="6744" source="tsx/white_spider_w_4.tsx"/>
 <tileset firstgid="6745" source="tsx/white_spider_w_5.tsx"/>
 <tileset firstgid="6746" source="tsx/white_spider_w_6.tsx"/>
 <tileset firstgid="6747" source="tsx/white_spider_s_1.tsx"/>
 <tileset firstgid="6748" source="tsx/white_spider_s_2.tsx"/>
 <tileset firstgid="6749" source="tsx/white_spider_s_3.tsx"/>
 <tileset firstgid="6750" source="tsx/white_spider_s_4.tsx"/>
 <tileset firstgid="6751" source="tsx/white_spider_s_5.tsx"/>
 <tileset firstgid="6752" source="tsx/white_spider_s_6.tsx"/>
 <tileset firstgid="6753" source="tsx/white_spider_a_1.tsx"/>
 <tileset firstgid="6754" source="tsx/white_spider_a_2.tsx"/>
 <tileset firstgid="6755" source="tsx/white_spider_a_3.tsx"/>
 <tileset firstgid="6756" source="tsx/white_spider_a_4.tsx"/>
 <tileset firstgid="6757" source="tsx/white_spider_a_5.tsx"/>
 <tileset firstgid="6758" source="tsx/white_spider_a_6.tsx"/>
 <tileset firstgid="6759" source="tsx/white_spider_d_1.tsx"/>
 <tileset firstgid="6760" source="tsx/white_spider_d_2.tsx"/>
 <tileset firstgid="6761" source="tsx/white_spider_d_3.tsx"/>
 <tileset firstgid="6762" source="tsx/white_spider_d_4.tsx"/>
 <tileset firstgid="6763" source="tsx/white_spider_d_5.tsx"/>
 <tileset firstgid="6764" source="tsx/white_spider_d_6.tsx"/>
 <tileset firstgid="6765" source="tsx/white_spider_w.tsx"/>
 <tileset firstgid="6766" source="tsx/white_spider_s.tsx"/>
 <tileset firstgid="6767" source="tsx/white_spider_a.tsx"/>
 <tileset firstgid="6768" source="tsx/white_spider_d.tsx"/>
 <tileset firstgid="6769" source="tsx/boar_w_1.tsx"/>
 <tileset firstgid="6770" source="tsx/boar_w_2.tsx"/>
 <tileset firstgid="6771" source="tsx/boar_w_3.tsx"/>
 <tileset firstgid="6772" source="tsx/boar_w_4.tsx"/>
 <tileset firstgid="6773" source="tsx/boar_w_5.tsx"/>
 <tileset firstgid="6774" source="tsx/boar_w_6.tsx"/>
 <tileset firstgid="6775" source="tsx/boar_s_0.tsx"/>
 <tileset firstgid="6776" source="tsx/boar_s_1.tsx"/>
 <tileset firstgid="6777" source="tsx/boar_s_2.tsx"/>
 <tileset firstgid="6778" source="tsx/boar_s_3.tsx"/>
 <tileset firstgid="6779" source="tsx/boar_s_4.tsx"/>
 <tileset firstgid="6780" source="tsx/boar_s_5.tsx"/>
 <tileset firstgid="6781" source="tsx/boar_a_0.tsx"/>
 <tileset firstgid="6782" source="tsx/boar_a_1.tsx"/>
 <tileset firstgid="6783" source="tsx/boar_a_2.tsx"/>
 <tileset firstgid="6784" source="tsx/boar_a_4.tsx"/>
 <tileset firstgid="6785" source="tsx/boar_a_5.tsx"/>
 <tileset firstgid="6786" source="tsx/boar_d_0.tsx"/>
 <tileset firstgid="6787" source="tsx/boar_d_1.tsx"/>
 <tileset firstgid="6788" source="tsx/boar_d_2.tsx"/>
 <tileset firstgid="6789" source="tsx/boar_d_4.tsx"/>
 <tileset firstgid="6790" source="tsx/boar_d_5.tsx"/>
 <tileset firstgid="6791" source="tsx/board_idle_w.tsx"/>
 <tileset firstgid="6792" source="tsx/boar_idle_s.tsx"/>
 <tileset firstgid="6793" source="tsx/board_idle_a.tsx"/>
 <tileset firstgid="6794" source="tsx/boar_idle_d.tsx"/>
 <tileset firstgid="6795" source="tsx/rabbit_w_0.tsx"/>
 <tileset firstgid="6796" source="tsx/rabbit_w_1.tsx"/>
 <tileset firstgid="6797" source="tsx/rabbit_w_2.tsx"/>
 <tileset firstgid="6798" source="tsx/rabbit_w_3.tsx"/>
 <tileset firstgid="6799" source="tsx/rabbit_w_4.tsx"/>
 <tileset firstgid="6800" source="tsx/rabbit_w_5.tsx"/>
 <tileset firstgid="6801" source="tsx/rabbit_s_0.tsx"/>
 <tileset firstgid="6802" source="tsx/rabbit_s_1.tsx"/>
 <tileset firstgid="6803" source="tsx/rabbit_s_2.tsx"/>
 <tileset firstgid="6804" source="tsx/rabbit_s_3.tsx"/>
 <tileset firstgid="6805" source="tsx/rabbit_s_4.tsx"/>
 <tileset firstgid="6806" source="tsx/rabbit_s_5.tsx"/>
 <tileset firstgid="6807" source="tsx/rabbit_a_0.tsx"/>
 <tileset firstgid="6808" source="tsx/rabbit_a_1.tsx"/>
 <tileset firstgid="6809" source="tsx/rabbit_a_2.tsx"/>
 <tileset firstgid="6810" source="tsx/rabbit_a_3.tsx"/>
 <tileset firstgid="6811" source="tsx/rabbit_a_4.tsx"/>
 <tileset firstgid="6812" source="tsx/rabbit_a_5.tsx"/>
 <tileset firstgid="6813" source="tsx/rabbit_d_0.tsx"/>
 <tileset firstgid="6814" source="tsx/rabbit_d_1.tsx"/>
 <tileset firstgid="6815" source="tsx/rabbit_d_2.tsx"/>
 <tileset firstgid="6816" source="tsx/rabbit_d_3.tsx"/>
 <tileset firstgid="6817" source="tsx/rabbit_d_4.tsx"/>
 <tileset firstgid="6818" source="tsx/rabbit_d_5.tsx"/>
 <tileset firstgid="6819" source="tsx/pirate_w_1.tsx"/>
 <tileset firstgid="6820" source="tsx/pirate_w_0.tsx"/>
 <tileset firstgid="6821" source="tsx/pirate_w_2.tsx"/>
 <tileset firstgid="6822" source="tsx/pirate_w_3.tsx"/>
 <tileset firstgid="6823" source="tsx/pirate_w_4.tsx"/>
 <tileset firstgid="6824" source="tsx/pirate_w_5.tsx"/>
 <tileset firstgid="6825" source="tsx/pirate_s_0.tsx"/>
 <tileset firstgid="6826" source="tsx/pirate_s_1.tsx"/>
 <tileset firstgid="6827" source="tsx/pirate_s_2.tsx"/>
 <tileset firstgid="6828" source="tsx/pirate_s_3.tsx"/>
 <tileset firstgid="6829" source="tsx/pirate_s_4.tsx"/>
 <tileset firstgid="6830" source="tsx/pirate_s_5.tsx"/>
 <tileset firstgid="6831" source="tsx/pirate_a_0.tsx"/>
 <tileset firstgid="6832" source="tsx/pirate_a_1.tsx"/>
 <tileset firstgid="6833" source="tsx/pirate_a_2.tsx"/>
 <tileset firstgid="6834" source="tsx/pirate_a_3.tsx"/>
 <tileset firstgid="6835" source="tsx/pirate_a_4.tsx"/>
 <tileset firstgid="6836" source="tsx/pirate_a_5.tsx"/>
 <tileset firstgid="6837" source="tsx/pirate_d_0.tsx"/>
 <tileset firstgid="6838" source="tsx/pirate_d_1.tsx"/>
 <tileset firstgid="6839" source="tsx/pirate_d_4.tsx"/>
 <tileset firstgid="6840" source="tsx/pirate_d_5.tsx"/>
 <tileset firstgid="6841" source="tsx/pirate_idle_w.tsx"/>
 <tileset firstgid="6842" source="tsx/pirate_idle_s.tsx"/>
 <tileset firstgid="6843" source="tsx/pirate_idle_a.tsx"/>
 <tileset firstgid="6844" source="tsx/pirate_idle_d.tsx"/>
 <tileset firstgid="6845" source="tsx/corsair_w_0.tsx"/>
 <tileset firstgid="6846" source="tsx/corsair_w_1.tsx"/>
 <tileset firstgid="6847" source="tsx/corsair_w_2.tsx"/>
 <tileset firstgid="6848" source="tsx/corsair_w_3.tsx"/>
 <tileset firstgid="6849" source="tsx/corsair_w_4.tsx"/>
 <tileset firstgid="6850" source="tsx/corsair_w_5.tsx"/>
 <tileset firstgid="6851" source="tsx/corsair_s_0.tsx"/>
 <tileset firstgid="6852" source="tsx/corsair_s_1.tsx"/>
 <tileset firstgid="6853" source="tsx/corsair_s_2.tsx"/>
 <tileset firstgid="6854" source="tsx/corsair_s_3.tsx"/>
 <tileset firstgid="6855" source="tsx/corsair_s_4.tsx"/>
 <tileset firstgid="6856" source="tsx/corsair_s_5.tsx"/>
 <tileset firstgid="6857" source="tsx/corsair_a_0.tsx"/>
 <tileset firstgid="6858" source="tsx/corsair_a_1.tsx"/>
 <tileset firstgid="6859" source="tsx/corsair_a_2.tsx"/>
 <tileset firstgid="6860" source="tsx/corsair_a_3.tsx"/>
 <tileset firstgid="6861" source="tsx/corsair_a_4.tsx"/>
 <tileset firstgid="6862" source="tsx/corsair_a_5.tsx"/>
 <tileset firstgid="6863" source="tsx/corsair_d_0.tsx"/>
 <tileset firstgid="6864" source="tsx/corsair_d_1.tsx"/>
 <tileset firstgid="6865" source="tsx/corsair_d_2.tsx"/>
 <tileset firstgid="6866" source="tsx/corsair_d_3.tsx"/>
 <tileset firstgid="6867" source="tsx/corsair_d_4.tsx"/>
 <tileset firstgid="6868" source="tsx/corsair_d_5.tsx"/>
 <tileset firstgid="6869" source="tsx/corsair_idle_w.tsx"/>
 <tileset firstgid="6870" source="tsx/corsair_idle_s.tsx"/>
 <tileset firstgid="6871" source="tsx/corsair_idle_a.tsx"/>
 <tileset firstgid="6872" source="tsx/corsair_idle_d.tsx"/>
 <tileset firstgid="6873" source="tsx/placeholder_1.tsx"/>
 <tileset firstgid="6881" source="tsx/placeholder_2.tsx"/>
 <tileset firstgid="6889" source="tsx/w_placeholder.tsx"/>
 <tileset firstgid="6890" source="tsx/s_placeholder.tsx"/>
 <tileset firstgid="6891" source="tsx/a_placeholder.tsx"/>
 <tileset firstgid="6892" source="tsx/d_placeholder.tsx"/>
 <layer id="12" name="PLACEHOLDER" width="100" height="100">
  <data encoding="csv">
6873,6873,6873,6873,6873,6873,6873,6873,6873,6873,6873,6873,6873,6873,6873,6873,6873,6873,6873,6873,6873,6873,6873,6873,6873,6873,6873,6873,6873,6873,6873,6873,6873,6873,6873,6873,6873,6873,6873,6873,6873,6873,6873,6873,6873,6873,6873,6873,6873,6873,6873,6873,6873,6873,6873,6873,6873,6873,6873,6873,6873,6873,6873,6873,6873,6873,6873,6873,6873,6873,6873,6873,6873,6873,6873,6873,6873,6873,6873,6873,6873,6873,6873,6873,6873,6873,6873,6873,6873,6873,6873,6873,6873,6873,6873,6873,6873,6873,6873,6873,
6873,6873,6873,6873,6873,6873,6873,6873,6873,6873,6873,6873,6873,6873,6873,6873,6873,6873,6873,6873,6873,6873,6873,6873,6873,6873,6873,6873,6873,6873,6873,6873,6873,6873,6873,6873,6873,6873,6873,6873,6873,6873,6873,6873,6873,6873,6873,6873,6873,6873,6873,6873,6873,6873,6873,6873,6873,6873,6873,6873,6873,6873,6873,6873,6873,6873,6873,6873,6873,6873,6873,6873,6873,6873,6873,6873,6873,6873,6873,6873,6873,6873,6873,6873,6873,6873,6873,6873,6873,6873,6873,6873,6873,6873,6873,6873,6873,6873,6873,6873,
6873,6873,6873,6873,6873,6873,6873,6873,6873,6873,6873,6873,6873,6873,6873,6873,6873,6873,6873,6873,6873,6873,6873,6873,6873,6873,6873,6873,6873,6873,6873,6873,6873,6873,6873,6873,6873,6873,6873,6873,6873,6873,6873,6873,6873,6873,6873,6873,6873,6873,6873,6873,6873,6873,6873,6873,6873,6873,6873,6873,6873,6873,6873,6873,6873,6873,6873,6873,6873,6873,6873,6873,6873,6873,6873,6873,6873,6873,6873,6873,6873,6873,6873,6873,6873,6873,6873,6873,6873,6873,6873,6873,6873,6873,6873,6873,6873,6873,6873,6873,
6873,6873,6873,6873,6873,6873,6873,6873,6873,6873,6873,6873,6873,6873,6873,6873,6873,6873,6873,6873,6873,6873,6873,6873,6873,6873,6873,6873,6873,6873,6873,6873,6873,6873,6873,6873,6873,6873,6873,6873,6873,6873,6873,6873,6873,6873,6873,6873,6873,6873,6873,6873,6873,6873,6873,6873,6873,6873,6873,6873,6873,6873,6873,6873,6873,6873,6873,6873,6873,6873,6873,6873,6873,6873,6873,6873,6873,6873,6873,6873,6873,6873,6873,6873,6873,6873,6873,6873,6873,6873,6873,6873,6873,6873,6873,6873,6873,6873,6873,6873,
6873,6873,6873,6873,6873,6873,6873,6873,6873,6873,6873,6873,6873,6873,6873,6873,6873,6873,6873,6873,6873,6873,6873,6873,6873,6873,6873,6873,6873,6873,6873,6873,6873,6873,6873,6873,6873,6873,6873,6873,6873,6873,6873,6873,6873,6873,6873,6873,6873,6873,6873,6873,6873,6873,6873,6873,6873,6873,6873,6873,6873,6873,6873,6873,6873,6873,6873,6873,6873,6873,6873,6873,6873,6873,6873,6873,6873,6873,6873,6873,6873,6873,6873,6873,6873,6873,6873,6873,6873,6873,6873,6873,6873,6873,6873,6873,6873,6873,6873,6873,
6873,6873,6873,6873,6873,6873,6873,6873,6873,6873,6873,6873,6873,6873,6873,6873,6873,6873,6873,6873,6873,6873,6873,6873,6873,6873,6873,6873,6873,6873,6873,6883,6873,6873,6873,6873,6873,6873,6883,6873,6873,6873,6883,6873,6873,6873,6873,6873,6873,6873,6873,6873,6873,6873,6873,6873,6873,6873,6873,6873,6873,6873,6873,6873,6873,6873,6873,6873,6873,6873,6873,6873,6873,6873,6873,6873,6873,6873,6873,6873,6873,6873,6873,6873,6873,6873,6873,6873,6873,6873,6873,6873,6873,6873,6873,6873,6873,6873,6873,6873,
6873,6873,6873,6873,6873,6873,6873,6873,6873,6873,6873,6873,6873,6873,6873,6873,6873,6883,6873,6883,6873,6873,6873,6873,6873,6873,6873,6873,6873,6873,6873,6873,6873,6873,6883,6873,6873,6873,6873,6873,6883,6873,6873,6873,6873,6873,6873,6873,6873,6873,6873,6873,6873,6873,6873,6873,6873,6873,6873,6873,6873,6873,6873,6873,6873,6873,6873,6873,6873,6873,6873,6873,6873,6873,6873,6873,6873,6873,6873,6873,6873,6873,6873,6873,6873,6873,6873,6873,6873,6873,6873,6873,6873,6873,6873,6873,6873,6873,6873,6873,
6873,6873,6873,6873,6873,6873,6873,6873,6873,6873,6873,6883,6873,6883,6873,6873,6873,6873,6873,6873,6873,6873,6873,6873,6873,6873,6873,6873,6873,6873,6873,6873,6873,6873,6873,6873,6873,6873,6873,6873,6873,6873,6873,6873,6873,6883,6873,6873,6873,6873,6873,6873,6873,6873,6873,6873,6873,6873,6873,6873,6873,6873,6873,6873,6873,6873,6873,6873,6873,6873,6873,6873,6873,6873,6873,6873,6873,6873,6873,6873,6873,6873,6873,6873,6873,6873,6873,6873,6873,6873,6873,6873,6873,6873,6873,6873,6873,6873,6873,6873,
6873,6873,6873,6873,6873,6873,6873,6873,6873,6873,6873,6873,6873,6873,6873,6873,6873,6873,6873,6873,6873,6873,6883,6873,6873,6873,6873,6873,6883,6873,6873,6881,6873,6873,6873,6873,6881,6881,6881,6881,6881,6881,6873,6873,6873,6873,6873,6873,6873,6873,6873,6873,6873,6873,6873,6873,6873,6873,6873,6873,6873,6873,6873,6873,6873,6873,6873,6873,6873,6873,6873,6873,6873,6873,6873,6873,6873,6873,6873,6873,6873,6873,6873,6873,6873,6873,6873,6873,6873,6873,6873,6873,6873,6873,6873,6873,6873,6873,6873,6873,
6873,6873,6873,6873,6873,6873,6873,6873,6873,6873,6873,6873,6873,6873,6881,6881,6881,6881,6881,6873,6873,6873,6873,6873,6873,6883,6873,6873,6873,6873,6873,6881,6881,6881,6881,6881,6881,6881,6881,6881,6881,6881,6881,6873,6873,6883,6873,6873,6873,6873,6873,6873,6873,6873,6873,6873,6873,6873,6873,6873,6873,6873,6873,6873,6873,6873,6873,6873,6873,6873,6873,6873,6873,6873,6873,6873,6873,6873,6873,6873,6873,6873,6873,6873,6873,6873,6873,6873,6873,6873,6873,6873,6873,6873,6873,6873,6873,6873,6873,6873,
6873,6873,6873,6873,6873,6873,6883,6873,6873,6873,6873,6873,6873,6873,6881,6881,6881,6881,6881,6881,6873,6883,6873,6873,6873,6873,6873,6873,6873,6873,6873,6881,6881,6881,6881,6881,6881,6881,6881,6881,6881,6881,6881,6873,6873,6873,6873,6873,6883,6873,6873,6873,6873,6873,6873,6873,6873,6873,6873,6873,6873,6873,6873,6873,6873,6873,6873,6873,6873,6873,6873,6873,6873,6873,6873,6873,6873,6873,6873,6873,6873,6873,6873,6873,6873,6873,6873,6873,6873,6873,6873,6873,6873,6873,6873,6873,6873,6873,6873,6873,
6873,6873,6873,6873,6873,6873,6873,6873,6873,6873,6883,6873,6873,6881,6881,6881,6881,6881,6881,6881,6873,6873,6873,6873,6873,6873,6883,6873,6882,6882,6882,6881,6881,6881,6881,6881,6881,6881,6881,6881,6881,6881,6881,6881,6881,6873,6873,6883,6873,6873,6873,6873,6883,6873,6873,6873,6873,6873,6873,6873,6873,6873,6873,6873,6873,6873,6873,6873,6873,6873,6873,6873,6873,6873,6873,6873,6873,6873,6873,6873,6873,6873,6873,6873,6873,6873,6873,6873,6873,6873,6873,6873,6873,6873,6873,6873,6873,6873,6873,6873,
6873,6873,6873,6873,6873,6873,6873,6873,6873,6873,6873,6873,6873,6881,6881,6881,6881,6881,6881,6881,6881,6873,6873,6883,6873,6873,6873,6873,6882,6877,6882,6881,6881,6881,6881,6881,6881,6881,6881,6881,6881,6881,6881,6881,6882,6873,6873,6873,6873,6873,6873,6873,6873,6873,6873,6873,6873,6873,6873,6873,6873,6873,6873,6873,6873,6873,6873,6873,6873,6873,6873,6873,6873,6873,6873,6873,6873,6873,6873,6873,6873,6873,6873,6873,6873,6873,6873,6873,6873,6873,6873,6873,6873,6873,6873,6873,6873,6873,6873,6873,
6873,6873,6873,6873,6873,6873,6873,6873,6873,6873,6873,6873,6881,6881,6881,6881,6881,6881,6881,6887,6887,6887,6873,6873,6873,6883,6873,6882,6882,6877,6882,6881,6881,6881,6881,6881,6881,6881,6881,6881,6881,6881,6881,6882,6882,6882,6873,6873,6873,6883,6873,6873,6873,6873,6873,6873,6873,6873,6873,6873,6873,6873,6873,6873,6873,6873,6873,6873,6873,6873,6873,6873,6873,6873,6873,6873,6873,6873,6873,6873,6873,6873,6873,6873,6873,6873,6873,6873,6873,6873,6873,6873,6873,6873,6873,6873,6873,6873,6873,6873,
6873,6873,6873,6873,6873,6873,6873,6883,6873,6881,6873,6881,6881,6881,6881,6881,6881,6881,6881,6887,6875,6887,6873,6873,6873,6873,6873,6882,6877,6877,6882,6882,6881,6881,6881,6881,6881,6881,6881,6881,6881,6881,6882,6882,6877,6882,6873,6873,6873,6873,6873,6883,6873,6873,6873,6883,6873,6873,6873,6873,6873,6873,6873,6873,6873,6873,6873,6873,6873,6873,6873,6873,6873,6873,6873,6873,6873,6873,6873,6873,6873,6873,6873,6873,6873,6873,6873,6873,6873,6873,6873,6873,6873,6873,6873,6873,6873,6873,6873,6873,
6873,6873,6873,6873,6873,6883,6873,6873,6873,6881,6881,6881,6881,6881,6881,6881,6881,6881,6881,6887,6887,6887,6881,6873,6882,6882,6882,6882,6877,6877,6882,6882,6881,6881,6881,6881,6881,6881,6881,6881,6882,6882,6882,6877,6877,6882,6882,6882,6882,6882,6873,6873,6873,6873,6873,6873,6873,6873,6883,6873,6873,6873,6873,6873,6873,6873,6873,6873,6873,6873,6873,6873,6873,6873,6873,6873,6873,6873,6873,6873,6873,6873,6873,6873,6873,6873,6873,6873,6873,6873,6873,6873,6873,6873,6873,6873,6873,6873,6873,6873,
6873,6873,6873,6873,6873,6873,6873,6873,6873,6881,6881,6881,6881,6881,6881,6881,6881,6881,6881,6881,6881,6881,6882,6882,6882,6877,6877,6877,6877,6877,6877,6882,6882,6882,6881,6881,6881,6881,6882,6882,6882,6877,6877,6877,6877,6877,6877,6877,6877,6882,6882,6882,6873,6873,6873,6883,6873,6873,6873,6873,6873,6873,6873,6873,6873,6873,6873,6873,6873,6873,6873,6873,6873,6873,6873,6873,6873,6873,6873,6873,6873,6873,6873,6873,6873,6873,6873,6873,6873,6873,6873,6873,6873,6873,6873,6873,6873,6873,6873,6873,
6873,6873,6873,6873,6873,6873,6873,6873,6873,6881,6881,6881,6881,6881,6881,6881,6881,6881,6881,6881,6881,6882,6882,6882,6877,6877,6877,6877,6877,6877,6877,6877,6877,6882,6882,6877,6877,6882,6882,6877,6877,6877,6877,6877,6877,6877,6877,6877,6877,6877,6877,6882,6882,6882,6882,6873,6873,6873,6873,6873,6873,6873,6873,6873,6873,6873,6873,6873,6873,6873,6873,6873,6873,6873,6873,6873,6873,6873,6873,6873,6873,6873,6873,6873,6873,6873,6873,6873,6873,6873,6873,6873,6873,6873,6873,6873,6873,6873,6873,6873,
6873,6873,6873,6873,6873,6883,6873,6873,6873,6881,6881,6881,6881,6881,6881,6881,6881,6881,6881,6881,6882,6882,6877,6877,6877,6877,6877,6877,6877,6877,6877,6877,6877,6877,6877,6877,6877,6877,6877,6877,6877,6877,6877,6877,6874,6874,6877,6877,6877,6877,6877,6877,6877,6877,6882,6882,6882,6873,6883,6873,6873,6883,6873,6873,6873,6873,6873,6873,6873,6873,6873,6873,6873,6873,6873,6873,6873,6873,6873,6873,6873,6873,6873,6873,6873,6873,6873,6873,6873,6873,6873,6873,6873,6873,6873,6873,6873,6873,6873,6873,
6873,6873,6873,6873,6873,6873,6873,6873,6873,6881,6881,6881,6881,6881,6881,6881,6881,6881,6881,6881,6882,6877,6877,6877,6877,6877,6877,6877,6877,6877,6877,6877,6877,6877,6877,6877,6877,6877,6877,6877,6877,6877,6877,6877,6877,6877,6877,6877,6877,6877,6877,6877,6877,6877,6877,6877,6882,6873,6873,6873,6873,6873,6873,6873,6873,6873,6873,6873,6873,6873,6873,6873,6873,6873,6873,6873,6873,6873,6873,6873,6873,6873,6873,6873,6873,6873,6873,6873,6873,6873,6873,6873,6873,6873,6873,6873,6873,6873,6873,6873,
6873,6873,6873,6873,6873,6873,6883,6873,6873,6873,6881,6881,6881,6881,6881,6881,6881,6881,6881,6882,6882,6877,6877,6877,6874,6874,6877,6877,6877,6877,6877,6877,6877,6877,6877,6877,6877,6877,6877,6877,6877,6877,6877,6877,6877,6877,6877,6877,6877,6877,6877,6877,6877,6877,6877,6877,6882,6882,6873,6883,6873,6873,6873,6873,6873,6873,6873,6873,6873,6873,6873,6873,6873,6873,6873,6873,6873,6873,6873,6873,6873,6873,6873,6873,6873,6873,6873,6873,6873,6873,6873,6873,6873,6873,6873,6873,6873,6873,6873,6873,
6873,6873,6873,6873,6873,6873,6873,6873,6873,6873,6873,6881,6881,6881,6881,6881,6881,6881,6881,6882,6877,6877,6877,6877,6874,6877,6877,6877,6877,6877,6877,6877,6877,6877,6877,6877,6877,6877,6877,6877,6877,6877,6877,6877,6877,6877,6877,6877,6877,6877,6877,6877,6877,6877,6877,6877,6877,6882,6873,6873,6873,6873,6873,6873,6873,6873,6883,6873,6873,6873,6873,6873,6873,6873,6873,6873,6873,6873,6873,6873,6873,6873,6873,6873,6873,6873,6873,6873,6873,6873,6873,6873,6873,6873,6873,6873,6873,6873,6873,6873,
6873,6873,6873,6873,6873,6873,6883,6873,6873,6873,6873,6881,6881,6881,6881,6881,6881,6881,6881,6877,6877,6877,6877,6877,6877,6877,6877,6877,6877,6877,6877,6877,6877,6877,6877,6877,6877,6877,6877,6877,6877,6877,6877,6877,6877,6877,6877,6877,6882,6882,6882,6882,6877,6877,6877,6877,6882,6882,6873,6873,6873,6883,6873,6883,6873,6873,6883,6873,6873,6873,6873,6873,6873,6873,6873,6873,6873,6873,6873,6873,6873,6873,6873,6873,6873,6873,6873,6873,6873,6873,6873,6873,6873,6873,6873,6873,6873,6873,6873,6873,
6873,6873,6873,6873,6873,6873,6873,6873,6873,6873,6873,6873,6881,6881,6881,6873,6881,6881,6881,6882,6882,6877,6877,6877,6877,6877,6877,6877,6877,6877,6877,6877,6877,6877,6877,6877,6877,6874,6874,6877,6877,6877,6877,6877,6877,6877,6882,6882,6882,6882,6882,6882,6882,6882,6877,6882,6882,6881,6873,6873,6873,6873,6873,6873,6873,6873,6873,6873,6873,6873,6873,6873,6873,6873,6873,6873,6873,6873,6873,6873,6873,6873,6873,6873,6873,6873,6873,6873,6873,6873,6873,6873,6873,6873,6873,6873,6873,6873,6873,6873,
6873,6873,6873,6873,6873,6873,6873,6873,6883,6873,6873,6873,6873,6873,6873,6873,6881,6881,6882,6882,6882,6877,6877,6877,6877,6877,6882,6882,6877,6882,6882,6882,6877,6877,6877,6877,6877,6877,6877,6877,6877,6877,6877,6877,6882,6882,6882,6882,6882,6882,6882,6882,6882,6881,6881,6881,6881,6881,6881,6873,6873,6873,6873,6873,6873,6873,6873,6873,6873,6873,6873,6873,6873,6873,6873,6873,6873,6873,6873,6873,6873,6873,6873,6873,6873,6873,6873,6873,6873,6873,6873,6873,6873,6873,6873,6873,6873,6873,6873,6873,
6873,6873,6873,6873,6873,6873,6883,6873,6873,6873,6873,6873,6873,6873,6873,6873,6873,6882,6882,6882,6877,6877,6877,6877,6882,6882,6882,6877,6877,6877,6882,6882,6882,6882,6877,6877,6877,6877,6877,6877,6877,6877,6877,6882,6882,6882,6882,6882,6882,6882,6881,6881,6881,6881,6881,6881,6881,6881,6881,6881,6873,6881,6881,6873,6873,6873,6873,6883,6873,6873,6873,6873,6873,6873,6873,6873,6873,6873,6873,6873,6873,6873,6873,6873,6873,6873,6873,6873,6873,6873,6873,6873,6873,6873,6873,6873,6873,6873,6873,6873,
6873,6873,6873,6873,6873,6873,6873,6873,6873,6883,6873,6873,6873,6873,6873,6873,6873,6882,6877,6877,6877,6877,6882,6882,6882,6882,6877,6877,6877,6877,6877,6877,6882,6882,6882,6877,6877,6877,6877,6877,6877,6877,6882,6882,6882,6882,6882,6882,6881,6881,6881,6881,6881,6881,6881,6881,6881,6881,6881,6881,6881,6881,6881,6881,6881,6873,6873,6873,6873,6873,6873,6873,6873,6873,6873,6873,6873,6873,6873,6873,6873,6873,6873,6873,6873,6873,6873,6873,6873,6873,6873,6873,6873,6873,6873,6873,6873,6873,6873,6873,
6873,6873,6873,6873,6873,6873,6873,6873,6873,6873,6873,6873,6883,6873,6883,6873,6882,6882,6877,6877,6882,6882,6882,6877,6877,6877,6877,6877,6877,6877,6877,6877,6877,6877,6882,6882,6882,6882,6882,6882,6882,6882,6882,6882,6882,6882,6881,6881,6881,6881,6881,6881,6881,6881,6881,6881,6881,6881,6881,6881,6881,6881,6881,6881,6881,6873,6873,6873,6883,6873,6873,6873,6873,6873,6873,6873,6873,6873,6873,6873,6873,6883,6873,6873,6873,6873,6873,6873,6873,6873,6873,6873,6873,6873,6873,6873,6873,6873,6873,6873,
6873,6873,6873,6873,6873,6873,6873,6873,6873,6883,6873,6873,6873,6873,6873,6873,6882,6877,6877,6882,6882,6882,6882,6882,6877,6877,6877,6877,6877,6877,6877,6877,6877,6877,6877,6882,6882,6882,6882,6882,6882,6882,6882,6882,6882,6881,6881,6881,6881,6881,6881,6881,6881,6881,6881,6881,6881,6881,6881,6881,6881,6881,6881,6881,6881,6873,6873,6873,6873,6873,6873,6873,6873,6873,6873,6873,6873,6873,6873,6873,6873,6873,6873,6873,6873,6873,6873,6873,6873,6873,6873,6873,6873,6873,6873,6873,6873,6873,6873,6873,
6873,6873,6873,6873,6883,6873,6873,6873,6873,6873,6873,6873,6873,6873,6873,6873,6882,6877,6877,6882,6882,6882,6882,6882,6877,6877,6877,6882,6882,6882,6882,6877,6877,6877,6877,6877,6877,6882,6882,6882,6882,6882,6882,6882,6881,6881,6881,6881,6881,6881,6881,6881,6881,6881,6881,6881,6881,6881,6881,6881,6881,6873,6873,6873,6873,6873,6873,6873,6873,6873,6883,6873,6873,6873,6873,6873,6873,6873,6873,6873,6873,6873,6873,6873,6873,6873,6883,6873,6873,6873,6873,6873,6873,6883,6873,6873,6873,6873,6873,6873,
6873,6873,6873,6873,6873,6873,6873,6873,6873,6883,6873,6873,6883,6873,6873,6873,6882,6877,6877,6882,6882,6882,6882,6882,6882,6882,6882,6882,6882,6882,6882,6882,6877,6877,6877,6877,6877,6882,6882,6882,6882,6882,6882,6882,6881,6881,6881,6881,6881,6881,6881,6881,6881,6881,6881,6881,6881,6873,6873,6873,6873,6873,6873,6873,6873,6873,6873,6873,6873,6873,6873,6873,6883,6873,6873,6873,6873,6873,6873,6883,6883,6873,6873,6883,6873,6873,6873,6873,6873,6883,6873,6873,6873,6873,6873,6873,6873,6873,6873,6873,
6873,6873,6873,6873,6873,6873,6873,6873,6873,6873,6873,6873,6873,6873,6883,6873,6882,6877,6877,6882,6882,6882,6882,6882,6882,6877,6882,6877,6877,6877,6882,6882,6882,6882,6877,6877,6877,6877,6877,6882,6882,6882,6882,6881,6881,6881,6881,6881,6881,6881,6881,6881,6881,6881,6873,6873,6873,6873,6873,6873,6873,6873,6873,6883,6873,6873,6873,6883,6873,6873,6873,6873,6883,6873,6873,6873,6873,6873,6873,6873,6873,6873,6873,6873,6873,6873,6873,6873,6873,6873,6873,6873,6873,6873,6873,6873,6873,6873,6873,6873,
6873,6873,6873,6873,6873,6873,6873,6873,6873,6873,6873,6883,6873,6873,6873,6873,6882,6882,6877,6882,6882,6882,6882,6882,6877,6877,6877,6877,6877,6877,6877,6877,6877,6882,6882,6877,6877,6877,6882,6882,6882,6882,6881,6881,6881,6881,6881,6881,6881,6881,6881,6881,6881,6873,6873,6873,6873,6873,6873,6883,6873,6873,6873,6873,6873,6873,6873,6873,6873,6873,6873,6873,6873,6873,6873,6873,6883,6873,6873,6873,6873,6873,6873,6873,6873,6873,6873,6873,6873,6873,6873,6873,6873,6873,6873,6873,6873,6873,6883,6873,
6873,6873,6873,6873,6873,6873,6873,6873,6873,6873,6873,6873,6873,6883,6873,6873,6873,6882,6877,6882,6882,6882,6882,6877,6877,6877,6877,6877,6877,6877,6877,6877,6877,6877,6882,6882,6877,6877,6882,6882,6882,6882,6881,6881,6881,6881,6881,6881,6881,6873,6873,6873,6873,6873,6873,6873,6873,6873,6873,6873,6873,6882,6882,6882,6882,6876,6876,6876,6876,6876,6873,6873,6873,6873,6873,6873,6873,6883,6873,6873,6873,6883,6873,6873,6882,6882,6882,6876,6876,6876,6876,6876,6873,6873,6883,6873,6873,6873,6873,6873,
6873,6873,6873,6873,6873,6873,6873,6873,6873,6873,6873,6873,6873,6873,6873,6883,6873,6882,6877,6882,6882,6882,6877,6877,6877,6877,6877,6877,6874,6874,6877,6877,6877,6877,6877,6882,6882,6882,6882,6882,6882,6881,6881,6881,6881,6881,6881,6881,6873,6873,6873,6873,6873,6873,6873,6883,6873,6873,6882,6876,6876,6876,6876,6876,6882,6876,6876,6876,6876,6876,6873,6883,6873,6873,6883,6873,6883,6873,6873,6873,6873,6873,6873,6882,6882,6882,6882,6876,6876,6876,6876,6876,6873,6873,6873,6873,6873,6873,6873,6873,
6873,6873,6873,6873,6873,6873,6873,6873,6873,6873,6873,6873,6873,6873,6873,6873,6873,6882,6877,6882,6882,6882,6877,6877,6877,6877,6877,6877,6874,6874,6874,6877,6877,6877,6877,6877,6877,6877,6882,6882,6882,6881,6881,6881,6881,6881,6881,6873,6873,6873,6883,6873,6873,6873,6873,6873,6873,6882,6882,6876,6876,6876,6876,6876,6882,6876,6876,6876,6876,6876,6873,6873,6873,6873,6873,6873,6873,6873,6873,6873,6882,6882,6882,6882,6882,6882,6882,6876,6876,6876,6876,6876,6873,6873,6873,6873,6873,6873,6873,6873,
6873,6873,6873,6873,6873,6873,6873,6873,6873,6873,6883,6873,6873,6873,6873,6873,6873,6882,6881,6882,6882,6882,6877,6877,6874,6877,6877,6877,6877,6874,6874,6877,6877,6877,6874,6877,6877,6877,6877,6877,6882,6881,6881,6881,6881,6881,6873,6873,6873,6873,6873,6873,6873,6882,6882,6882,6882,6882,6882,6876,6876,6876,6876,6876,6882,6876,6876,6876,6876,6876,6882,6882,6882,6882,6873,6873,6873,6873,6882,6882,6882,6882,6882,6882,6882,6882,6882,6876,6876,6876,6876,6876,6882,6873,6873,6883,6873,6873,6873,6873,
6873,6873,6873,6873,6873,6873,6873,6873,6873,6873,6873,6873,6883,6873,6873,6883,6873,6881,6881,6881,6881,6882,6882,6877,6877,6877,6877,6877,6877,6877,6877,6877,6877,6877,6877,6877,6877,6877,6877,6877,6882,6881,6881,6881,6881,6873,6873,6873,6873,6883,6873,6873,6873,6882,6888,6882,6882,6888,6882,6876,6876,6876,6876,6876,6882,6876,6876,6876,6876,6876,6888,6882,6882,6882,6882,6882,6873,6882,6882,6882,6882,6882,6882,6882,6882,6888,6882,6876,6876,6876,6876,6876,6882,6873,6873,6873,6873,6873,6873,6873,
6873,6873,6873,6873,6873,6873,6873,6873,6873,6873,6873,6873,6873,6873,6873,6873,6873,6881,6881,6881,6881,6881,6882,6882,6882,6877,6877,6877,6877,6877,6877,6877,6877,6877,6877,6877,6877,6877,6877,6882,6882,6881,6881,6881,6881,6873,6873,6873,6873,6873,6873,6873,6882,6882,6888,6888,6888,6888,6888,6888,6888,6888,6888,6888,6882,6882,6888,6888,6888,6888,6888,6882,6882,6882,6882,6882,6882,6882,6882,6882,6888,6882,6882,6882,6882,6888,6888,6887,6888,6888,6888,6882,6882,6873,6873,6873,6873,6873,6873,6873,
6873,6873,6873,6873,6873,6873,6873,6873,6873,6873,6873,6873,6873,6873,6873,6873,6873,6881,6881,6881,6881,6881,6881,6881,6882,6882,6877,6877,6877,6877,6877,6877,6877,6874,6874,6877,6877,6877,6877,6882,6881,6881,6881,6882,6882,6882,6882,6882,6882,6882,6882,6882,6882,6888,6888,6888,6888,6888,6888,6888,6888,6888,6888,6888,6888,6888,6888,6888,6888,6888,6888,6888,6888,6888,6882,6882,6882,6882,6888,6888,6888,6888,6888,6888,6888,6888,6888,6888,6888,6888,6888,6888,6882,6873,6883,6873,6873,6873,6873,6873,
6873,6873,6873,6873,6873,6873,6873,6873,6873,6873,6873,6883,6873,6873,6873,6873,6881,6881,6881,6873,6873,6873,6881,6881,6881,6882,6882,6882,6877,6877,6877,6877,6874,6874,6874,6877,6877,6877,6877,6877,6881,6881,6881,6881,6881,6881,6881,6881,6881,6881,6881,6881,6881,6888,6888,6888,6888,6888,6888,6888,6888,6888,6888,6888,6888,6888,6888,6888,6888,6888,6888,6888,6888,6888,6888,6888,6888,6888,6888,6888,6888,6888,6888,6888,6888,6888,6888,6888,6888,6888,6888,6882,6882,6873,6873,6873,6873,6873,6873,6873,
6873,6873,6873,6873,6873,6873,6873,6873,6873,6883,6873,6873,6873,6873,6873,6881,6881,6881,6873,6873,6873,6873,6873,6881,6881,6881,6881,6882,6882,6877,6877,6877,6874,6874,6877,6877,6877,6877,6877,6882,6881,6881,6881,6882,6882,6882,6882,6882,6882,6882,6882,6882,6882,6888,6888,6888,6888,6888,6888,6888,6888,6888,6888,6888,6888,6888,6888,6888,6888,6888,6888,6888,6888,6888,6888,6882,6882,6882,6882,6888,6888,6888,6888,6888,6888,6888,6882,6882,6882,6888,6882,6882,6873,6873,6873,6873,6873,6873,6873,6873,
6873,6873,6873,6873,6873,6873,6873,6873,6873,6873,6873,6883,6873,6873,6881,6881,6881,6881,6873,6883,6873,6873,6873,6873,6873,6881,6881,6881,6882,6882,6877,6877,6877,6877,6877,6877,6877,6877,6877,6882,6881,6881,6881,6882,6882,6882,6882,6882,6882,6882,6882,6882,6882,6888,6888,6888,6882,6888,6888,6888,6888,6888,6888,6888,6888,6888,6888,6888,6888,6888,6882,6882,6888,6882,6882,6882,6882,6882,6882,6882,6882,6882,6882,6882,6882,6882,6882,6882,6882,6882,6882,6873,6873,6873,6873,6873,6873,6883,6873,6873,
6873,6873,6873,6873,6873,6873,6873,6873,6873,6873,6873,6873,6873,6873,6881,6881,6881,6881,6873,6873,6873,6873,6883,6873,6873,6873,6881,6881,6881,6882,6882,6877,6877,6877,6877,6877,6877,6877,6877,6882,6882,6881,6881,6881,6881,6882,6882,6882,6882,6882,6882,6882,6882,6882,6882,6882,6882,6882,6888,6888,6888,6888,6888,6888,6888,6882,6882,6888,6888,6888,6888,6888,6882,6882,6882,6882,6873,6873,6873,6882,6882,6882,6882,6882,6882,6882,6882,6882,6882,6882,6882,6873,6883,6873,6873,6873,6873,6873,6873,6873,
6873,6873,6873,6873,6873,6873,6873,6873,6873,6873,6883,6873,6873,6873,6881,6881,6881,6881,6881,6873,6873,6873,6873,6873,6873,6873,6873,6881,6881,6881,6882,6882,6877,6877,6874,6874,6877,6877,6877,6877,6882,6881,6881,6881,6881,6882,6882,6882,6882,6882,6882,6882,6882,6882,6876,6876,6876,6876,6876,6888,6888,6888,6882,6882,6882,6882,6882,6888,6888,6888,6888,6888,6882,6882,6882,6873,6883,6873,6873,6873,6873,6882,6882,6882,6882,6882,6882,6882,6882,6873,6873,6873,6873,6873,6873,6873,6873,6873,6873,6873,
6873,6873,6873,6873,6873,6873,6873,6873,6873,6873,6873,6873,6873,6873,6881,6881,6881,6881,6881,6881,6873,6873,6873,6873,6873,6873,6873,6881,6881,6881,6881,6882,6882,6877,6877,6877,6877,6877,6877,6877,6882,6882,6882,6881,6881,6881,6882,6882,6882,6882,6882,6882,6882,6882,6876,6876,6876,6876,6876,6888,6888,6888,6882,6881,6881,6881,6882,6888,6888,6888,6888,6882,6882,6882,6882,6873,6873,6873,6883,6873,6873,6873,6873,6873,6873,6873,6873,6873,6873,6873,6873,6873,6873,6873,6883,6873,6873,6873,6873,6873,
6873,6873,6873,6873,6873,6873,6883,6873,6873,6873,6873,6873,6873,6873,6881,6881,6881,6881,6881,6881,6881,6881,6873,6873,6873,6883,6873,6881,6881,6881,6881,6881,6882,6882,6882,6877,6877,6877,6877,6877,6877,6877,6882,6881,6881,6881,6882,6882,6882,6882,6882,6882,6882,6882,6876,6876,6876,6876,6876,6888,6888,6888,6882,6881,6881,6881,6882,6888,6888,6888,6888,6882,6882,6882,6882,6882,6873,6873,6873,6873,6873,6873,6873,6873,6883,6873,6873,6873,6873,6873,6873,6873,6873,6873,6873,6873,6873,6873,6873,6873,
6873,6873,6873,6873,6873,6873,6873,6873,6873,6873,6873,6873,6873,6873,6881,6881,6881,6881,6881,6881,6881,6881,6881,6881,6873,6873,6873,6881,6881,6881,6881,6881,6881,6881,6882,6882,6877,6877,6877,6877,6882,6882,6882,6881,6881,6881,6882,6882,6882,6882,6882,6882,6882,6882,6876,6876,6876,6876,6876,6888,6888,6888,6882,6881,6881,6881,6882,6888,6888,6888,6888,6882,6882,6882,6882,6882,6873,6873,6873,6873,6873,6883,6873,6873,6873,6873,6873,6873,6873,6883,6873,6873,6873,6873,6873,6873,6873,6873,6873,6873,
6873,6873,6873,6873,6873,6873,6873,6873,6873,6873,6873,6883,6873,6873,6881,6881,6881,6881,6881,6881,6881,6881,6881,6881,6881,6881,6881,6881,6881,6881,6881,6881,6881,6881,6881,6882,6882,6882,6877,6882,6882,6882,6882,6881,6881,6881,6882,6882,6882,6882,6882,6882,6882,6882,6882,6882,6888,6888,6888,6888,6888,6888,6882,6882,6882,6882,6882,6888,6888,6888,6888,6882,6882,6882,6882,6882,6873,6873,6873,6873,6873,6873,6873,6873,6873,6873,6873,6873,6873,6873,6873,6883,6873,6873,6873,6873,6873,6873,6873,6873,
6873,6873,6873,6873,6873,6873,6873,6873,6873,6873,6873,6873,6873,6873,6881,6881,6881,6881,6881,6881,6881,6882,6882,6882,6882,6882,6882,6882,6881,6881,6881,6881,6881,6881,6881,6881,6881,6882,6882,6882,6882,6882,6882,6881,6881,6881,6881,6882,6882,6882,6882,6882,6882,6882,6882,6882,6888,6888,6888,6882,6882,6882,6882,6888,6888,6888,6888,6888,6888,6888,6882,6882,6882,6877,6882,6877,6877,6873,6883,6883,6873,6873,6883,6873,6873,6873,6873,6873,6873,6873,6873,6873,6873,6873,6873,6873,6873,6873,6873,6873,
6873,6873,6873,6873,6873,6873,6873,6873,6883,6873,6883,6873,6873,6873,6881,6881,6881,6881,6881,6882,6882,6882,6882,6882,6882,6882,6882,6882,6882,6882,6881,6881,6881,6881,6881,6881,6881,6881,6882,6882,6882,6882,6881,6881,6881,6881,6881,6881,6882,6882,6882,6882,6882,6882,6882,6882,6882,6888,6882,6882,6882,6882,6882,6882,6882,6882,6888,6888,6888,6888,6888,6882,6882,6877,6877,6877,6877,6873,6873,6873,6873,6873,6873,6873,6873,6873,6873,6883,6873,6873,6873,6873,6873,6873,6873,6873,6873,6873,6873,6873,
6873,6873,6873,6873,6873,6873,6873,6873,6873,6873,6873,6873,6873,6881,6881,6881,6881,6882,6882,6876,6876,6876,6876,6876,6882,6882,6882,6882,6882,6882,6882,6882,6882,6881,6881,6881,6881,6881,6881,6881,6881,6881,6881,6881,6881,6881,6881,6881,6881,6882,6882,6882,6882,6882,6882,6882,6882,6882,6882,6882,6882,6882,6882,6882,6882,6882,6882,6888,6888,6877,6877,6877,6877,6877,6877,6877,6877,6873,6873,6873,6873,6883,6873,6873,6883,6873,6873,6873,6873,6873,6873,6873,6873,6873,6873,6873,6873,6873,6873,6873,
6873,6873,6873,6873,6873,6873,6873,6873,6873,6883,6873,6873,6873,6881,6881,6881,6881,6882,6882,6876,6876,6876,6876,6876,6882,6882,6882,6882,6882,6882,6882,6882,6882,6882,6881,6881,6881,6881,6881,6881,6881,6881,6881,6881,6881,6881,6881,6881,6881,6882,6882,6882,6882,6882,6882,6882,6882,6882,6882,6882,6882,6882,6882,6882,6882,6882,6882,6877,6877,6877,6877,6877,6877,6877,6877,6877,6877,6877,6873,6873,6873,6873,6873,6873,6873,6873,6873,6873,6873,6873,6873,6873,6873,6873,6873,6873,6873,6873,6873,6873,
6873,6873,6873,6873,6873,6873,6873,6873,6873,6873,6873,6873,6873,6881,6881,6881,6882,6882,6882,6876,6876,6876,6876,6876,6882,6882,6877,6877,6882,6882,6882,6882,6882,6882,6882,6882,6881,6881,6881,6881,6881,6881,6881,6881,6881,6881,6881,6881,6882,6882,6882,6882,6882,6882,6882,6882,6882,6882,6882,6882,6882,6882,6882,6882,6882,6882,6877,6877,6877,6877,6877,6877,6877,6877,6874,6877,6877,6877,6873,6873,6873,6873,6873,6873,6873,6873,6873,6873,6873,6873,6873,6873,6873,6873,6873,6873,6873,6873,6873,6873,
6873,6873,6873,6873,6873,6873,6873,6873,6873,6873,6873,6873,6873,6881,6881,6882,6882,6882,6882,6876,6876,6876,6876,6876,6882,6882,6877,6877,6877,6882,6882,6882,6882,6882,6882,6882,6882,6882,6881,6881,6881,6881,6881,6881,6882,6882,6882,6882,6882,6882,6882,6882,6882,6882,6882,6882,6882,6882,6882,6882,6882,6882,6882,6877,6882,6877,6877,6877,6877,6877,6877,6877,6877,6877,6877,6877,6877,6877,6873,6873,6873,6883,6873,6873,6873,6873,6873,6873,6873,6873,6873,6873,6873,6873,6873,6873,6873,6873,6873,6873,
6873,6873,6873,6873,6873,6883,6873,6873,6883,6873,6873,6873,6881,6881,6882,6882,6882,6882,6882,6882,6877,6877,6877,6882,6877,6877,6877,6877,6877,6877,6877,6882,6882,6882,6882,6882,6882,6882,6882,6882,6881,6881,6882,6882,6882,6882,6882,6882,6882,6882,6882,6882,6882,6882,6882,6882,6882,6882,6882,6882,6882,6882,6882,6877,6877,6877,6877,6877,6877,6877,6877,6877,6877,6874,6874,6874,6877,6877,6877,6873,6873,6873,6873,6873,6873,6873,6873,6873,6873,6873,6873,6873,6873,6873,6873,6873,6873,6873,6873,6873,
6873,6873,6873,6873,6873,6873,6873,6873,6873,6873,6873,6873,6881,6881,6882,6882,6882,6882,6882,6882,6877,6877,6877,6877,6877,6877,6877,6877,6877,6877,6877,6877,6882,6877,6882,6882,6882,6882,6882,6882,6882,6882,6882,6882,6882,6882,6882,6882,6882,6882,6882,6882,6882,6882,6882,6882,6882,6882,6877,6882,6877,6877,6877,6877,6877,6877,6877,6877,6877,6877,6877,6877,6874,6874,6874,6874,6874,6877,6877,6873,6873,6873,6873,6873,6883,6873,6873,6873,6873,6873,6873,6873,6873,6873,6873,6873,6873,6873,6873,6873,
6873,6873,6873,6873,6873,6873,6873,6873,6873,6873,6873,6873,6881,6881,6882,6882,6882,6882,6882,6882,6877,6877,6877,6874,6874,6877,6877,6877,6877,6877,6877,6877,6877,6877,6882,6882,6877,6882,6882,6882,6882,6882,6882,6882,6882,6882,6882,6882,6882,6882,6882,6882,6882,6882,6882,6877,6882,6877,6877,6877,6877,6877,6877,6877,6877,6877,6874,6874,6874,6877,6877,6877,6874,6874,6874,6874,6874,6877,6877,6877,6873,6873,6873,6873,6873,6873,6873,6873,6873,6873,6873,6873,6873,6873,6873,6873,6873,6873,6873,6873,
6873,6873,6873,6873,6873,6873,6873,6873,6873,6873,6873,6873,6881,6881,6882,6882,6882,6882,6882,6882,6877,6877,6877,6874,6874,6877,6877,6877,6877,6877,6877,6877,6877,6877,6877,6877,6877,6877,6877,6882,6882,6882,6882,6882,6882,6882,6882,6882,6882,6882,6882,6882,6882,6882,6882,6877,6877,6877,6877,6877,6877,6877,6877,6877,6877,6874,6874,6874,6874,6874,6877,6877,6877,6874,6874,6874,6877,6877,6877,6877,6877,6873,6873,6873,6873,6873,6873,6873,6873,6873,6873,6873,6873,6873,6873,6873,6873,6873,6873,6873,
6873,6873,6873,6873,6873,6873,6873,6873,6873,6883,6873,6873,6881,6881,6882,6882,6882,6882,6882,6882,6877,6877,6877,6877,6877,6877,6877,6877,6877,6877,6877,6877,6877,6877,6877,6877,6877,6877,6877,6882,6882,6882,6882,6882,6882,6882,6882,6882,6882,6882,6882,6882,6882,6877,6877,6877,6877,6877,6877,6877,6874,6874,6877,6877,6877,6874,6874,6874,6874,6874,6877,6877,6877,6877,6874,6877,6877,6877,6877,6877,6877,6873,6873,6873,6883,6873,6873,6873,6873,6873,6873,6873,6873,6873,6873,6873,6873,6873,6873,6873,
6873,6873,6873,6873,6873,6873,6873,6873,6873,6873,6873,6873,6881,6881,6882,6882,6882,6882,6882,6882,6877,6877,6877,6877,6877,6877,6877,6877,6877,6877,6877,6877,6877,6877,6877,6877,6877,6877,6877,6882,6882,6882,6882,6882,6882,6882,6882,6882,6882,6882,6877,6877,6877,6877,6877,6877,6877,6877,6877,6877,6874,6874,6877,6877,6877,6877,6874,6874,6874,6877,6877,6877,6877,6877,6877,6877,6877,6877,6874,6877,6877,6877,6873,6873,6873,6873,6873,6873,6873,6873,6873,6873,6873,6873,6873,6873,6873,6873,6873,6873,
6873,6873,6873,6873,6873,6873,6883,6873,6873,6873,6873,6873,6881,6881,6882,6882,6882,6882,6882,6882,6877,6877,6877,6877,6877,6877,6877,6877,6877,6877,6877,6877,6877,6877,6877,6877,6877,6877,6877,6877,6877,6882,6882,6882,6882,6882,6882,6882,6882,6882,6877,6877,6877,6877,6877,6877,6874,6877,6877,6877,6874,6874,6877,6877,6877,6877,6877,6874,6877,6877,6877,6877,6877,6877,6877,6877,6877,6877,6877,6877,6877,6873,6873,6883,6873,6873,6873,6883,6873,6873,6873,6873,6873,6873,6873,6873,6873,6873,6873,6873,
6873,6873,6873,6873,6873,6873,6873,6873,6883,6873,6873,6882,6882,6882,6882,6882,6882,6882,6882,6882,6882,6882,6877,6877,6882,6882,6882,6882,6882,6882,6882,6882,6882,6882,6882,6882,6877,6877,6877,6877,6882,6882,6882,6882,6882,6882,6882,6882,6882,6877,6877,6877,6877,6877,6877,6877,6877,6877,6877,6877,6874,6874,6877,6877,6877,6877,6877,6877,6877,6877,6877,6877,6877,6877,6877,6877,6877,6877,6877,6877,6877,6877,6873,6873,6873,6873,6873,6873,6873,6873,6873,6873,6873,6873,6873,6873,6873,6873,6873,6873,
6873,6873,6873,6873,6873,6873,6873,6873,6873,6873,6873,6882,6882,6881,6881,6881,6882,6882,6882,6882,6877,6877,6877,6877,6877,6877,6882,6882,6882,6882,6873,6873,6873,6873,6873,6882,6877,6877,6877,6877,6882,6882,6882,6882,6882,6882,6882,6882,6877,6877,6877,6877,6877,6874,6874,6874,6877,6877,6877,6877,6877,6877,6877,6877,6877,6877,6877,6877,6877,6877,6877,6877,6877,6877,6877,6874,6874,6874,6877,6877,6877,6877,6873,6873,6873,6873,6873,6873,6873,6873,6873,6873,6873,6873,6873,6873,6873,6873,6873,6873,
6873,6873,6873,6873,6873,6873,6873,6873,6873,6873,6873,6882,6882,6881,6881,6881,6882,6882,6877,6877,6877,6877,6877,6877,6877,6882,6882,6882,6882,6882,6873,6873,6873,6873,6873,6882,6877,6877,6877,6877,6882,6882,6882,6882,6882,6882,6882,6877,6877,6877,6877,6877,6874,6874,6874,6874,6874,6877,6877,6877,6877,6877,6877,6877,6874,6877,6877,6877,6874,6874,6877,6877,6877,6877,6874,6874,6874,6874,6874,6877,6877,6877,6877,6877,6873,6873,6883,6873,6873,6873,6873,6873,6873,6873,6873,6873,6873,6873,6873,6873,
6873,6873,6873,6873,6873,6873,6873,6873,6883,6873,6873,6887,6887,6887,6881,6881,6881,6882,6882,6877,6877,6877,6877,6877,6877,6882,6882,6882,6882,6882,6873,6873,6873,6883,6873,6882,6877,6877,6877,6877,6882,6882,6882,6882,6882,6882,6882,6877,6877,6877,6877,6877,6874,6874,6874,6874,6874,6877,6877,6877,6877,6877,6877,6877,6877,6877,6877,6877,6874,6874,6877,6877,6877,6877,6874,6874,6874,6874,6874,6877,6877,6877,6877,6873,6873,6873,6873,6873,6873,6873,6873,6873,6873,6873,6873,6873,6873,6873,6873,6873,
6873,6873,6873,6873,6873,6873,6883,6873,6873,6873,6873,6887,6875,6887,6881,6881,6882,6882,6882,6882,6877,6877,6877,6877,6877,6877,6877,6877,6877,6882,6873,6873,6873,6873,6873,6882,6877,6877,6877,6877,6877,6877,6882,6882,6882,6882,6882,6877,6877,6877,6877,6877,6877,6874,6874,6874,6877,6877,6877,6877,6874,6874,6874,6877,6877,6877,6877,6877,6874,6874,6877,6877,6877,6877,6877,6874,6874,6874,6877,6877,6877,6877,6877,6877,6873,6873,6873,6873,6883,6873,6873,6873,6873,6873,6873,6873,6873,6873,6873,6873,
6873,6873,6873,6873,6873,6873,6873,6873,6873,6883,6873,6887,6887,6887,6881,6881,6882,6882,6881,6882,6882,6882,6877,6877,6877,6877,6877,6882,6882,6882,6873,6883,6873,6873,6873,6882,6877,6877,6877,6877,6877,6877,6882,6882,6882,6882,6882,6882,6877,6877,6877,6877,6877,6877,6874,6877,6877,6877,6877,6874,6874,6874,6874,6874,6877,6877,6877,6877,6874,6874,6877,6877,6877,6877,6877,6877,6874,6877,6877,6877,6877,6877,6877,6877,6873,6873,6873,6873,6873,6873,6873,6873,6873,6873,6873,6873,6873,6873,6873,6873,
6873,6873,6873,6873,6873,6873,6873,6873,6873,6873,6873,6881,6881,6881,6881,6881,6881,6881,6881,6882,6882,6882,6882,6877,6877,6877,6877,6882,6882,6882,6873,6873,6873,6873,6873,6882,6877,6877,6877,6877,6877,6877,6877,6882,6882,6882,6882,6882,6877,6877,6877,6877,6877,6877,6877,6877,6877,6877,6877,6874,6874,6874,6874,6874,6877,6877,6877,6877,6877,6877,6877,6877,6877,6877,6877,6877,6877,6877,6877,6877,6877,6877,6877,6877,6877,6873,6873,6873,6883,6873,6873,6873,6873,6873,6873,6873,6873,6873,6873,6873,
6873,6873,6873,6873,6873,6873,6873,6873,6873,6873,6873,6873,6873,6881,6881,6881,6881,6881,6881,6882,6882,6881,6882,6877,6877,6877,6877,6877,6882,6882,6882,6882,6882,6882,6882,6882,6877,6877,6877,6877,6877,6877,6877,6882,6882,6882,6882,6882,6877,6877,6877,6874,6874,6877,6877,6877,6877,6877,6877,6877,6874,6874,6874,6877,6877,6877,6877,6877,6877,6877,6877,6877,6877,6877,6877,6877,6877,6877,6877,6877,6877,6877,6877,6877,6873,6873,6873,6873,6873,6873,6873,6883,6873,6873,6873,6873,6873,6873,6873,6873,
6873,6873,6873,6873,6873,6873,6883,6873,6883,6873,6873,6873,6873,6881,6881,6881,6881,6881,6881,6881,6881,6881,6882,6882,6877,6877,6877,6877,6877,6877,6882,6882,6882,6882,6882,6882,6877,6877,6877,6877,6877,6877,6877,6882,6882,6882,6882,6882,6877,6877,6877,6874,6874,6877,6877,6877,6874,6877,6877,6877,6877,6874,6877,6877,6877,6877,6877,6877,6877,6877,6877,6877,6877,6877,6877,6877,6877,6877,6877,6877,6877,6877,6877,6877,6877,6873,6873,6873,6873,6873,6873,6873,6873,6873,6873,6873,6873,6873,6873,6873,
6873,6873,6873,6873,6873,6873,6873,6873,6873,6873,6873,6881,6881,6881,6881,6881,6881,6881,6881,6881,6881,6881,6881,6882,6882,6877,6877,6877,6877,6877,6877,6877,6877,6882,6882,6882,6877,6877,6877,6877,6877,6877,6877,6877,6877,6877,6877,6882,6882,6877,6877,6874,6874,6877,6877,6877,6877,6877,6877,6877,6877,6877,6877,6877,6877,6877,6874,6874,6877,6877,6877,6877,6877,6877,6874,6877,6877,6877,6877,6877,6877,6877,6877,6877,6877,6873,6873,6873,6873,6883,6873,6873,6873,6873,6873,6873,6873,6873,6873,6873,
6873,6873,6873,6873,6873,6873,6873,6873,6873,6873,6873,6881,6881,6881,6881,6881,6881,6881,6882,6882,6881,6881,6881,6882,6882,6882,6882,6877,6877,6877,6877,6877,6877,6882,6882,6882,6877,6877,6877,6877,6877,6877,6877,6877,6877,6877,6877,6877,6882,6877,6877,6874,6874,6877,6877,6877,6877,6877,6877,6877,6877,6877,6877,6877,6877,6877,6874,6874,6877,6877,6877,6877,6877,6877,6877,6877,6877,6877,6877,6877,6877,6877,6877,6877,6877,6877,6877,6873,6873,6873,6873,6873,6873,6873,6873,6873,6873,6873,6873,6873,
6873,6873,6873,6873,6873,6873,6873,6873,6873,6873,6873,6873,6873,6881,6881,6881,6882,6882,6882,6882,6881,6881,6881,6881,6882,6882,6882,6877,6877,6877,6877,6877,6877,6882,6882,6882,6877,6877,6877,6877,6877,6877,6877,6877,6877,6877,6877,6877,6882,6877,6877,6877,6877,6877,6877,6877,6877,6874,6874,6877,6877,6877,6877,6877,6877,6877,6874,6874,6877,6877,6877,6877,6877,6877,6877,6877,6877,6874,6874,6874,6877,6877,6877,6877,6877,6877,6873,6873,6873,6873,6883,6873,6873,6873,6873,6873,6873,6873,6873,6873,
6873,6873,6873,6873,6873,6873,6873,6873,6873,6873,6873,6883,6873,6881,6881,6881,6882,6882,6882,6882,6881,6881,6881,6881,6882,6882,6882,6882,6877,6877,6877,6877,6877,6882,6882,6882,6877,6877,6877,6877,6877,6877,6877,6877,6877,6877,6877,6877,6882,6877,6877,6877,6877,6877,6877,6877,6877,6874,6874,6877,6877,6877,6877,6877,6877,6877,6874,6874,6877,6877,6877,6877,6877,6877,6877,6877,6874,6874,6874,6874,6874,6877,6877,6877,6877,6877,6877,6873,6873,6873,6873,6873,6873,6873,6873,6873,6873,6873,6873,6873,
6873,6873,6873,6873,6873,6873,6873,6873,6873,6873,6873,6873,6873,6873,6881,6881,6881,6881,6882,6882,6881,6881,6881,6881,6881,6882,6882,6882,6877,6877,6877,6877,6877,6882,6882,6882,6877,6877,6877,6877,6877,6877,6877,6877,6877,6877,6877,6877,6877,6877,6877,6877,6877,6877,6877,6877,6877,6874,6874,6877,6877,6877,6877,6877,6877,6877,6877,6877,6877,6877,6877,6877,6877,6877,6877,6877,6874,6874,6874,6874,6874,6877,6877,6877,6877,6877,6877,6873,6873,6873,6873,6873,6873,6873,6873,6873,6873,6873,6873,6873,
6873,6873,6873,6873,6873,6873,6883,6873,6873,6873,6883,6873,6873,6873,6881,6881,6881,6881,6881,6881,6881,6881,6881,6881,6881,6882,6882,6882,6882,6882,6877,6877,6877,6882,6882,6882,6877,6877,6877,6877,6877,6877,6877,6877,6877,6877,6877,6877,6882,6877,6877,6877,6877,6877,6877,6877,6877,6874,6874,6877,6877,6877,6877,6877,6874,6877,6877,6877,6877,6877,6877,6874,6877,6877,6877,6877,6877,6874,6874,6874,6877,6877,6877,6877,6877,6877,6877,6873,6873,6873,6873,6873,6873,6873,6873,6873,6873,6873,6873,6873,
6873,6873,6873,6873,6873,6873,6873,6873,6873,6873,6873,6873,6873,6873,6873,6881,6881,6881,6881,6881,6881,6881,6881,6882,6881,6881,6882,6882,6882,6882,6877,6877,6877,6882,6882,6882,6877,6877,6877,6877,6877,6877,6877,6874,6874,6877,6877,6877,6882,6877,6877,6874,6874,6874,6877,6877,6877,6877,6877,6877,6877,6877,6877,6877,6877,6877,6877,6877,6877,6877,6877,6877,6877,6877,6877,6877,6877,6877,6874,6877,6874,6877,6877,6877,6877,6877,6873,6873,6873,6883,6873,6883,6873,6873,6873,6873,6873,6873,6873,6873,
6873,6873,6873,6873,6873,6873,6873,6873,6873,6873,6873,6873,6873,6873,6873,6881,6881,6881,6881,6881,6881,6881,6881,6882,6881,6881,6881,6882,6882,6882,6882,6877,6877,6882,6882,6882,6877,6877,6877,6877,6874,6874,6877,6874,6874,6877,6877,6877,6882,6881,6874,6874,6874,6874,6874,6877,6877,6877,6877,6877,6877,6877,6877,6877,6877,6877,6877,6874,6874,6874,6877,6877,6877,6877,6877,6877,6877,6877,6877,6877,6877,6877,6877,6877,6877,6877,6877,6873,6873,6873,6873,6873,6873,6873,6873,6873,6873,6873,6873,6873,
6873,6873,6873,6873,6873,6873,6873,6873,6873,6873,6883,6873,6883,6873,6873,6881,6881,6881,6881,6882,6882,6881,6881,6881,6881,6881,6881,6881,6881,6881,6882,6882,6877,6882,6882,6882,6877,6877,6877,6877,6874,6874,6877,6877,6877,6877,6882,6882,6882,6881,6874,6874,6874,6874,6874,6877,6877,6877,6877,6877,6874,6874,6874,6877,6877,6877,6874,6874,6874,6874,6874,6877,6877,6877,6877,6877,6877,6877,6877,6877,6877,6877,6877,6877,6877,6877,6877,6873,6873,6873,6873,6873,6873,6873,6873,6873,6873,6873,6873,6873,
6873,6873,6873,6873,6873,6873,6873,6873,6873,6873,6873,6873,6873,6873,6873,6873,6881,6881,6881,6881,6881,6881,6881,6881,6881,6881,6881,6881,6881,6881,6881,6882,6882,6882,6882,6882,6877,6877,6877,6877,6877,6877,6877,6877,6877,6877,6882,6882,6882,6881,6881,6874,6874,6874,6877,6877,6877,6877,6877,6874,6874,6874,6874,6874,6877,6877,6874,6874,6874,6874,6874,6877,6877,6874,6874,6877,6877,6877,6877,6877,6877,6877,6877,6877,6877,6877,6877,6873,6873,6873,6873,6873,6873,6873,6873,6873,6873,6873,6873,6873,
6873,6873,6873,6873,6873,6873,6873,6873,6873,6873,6873,6873,6873,6873,6873,6873,6873,6873,6873,6881,6881,6881,6881,6881,6881,6881,6881,6881,6881,6882,6882,6881,6882,6882,6882,6882,6877,6877,6877,6877,6877,6877,6882,6882,6882,6882,6882,6882,6882,6881,6881,6877,6874,6877,6877,6877,6874,6877,6877,6874,6874,6874,6874,6874,6877,6877,6877,6874,6874,6874,6877,6877,6874,6874,6874,6874,6877,6877,6877,6877,6877,6877,6877,6877,6877,6877,6873,6873,6873,6883,6873,6873,6873,6873,6873,6873,6873,6873,6873,6873,
6873,6873,6873,6873,6873,6873,6873,6873,6873,6873,6873,6883,6883,6873,6873,6873,6873,6873,6873,6873,6881,6881,6881,6881,6881,6881,6881,6881,6881,6881,6881,6881,6881,6881,6882,6882,6882,6877,6882,6882,6882,6882,6882,6882,6882,6882,6882,6881,6881,6881,6881,6881,6877,6877,6877,6877,6877,6877,6877,6877,6874,6874,6874,6877,6877,6877,6877,6877,6874,6877,6877,6877,6877,6874,6874,6874,6874,6877,6877,6877,6877,6877,6877,6877,6877,6873,6873,6873,6873,6873,6873,6873,6873,6873,6873,6873,6873,6873,6873,6873,
6873,6873,6873,6873,6873,6873,6873,6873,6873,6883,6873,6873,6873,6873,6873,6873,6883,6873,6873,6873,6881,6881,6881,6881,6882,6881,6881,6881,6881,6881,6881,6881,6881,6881,6881,6881,6881,6881,6881,6882,6882,6882,6882,6882,6882,6882,6882,6881,6881,6881,6881,6881,6881,6881,6881,6881,6881,6881,6881,6881,6881,6874,6873,6873,6873,6873,6873,6873,6873,6873,6873,6873,6873,6873,6873,6873,6873,6873,6873,6873,6877,6877,6877,6877,6873,6873,6873,6873,6873,6873,6873,6873,6873,6873,6873,6873,6873,6873,6873,6873,
6873,6873,6873,6873,6873,6873,6873,6873,6873,6873,6873,6873,6873,6873,6873,6873,6873,6873,6883,6873,6881,6881,6881,6881,6881,6881,6881,6881,6881,6881,6881,6881,6881,6881,6881,6881,6881,6881,6881,6882,6882,6881,6882,6881,6881,6881,6881,6881,6881,6881,6881,6881,6881,6881,6873,6873,6881,6881,6881,6881,6873,6873,6873,6873,6873,6873,6873,6873,6873,6873,6873,6873,6883,6873,6873,6873,6873,6873,6873,6873,6873,6873,6873,6877,6873,6873,6873,6883,6873,6873,6873,6873,6873,6873,6873,6873,6873,6873,6873,6873,
6873,6873,6873,6873,6873,6873,6873,6873,6873,6873,6873,6873,6873,6873,6873,6883,6873,6873,6873,6873,6873,6873,6873,6881,6881,6873,6873,6881,6881,6881,6881,6881,6881,6881,6881,6881,6881,6881,6881,6881,6881,6881,6881,6881,6881,6881,6881,6881,6881,6881,6873,6873,6881,6881,6873,6873,6873,6873,6873,6873,6873,6873,6873,6873,6883,6873,6873,6873,6873,6883,6873,6873,6873,6873,6873,6873,6873,6883,6873,6873,6873,6873,6873,6873,6873,6873,6873,6873,6873,6873,6873,6873,6873,6873,6873,6873,6873,6873,6873,6873,
6873,6873,6873,6873,6873,6873,6873,6873,6873,6873,6873,6873,6883,6873,6873,6873,6873,6873,6873,6873,6873,6873,6873,6873,6873,6873,6873,6881,6881,6882,6882,6881,6881,6881,6881,6881,6881,6881,6881,6881,6881,6881,6881,6881,6881,6881,6881,6873,6873,6881,6873,6873,6873,6873,6873,6873,6873,6873,6873,6873,6873,6873,6873,6873,6873,6873,6883,6873,6873,6873,6873,6873,6873,6883,6873,6873,6873,6873,6873,6873,6873,6873,6873,6873,6873,6873,6873,6873,6873,6873,6873,6873,6873,6873,6873,6873,6873,6873,6873,6873,
6873,6873,6873,6873,6873,6873,6873,6873,6873,6873,6873,6873,6873,6873,6873,6873,6873,6873,6883,6873,6873,6873,6873,6873,6883,6873,6873,6873,6881,6881,6881,6881,6881,6882,6881,6881,6881,6881,6881,6881,6881,6873,6873,6873,6873,6881,6881,6873,6873,6873,6873,6873,6873,6873,6873,6873,6873,6883,6873,6873,6873,6883,6873,6873,6873,6873,6873,6873,6873,6873,6873,6873,6873,6873,6873,6873,6873,6873,6873,6873,6873,6883,6873,6873,6873,6883,6873,6873,6873,6873,6883,6873,6873,6873,6873,6873,6873,6873,6873,6873,
6873,6873,6873,6873,6873,6873,6873,6873,6873,6873,6873,6873,6873,6873,6873,6873,6873,6873,6873,6873,6873,6883,6873,6873,6873,6873,6873,6873,6873,6873,6873,6881,6881,6881,6881,6881,6881,6881,6881,6881,6881,6873,6873,6873,6873,6873,6873,6873,6873,6873,6873,6873,6883,6873,6873,6873,6873,6873,6873,6883,6873,6873,6873,6873,6873,6873,6873,6873,6883,6873,6873,6873,6873,6883,6873,6873,6873,6873,6873,6883,6873,6873,6873,6873,6873,6873,6873,6873,6873,6873,6873,6873,6873,6873,6873,6873,6873,6873,6873,6873,
6873,6873,6873,6873,6873,6873,6873,6873,6873,6873,6873,6873,6873,6873,6873,6873,6873,6883,6873,6873,6873,6873,6873,6873,6873,6873,6873,6873,6873,6873,6873,6873,6873,6873,6873,6873,6873,6873,6873,6873,6873,6873,6873,6873,6873,6873,6873,6873,6873,6873,6873,6873,6873,6873,6883,6873,6873,6873,6873,6873,6873,6873,6873,6873,6873,6873,6873,6873,6873,6873,6873,6873,6873,6873,6873,6873,6873,6873,6873,6873,6873,6873,6873,6873,6873,6873,6873,6873,6873,6873,6873,6873,6873,6873,6873,6873,6873,6873,6873,6873,
6873,6873,6873,6873,6873,6873,6873,6873,6873,6873,6873,6873,6873,6873,6873,6873,6873,6873,6873,6873,6873,6873,6873,6873,6883,6873,6873,6883,6873,6873,6873,6873,6873,6873,6873,6873,6873,6873,6873,6873,6873,6883,6873,6873,6873,6873,6883,6873,6873,6883,6873,6873,6873,6873,6873,6873,6873,6873,6873,6873,6873,6873,6873,6873,6873,6873,6873,6873,6873,6873,6873,6873,6873,6873,6873,6873,6873,6873,6873,6873,6873,6873,6873,6873,6873,6873,6873,6873,6873,6873,6873,6873,6873,6873,6873,6873,6873,6873,6873,6873,
6873,6873,6873,6873,6873,6873,6873,6873,6873,6873,6873,6873,6873,6873,6873,6873,6873,6873,6873,6873,6873,6873,6873,6873,6873,6873,6873,6873,6873,6873,6873,6883,6873,6873,6873,6873,6873,6883,6873,6873,6873,6873,6873,6883,6873,6873,6873,6873,6873,6873,6873,6873,6873,6873,6873,6873,6873,6883,6873,6873,6873,6873,6873,6873,6873,6873,6873,6873,6873,6873,6873,6873,6873,6873,6873,6873,6873,6873,6873,6873,6873,6873,6873,6873,6873,6873,6873,6873,6873,6873,6873,6873,6873,6873,6873,6873,6873,6873,6873,6873,
6873,6873,6873,6873,6873,6873,6873,6873,6873,6873,6873,6873,6873,6873,6873,6873,6873,6873,6873,6873,6873,6873,6873,6873,6873,6873,6873,6873,6873,6873,6873,6873,6873,6873,6873,6883,6873,6873,6873,6873,6873,6873,6873,6873,6873,6873,6873,6873,6873,6873,6883,6873,6873,6873,6873,6873,6873,6873,6873,6873,6873,6873,6873,6873,6873,6873,6873,6873,6873,6873,6873,6873,6873,6873,6873,6873,6873,6873,6873,6873,6873,6873,6873,6873,6873,6873,6873,6873,6873,6873,6873,6873,6873,6873,6873,6873,6873,6873,6873,6873,
6873,6873,6873,6873,6873,6873,6873,6873,6873,6873,6873,6873,6873,6873,6873,6873,6873,6873,6873,6873,6873,6873,6873,6873,6873,6873,6873,6873,6873,6873,6873,6873,6873,6873,6873,6873,6873,6873,6873,6873,6873,6873,6873,6873,6873,6873,6873,6873,6873,6873,6873,6873,6873,6873,6873,6873,6873,6873,6873,6873,6873,6873,6873,6873,6873,6873,6873,6873,6873,6873,6873,6873,6873,6873,6873,6873,6873,6873,6873,6873,6873,6873,6873,6873,6873,6873,6873,6873,6873,6873,6873,6873,6873,6873,6873,6873,6873,6873,6873,6873,
6873,6873,6873,6873,6873,6873,6873,6873,6873,6873,6873,6873,6873,6873,6873,6873,6873,6873,6873,6873,6873,6873,6873,6873,6873,6873,6873,6873,6873,6873,6873,6873,6873,6873,6873,6873,6873,6873,6873,6873,6873,6873,6873,6873,6873,6873,6873,6873,6873,6873,6873,6873,6873,6873,6873,6873,6873,6873,6873,6873,6873,6873,6873,6873,6873,6873,6873,6873,6873,6873,6873,6873,6873,6873,6873,6873,6873,6873,6873,6873,6873,6873,6873,6873,6873,6873,6873,6873,6873,6873,6873,6873,6873,6873,6873,6873,6873,6873,6873,6873,
6873,6873,6873,6873,6873,6873,6873,6873,6873,6873,6873,6873,6873,6873,6873,6873,6873,6873,6873,6873,6873,6873,6873,6873,6873,6873,6873,6873,6873,6873,6873,6873,6873,6873,6873,6873,6873,6873,6873,6873,6873,6873,6873,6873,6873,6873,6873,6873,6873,6873,6873,6873,6873,6873,6873,6873,6873,6873,6873,6873,6873,6873,6873,6873,6873,6873,6873,6873,6873,6873,6873,6873,6873,6873,6873,6873,6873,6873,6873,6873,6873,6873,6873,6873,6873,6873,6873,6873,6873,6873,6873,6873,6873,6873,6873,6873,6873,6873,6873,6873,
6873,6873,6873,6873,6873,6873,6873,6873,6873,6873,6873,6873,6873,6873,6873,6873,6873,6873,6873,6873,6873,6873,6873,6873,6873,6873,6873,6873,6873,6873,6873,6873,6873,6873,6873,6873,6873,6873,6873,6873,6873,6873,6873,6873,6873,6873,6873,6873,6873,6873,6873,6873,6873,6873,6873,6873,6873,6873,6873,6873,6873,6873,6873,6873,6873,6873,6873,6873,6873,6873,6873,6873,6873,6873,6873,6873,6873,6873,6873,6873,6873,6873,6873,6873,6873,6873,6873,6873,6873,6873,6873,6873,6873,6873,6873,6873,6873,6873,6873,6873,
6873,6873,6873,6873,6873,6873,6873,6873,6873,6873,6873,6873,6873,6873,6873,6873,6873,6873,6873,6873,6873,6873,6873,6873,6873,6873,6873,6873,6873,6873,6873,6873,6873,6873,6873,6873,6873,6873,6873,6873,6873,6873,6873,6873,6873,6873,6873,6873,6873,6873,6873,6873,6873,6873,6873,6873,6873,6873,6873,6873,6873,6873,6873,6873,6873,6873,6873,6873,6873,6873,6873,6873,6873,6873,6873,6873,6873,6873,6873,6873,6873,6873,6873,6873,6873,6873,6873,6873,6873,6873,6873,6873,6873,6873,6873,6873,6873,6873,6873,6873,
6873,6873,6873,6873,6873,6873,6873,6873,6873,6873,6873,6873,6873,6873,6873,6873,6873,6873,6873,6873,6873,6873,6873,6873,6873,6873,6873,6873,6873,6873,6873,6873,6873,6873,6873,6873,6873,6873,6873,6873,6873,6873,6873,6873,6873,6873,6873,6873,6873,6873,6873,6873,6873,6873,6873,6873,6873,6873,6873,6873,6873,6873,6873,6873,6873,6873,6873,6873,6873,6873,6873,6873,6873,6873,6873,6873,6873,6873,6873,6873,6873,6873,6873,6873,6873,6873,6873,6873,6873,6873,6873,6873,6873,6873,6873,6873,6873,6873,6873,6873,
6873,6873,6873,6873,6873,6873,6873,6873,6873,6873,6873,6873,6873,6873,6873,6873,6873,6873,6873,6873,6873,6873,6873,6873,6873,6873,6873,6873,6873,6873,6873,6873,6873,6873,6873,6873,6873,6873,6873,6873,6873,6873,6873,6873,6873,6873,6873,6873,6873,6873,6873,6873,6873,6873,6873,6873,6873,6873,6873,6873,6873,6873,6873,6873,6873,6873,6873,6873,6873,6873,6873,6873,6873,6873,6873,6873,6873,6873,6873,6873,6873,6873,6873,6873,6873,6873,6873,6873,6873,6873,6873,6873,6873,6873,6873,6873,6873,6873,6873,6873
</data>
 </layer>
 <layer id="13" name="1" width="100" height="100">
  <data encoding="csv">
0,0,0,0,0,0,0,0,0,0,0,0,0,0,0,0,0,0,0,0,0,0,0,0,0,0,0,0,0,0,0,0,0,0,0,0,0,0,0,0,0,0,0,0,0,0,0,0,0,0,0,0,0,0,0,0,0,0,0,0,0,0,0,0,0,0,0,0,0,0,0,0,0,0,0,0,0,0,0,0,0,0,0,0,0,0,0,0,0,0,0,0,0,0,0,0,0,0,0,0,
0,0,0,0,0,0,0,0,0,0,0,0,0,0,0,0,0,0,0,0,0,0,0,0,0,0,0,0,0,0,0,0,0,0,0,0,0,0,0,0,0,0,0,0,0,0,0,0,0,0,0,0,0,0,0,0,0,0,0,0,0,0,0,0,0,0,0,0,0,0,0,0,0,0,0,0,0,0,0,0,0,0,0,0,0,0,0,0,0,0,0,0,0,0,0,0,0,0,0,0,
0,0,0,0,0,0,0,0,0,0,0,0,0,0,0,0,0,0,0,0,0,0,0,0,0,0,0,0,0,0,0,0,0,0,0,0,0,0,0,0,0,0,0,0,0,0,0,0,0,0,0,0,0,0,0,0,0,0,0,0,0,0,0,0,0,0,0,0,0,0,0,0,0,0,0,0,0,0,0,0,0,0,0,0,0,0,0,0,0,0,0,0,0,0,0,0,0,0,0,0,
0,0,0,0,0,0,0,0,0,0,0,0,0,0,0,0,0,0,0,0,0,0,0,0,0,0,0,0,0,0,0,0,0,0,0,0,0,0,0,0,0,0,0,0,0,0,0,0,0,0,0,0,0,0,0,0,0,0,0,0,0,0,0,0,0,0,0,0,0,0,0,0,0,0,0,0,0,0,0,0,0,0,0,0,0,0,0,0,0,0,0,0,0,0,0,0,0,0,0,0,
0,0,0,0,0,0,0,0,0,0,0,0,0,0,0,0,0,0,0,0,0,0,0,0,0,0,0,0,0,0,0,0,0,0,0,0,0,0,0,0,0,0,0,0,0,0,0,0,0,0,0,0,0,0,0,0,0,0,0,0,0,0,0,0,0,0,0,0,0,0,0,0,0,0,0,0,0,0,0,0,0,0,0,0,0,0,0,0,0,0,0,0,0,0,0,0,0,0,0,0,
0,0,0,0,0,0,0,0,0,0,0,0,0,0,0,0,0,0,0,0,0,0,0,0,0,0,0,0,0,0,0,0,0,0,0,0,0,0,0,0,0,0,0,0,0,0,0,0,0,0,0,0,0,0,0,0,0,0,0,0,0,0,0,0,0,0,0,0,0,0,0,0,0,0,0,0,0,0,0,0,0,0,0,0,0,0,0,0,0,0,0,0,0,0,0,0,0,0,0,0,
0,0,0,0,0,0,0,0,0,0,0,0,0,0,0,0,0,0,0,0,0,0,0,0,0,0,0,0,0,0,0,0,0,0,0,0,0,0,0,0,0,0,0,0,0,0,0,0,0,0,0,0,0,0,0,0,0,0,0,0,0,0,0,0,0,0,0,0,0,0,0,0,0,0,0,0,0,0,0,0,0,0,0,0,0,0,0,0,0,0,0,0,0,0,0,0,0,0,0,0,
0,0,0,0,0,0,0,0,0,0,0,0,0,0,0,0,0,0,0,0,0,0,0,0,0,0,0,0,0,0,0,0,0,0,0,0,0,0,0,0,0,0,0,0,0,0,0,0,0,0,0,0,0,0,0,0,0,0,0,0,0,0,0,0,0,0,0,0,0,0,0,0,0,0,0,0,0,0,0,0,0,0,0,0,0,0,0,0,0,0,0,0,0,0,0,0,0,0,0,0,
0,0,0,0,0,0,0,0,0,0,0,0,0,0,0,0,0,0,0,0,0,0,0,0,0,0,0,0,0,0,0,0,0,0,0,0,0,0,0,0,0,0,0,0,0,0,0,0,0,0,0,0,0,0,0,0,0,0,0,0,0,0,0,0,0,0,0,0,0,0,0,0,0,0,0,0,0,0,0,0,0,0,0,0,0,0,0,0,0,0,0,0,0,0,0,0,0,0,0,0,
0,0,0,0,0,0,0,0,0,0,0,0,0,0,0,0,0,0,0,0,0,0,0,0,0,0,0,0,0,0,0,0,0,0,0,0,0,0,0,0,0,0,0,0,0,0,0,0,0,0,0,0,0,0,0,0,0,0,0,0,0,0,0,0,0,0,0,0,0,0,0,0,0,0,0,0,0,0,0,0,0,0,0,0,0,0,0,0,0,0,0,0,0,0,0,0,0,0,0,0,
0,0,0,0,0,0,0,0,0,0,0,0,0,0,0,0,0,0,0,0,0,0,0,0,0,0,0,0,0,0,0,0,0,0,0,0,0,0,0,0,0,0,0,0,0,0,0,0,0,0,0,0,0,0,0,0,0,0,0,0,0,0,0,0,0,0,0,0,0,0,0,0,0,0,0,0,0,0,0,0,0,0,0,0,0,0,0,0,0,0,0,0,0,0,0,0,0,0,0,0,
0,0,0,0,0,0,0,0,0,0,0,0,0,0,0,0,0,0,0,0,0,0,0,0,0,0,0,0,0,0,0,0,0,0,0,0,0,0,0,0,0,0,0,0,0,0,0,0,0,0,0,0,0,0,0,0,0,0,0,0,0,0,0,0,0,0,0,0,0,0,0,0,0,0,0,0,0,0,0,0,0,0,0,0,0,0,0,0,0,0,0,0,0,0,0,0,0,0,0,0,
0,0,0,0,0,0,0,0,0,0,0,0,0,0,0,0,0,0,0,0,0,0,0,0,0,0,0,0,0,0,0,0,0,0,0,0,0,0,0,0,0,0,0,0,0,0,0,0,0,0,0,0,0,0,0,0,0,0,0,0,0,0,0,0,0,0,0,0,0,0,0,0,0,0,0,0,0,0,0,0,0,0,0,0,0,0,0,0,0,0,0,0,0,0,0,0,0,0,0,0,
0,0,0,0,0,0,0,0,0,0,0,0,0,0,0,0,0,0,0,0,0,0,0,0,0,0,0,0,0,0,0,0,0,0,0,0,0,0,0,0,0,0,0,0,0,0,0,0,0,0,0,0,0,0,0,0,0,0,0,0,0,0,0,0,0,0,0,0,0,0,0,0,0,0,0,0,0,0,0,0,0,0,0,0,0,0,0,0,0,0,0,0,0,0,0,0,0,0,0,0,
0,0,0,0,0,0,0,0,0,0,0,0,0,0,0,0,0,0,0,0,0,0,0,0,0,0,0,0,0,0,0,0,0,0,0,0,0,0,0,0,0,0,0,0,0,0,0,0,0,0,0,0,0,0,0,0,0,0,0,0,0,0,0,0,0,0,0,0,0,0,0,0,0,0,0,0,0,0,0,0,0,0,0,0,0,0,0,0,0,0,0,0,0,0,0,0,0,0,0,0,
0,0,0,0,0,0,0,0,0,0,0,0,0,0,0,0,0,0,0,0,0,0,0,0,0,0,0,0,0,0,0,0,0,0,0,0,0,0,0,0,0,0,0,0,0,0,0,0,0,0,0,0,0,0,0,0,0,0,0,0,0,0,0,0,0,0,0,0,0,0,0,0,0,0,0,0,0,0,0,0,0,0,0,0,0,0,0,0,0,0,0,0,0,0,0,0,0,0,0,0,
0,0,0,0,0,0,0,0,0,0,0,0,0,0,0,0,0,0,0,0,0,0,0,0,0,0,0,0,0,0,0,0,0,0,0,0,0,0,0,0,0,0,0,0,0,0,0,0,0,0,0,0,0,0,0,0,0,0,0,0,0,0,0,0,0,0,0,0,0,0,0,0,0,0,0,0,0,0,0,0,0,0,0,0,0,0,0,0,0,0,0,0,0,0,0,0,0,0,0,0,
0,0,0,0,0,0,0,0,0,0,0,0,0,0,0,0,0,0,0,0,0,0,0,0,0,0,0,0,0,0,0,0,0,0,0,0,0,0,0,0,0,0,0,0,0,0,0,0,0,0,0,0,0,0,0,0,0,0,0,0,0,0,0,0,0,0,0,0,0,0,0,0,0,0,0,0,0,0,0,0,0,0,0,0,0,0,0,0,0,0,0,0,0,0,0,0,0,0,0,0,
0,0,0,0,0,0,0,0,0,0,0,0,0,0,0,0,0,0,0,0,0,0,0,0,0,0,0,0,0,0,0,0,0,0,0,0,0,0,0,0,0,0,0,0,0,0,0,0,0,0,0,0,0,0,0,0,0,0,0,0,0,0,0,0,0,0,0,0,0,0,0,0,0,0,0,0,0,0,0,0,0,0,0,0,0,0,0,0,0,0,0,0,0,0,0,0,0,0,0,0,
0,0,0,0,0,0,0,0,0,0,0,0,0,0,0,0,0,0,0,0,0,0,0,0,0,0,0,0,0,0,0,0,0,0,0,0,0,0,0,0,0,0,0,0,0,0,0,0,0,0,0,0,0,0,0,0,0,0,0,0,0,0,0,0,0,0,0,0,0,0,0,0,0,0,0,0,0,0,0,0,0,0,0,0,0,0,0,0,0,0,0,0,0,0,0,0,0,0,0,0,
0,0,0,0,0,0,0,0,0,0,0,0,0,0,0,0,0,0,0,0,0,0,0,0,0,0,0,0,0,0,0,0,0,0,0,0,0,0,0,0,0,0,0,0,0,0,0,0,0,0,0,0,0,0,0,0,0,0,0,0,0,0,0,0,0,0,0,0,0,0,0,0,0,0,0,0,0,0,0,0,0,0,0,0,0,0,0,0,0,0,0,0,0,0,0,0,0,0,0,0,
0,0,0,0,0,0,0,0,0,0,0,0,0,0,0,0,0,0,0,0,0,0,0,0,0,0,0,0,0,0,0,0,0,0,0,0,0,0,0,0,0,0,0,0,0,0,0,0,0,0,0,0,0,0,0,0,0,0,0,0,0,0,0,0,0,0,0,0,0,0,0,0,0,0,0,0,0,0,0,0,0,0,0,0,0,0,0,0,0,0,0,0,0,0,0,0,0,0,0,0,
0,0,0,0,0,0,0,0,0,0,0,0,0,0,0,0,0,0,0,0,0,0,0,0,0,0,0,0,0,0,0,0,0,0,0,0,0,0,0,0,0,0,0,0,0,0,0,0,0,0,0,0,0,0,0,0,0,0,0,0,0,0,0,0,0,0,0,0,0,0,0,0,0,0,0,0,0,0,0,0,0,0,0,0,0,0,0,0,0,0,0,0,0,0,0,0,0,0,0,0,
0,0,0,0,0,0,0,0,0,0,0,0,0,0,0,0,0,0,0,0,0,0,0,0,0,0,0,0,0,0,0,0,0,0,0,0,0,0,0,0,0,0,0,0,0,0,0,0,0,0,0,0,0,0,0,0,0,0,0,0,0,0,0,0,0,0,0,0,0,0,0,0,0,0,0,0,0,0,0,0,0,0,0,0,0,0,0,0,0,0,0,0,0,0,0,0,0,0,0,0,
0,0,0,0,0,0,0,0,0,0,0,0,0,0,0,0,0,0,0,0,0,0,0,0,0,0,0,0,0,0,0,0,0,0,0,0,0,0,0,0,0,0,0,0,0,0,0,0,0,0,0,0,0,0,0,0,0,0,0,0,0,0,0,0,0,0,0,0,0,0,0,0,0,0,0,0,0,0,0,0,0,0,0,0,0,0,0,0,0,0,0,0,0,0,0,0,0,0,0,0,
0,0,0,0,0,0,0,0,0,0,0,0,0,0,0,0,0,0,0,0,0,0,0,0,0,0,0,0,0,0,0,0,0,0,0,0,0,0,0,0,0,0,0,0,0,0,0,0,0,0,0,0,0,0,0,0,0,0,0,0,0,0,0,0,0,0,0,0,0,0,0,0,0,0,0,0,0,0,0,0,0,0,0,0,0,0,0,0,0,0,0,0,0,0,0,0,0,0,0,0,
0,0,0,0,0,0,0,0,0,0,0,0,0,0,0,0,0,0,0,0,0,0,0,0,0,0,0,0,0,0,0,0,0,0,0,0,0,0,0,0,0,0,0,0,0,0,0,0,0,0,0,0,0,0,0,0,0,0,0,0,0,0,0,0,0,0,0,0,0,0,0,0,0,0,0,0,0,0,0,0,0,0,0,0,0,0,0,0,0,0,0,0,0,0,0,0,0,0,0,0,
0,0,0,0,0,0,0,0,0,0,0,0,0,0,0,0,0,0,0,0,0,0,0,0,0,0,0,0,0,0,0,0,0,0,0,0,0,0,0,0,0,0,0,0,0,0,0,0,0,0,0,0,0,0,0,0,0,0,0,0,0,0,0,0,0,0,0,0,0,0,0,0,0,0,0,0,0,0,0,0,0,0,0,0,0,0,0,0,0,0,0,0,0,0,0,0,0,0,0,0,
0,0,0,0,0,0,0,0,0,0,0,0,0,0,0,0,0,0,0,0,0,0,0,0,0,0,0,0,0,0,0,0,0,0,0,0,0,0,0,0,0,0,0,0,0,0,0,0,0,0,0,0,0,0,0,0,0,0,0,0,0,0,0,0,0,0,0,0,0,0,0,0,0,0,0,0,0,0,0,0,0,0,0,0,0,0,0,0,0,0,0,0,0,0,0,0,0,0,0,0,
0,0,0,0,0,0,0,0,0,0,0,0,0,0,0,0,0,0,0,0,0,0,0,0,0,0,0,0,0,0,0,0,0,0,0,0,0,0,0,0,0,0,0,0,0,0,0,0,0,0,0,0,0,0,0,0,0,0,0,0,0,0,0,0,0,0,0,0,0,0,0,0,0,0,0,0,0,0,0,0,0,0,0,0,0,0,0,0,0,0,0,0,0,0,0,0,0,0,0,0,
0,0,0,0,0,0,0,0,0,0,0,0,0,0,0,0,0,0,0,0,0,0,0,0,0,0,0,0,0,0,0,0,0,0,0,0,0,0,0,0,0,0,0,0,0,0,0,0,0,0,0,0,0,0,0,0,0,0,0,0,0,0,0,0,0,0,0,0,0,0,0,0,0,0,0,0,0,0,0,0,0,0,0,0,0,0,0,0,0,0,0,0,0,0,0,0,0,0,0,0,
0,0,0,0,0,0,0,0,0,0,0,0,0,0,0,0,0,0,0,0,0,0,0,0,0,0,0,0,0,0,0,0,0,0,0,0,0,0,0,0,0,0,0,0,0,0,0,0,0,0,0,0,0,0,0,0,0,0,0,0,0,0,0,0,0,0,0,0,0,0,0,0,0,0,0,0,0,0,0,0,0,0,0,0,0,0,0,0,0,0,0,0,0,0,0,0,0,0,0,0,
0,0,0,0,0,0,0,0,0,0,0,0,0,0,0,0,0,0,0,0,0,0,0,0,0,0,0,0,0,0,0,0,0,0,0,0,0,0,0,0,0,0,0,0,0,0,0,0,0,0,0,0,0,0,0,0,0,0,0,0,0,0,0,0,0,0,0,0,0,0,0,0,0,0,0,0,0,0,0,0,0,0,0,0,0,0,0,0,0,0,0,0,0,0,0,0,0,0,0,0,
0,0,0,0,0,0,0,0,0,0,0,0,0,0,0,0,0,0,0,0,0,0,0,0,0,0,0,0,0,0,0,0,0,0,0,0,0,0,0,0,0,0,0,0,0,0,0,0,0,0,0,0,0,0,0,0,0,0,0,0,0,0,0,0,0,0,0,0,0,0,0,0,0,0,0,0,0,0,0,0,0,0,0,0,0,0,0,0,0,0,0,0,0,0,0,0,0,0,0,0,
0,0,0,0,0,0,0,0,0,0,0,0,0,0,0,0,0,0,0,0,0,0,0,0,0,0,0,0,0,0,0,0,0,0,0,0,0,0,0,0,0,0,0,0,0,0,0,0,0,0,0,0,0,0,0,0,0,0,0,0,0,0,0,0,0,0,0,0,0,0,0,0,0,0,0,0,0,0,0,0,0,0,0,0,0,0,0,0,0,0,0,0,0,0,0,0,0,0,0,0,
0,0,0,0,0,0,0,0,0,0,0,0,0,0,0,0,0,0,0,0,0,0,0,0,0,0,0,0,0,0,0,0,0,0,0,0,0,0,0,0,0,0,0,0,0,0,0,0,0,0,0,0,0,0,0,0,0,0,0,0,0,0,0,0,0,0,0,0,0,0,0,0,0,0,0,0,0,0,0,0,0,0,0,0,0,0,0,0,0,0,0,0,0,0,0,0,0,0,0,0,
0,0,0,0,0,0,0,0,0,0,0,0,0,0,0,0,0,0,0,0,0,0,0,0,0,0,0,0,0,0,0,0,0,0,0,0,0,0,0,0,0,0,0,0,0,0,0,0,0,0,0,0,0,0,0,0,0,0,0,0,0,0,0,0,0,0,0,0,0,0,0,0,0,0,0,0,0,0,0,0,0,0,0,0,0,0,0,0,0,0,0,0,0,0,0,0,0,0,0,0,
0,0,0,0,0,0,0,0,0,0,0,0,0,0,0,0,0,0,0,0,0,0,0,0,0,0,0,0,0,0,0,0,0,0,0,0,0,0,0,0,0,0,0,0,0,0,0,0,0,0,0,0,0,0,0,0,0,0,0,0,0,0,0,0,0,0,0,0,0,0,0,0,0,0,0,0,0,0,0,0,0,0,0,0,0,0,0,0,0,0,0,0,0,0,0,0,0,0,0,0,
0,0,0,0,0,0,0,0,0,0,0,0,0,0,0,0,0,0,0,0,0,0,0,0,0,0,0,0,0,0,0,0,0,0,0,0,0,0,0,0,0,0,0,0,0,0,0,0,0,0,0,0,0,0,0,0,0,0,0,0,0,0,0,0,0,0,0,0,0,0,0,0,0,0,0,0,0,0,0,0,0,0,0,0,0,0,0,0,0,0,0,0,0,0,0,0,0,0,0,0,
0,0,0,0,0,0,0,0,0,0,0,0,0,0,0,0,0,0,0,0,0,0,0,0,0,0,0,0,0,0,0,0,0,0,0,0,0,0,0,0,0,0,0,0,0,0,0,0,0,0,0,0,0,0,0,0,0,0,0,0,0,0,0,0,0,0,0,0,0,0,0,0,0,0,0,0,0,0,0,0,0,0,0,0,0,0,0,0,0,0,0,0,0,0,0,0,0,0,0,0,
0,0,0,0,0,0,0,0,0,0,0,0,0,0,0,0,0,0,0,0,0,0,0,0,0,0,0,0,0,0,0,0,0,0,0,0,0,0,0,0,0,0,0,0,0,0,0,0,0,0,0,0,0,0,0,0,0,0,0,0,0,0,0,0,0,0,0,0,0,0,0,0,0,0,0,0,0,0,0,0,0,0,0,0,0,0,0,0,0,0,0,0,0,0,0,0,0,0,0,0,
0,0,0,0,0,0,0,0,0,0,0,0,0,0,0,0,0,0,0,0,0,0,0,0,0,0,0,0,0,0,0,0,0,0,0,0,0,0,0,0,0,0,0,0,0,0,0,0,0,0,0,0,0,0,0,0,0,0,0,0,0,0,0,0,0,0,0,0,0,0,0,0,0,0,0,0,0,0,0,0,0,0,0,0,0,0,0,0,0,0,0,0,0,0,0,0,0,0,0,0,
0,0,0,0,0,0,0,0,0,0,0,0,0,0,0,0,0,0,0,0,0,0,0,0,0,0,0,0,0,0,0,0,0,0,0,0,0,0,0,0,0,0,0,0,0,0,0,0,0,0,0,0,0,0,0,0,0,0,0,0,0,0,0,0,0,0,0,0,0,0,0,0,0,0,0,0,0,0,0,0,0,0,0,0,0,0,0,0,0,0,0,0,0,0,0,0,0,0,0,0,
0,0,0,0,0,0,0,0,0,0,0,0,0,0,0,0,0,0,0,0,0,0,0,0,0,0,0,0,0,0,0,0,0,0,0,0,0,0,0,0,0,0,0,0,0,0,0,0,0,0,0,0,0,0,0,0,0,0,0,0,0,0,0,0,0,0,0,0,0,0,0,0,0,0,0,0,0,0,0,0,0,0,0,0,0,0,0,0,0,0,0,0,0,0,0,0,0,0,0,0,
0,0,0,0,0,0,0,0,0,0,0,0,0,0,0,0,0,0,0,0,0,0,0,0,0,0,0,0,0,0,0,0,0,0,0,0,0,0,0,0,0,0,0,0,0,0,0,0,0,0,0,0,0,0,0,0,0,0,0,0,0,0,0,0,0,0,0,0,0,0,0,0,0,0,0,0,0,0,0,0,0,0,0,0,0,0,0,0,0,0,0,0,0,0,0,0,0,0,0,0,
0,0,0,0,0,0,0,0,0,0,0,0,0,0,0,0,0,0,0,0,0,0,0,0,0,0,0,0,0,0,0,0,0,0,0,0,0,0,0,0,0,0,0,0,0,0,0,0,0,0,0,0,0,0,0,0,0,0,0,0,0,0,0,0,0,0,0,0,0,0,0,0,0,0,0,0,0,0,0,0,0,0,0,0,0,0,0,0,0,0,0,0,0,0,0,0,0,0,0,0,
0,0,0,0,0,0,0,0,0,0,0,0,0,0,0,0,0,0,0,0,0,0,0,0,0,0,0,0,0,0,0,0,0,0,0,0,0,0,0,0,0,0,0,0,0,0,0,0,0,0,0,0,0,0,0,0,0,0,0,0,0,0,0,0,0,0,0,0,0,0,0,0,0,0,0,0,0,0,0,0,0,0,0,0,0,0,0,0,0,0,0,0,0,0,0,0,0,0,0,0,
0,0,0,0,0,0,0,0,0,0,0,0,0,0,0,0,0,0,0,0,0,0,0,0,0,0,0,0,0,0,0,0,0,0,0,0,0,0,0,0,0,0,0,0,0,0,0,0,0,0,0,0,0,0,0,0,0,0,0,0,0,0,0,0,0,0,0,0,0,0,0,0,0,0,0,0,0,0,0,0,0,0,0,0,0,0,0,0,0,0,0,0,0,0,0,0,0,0,0,0,
0,0,0,0,0,0,0,0,0,0,0,0,0,0,0,0,0,0,0,0,0,0,0,0,0,0,0,0,0,0,0,0,0,0,0,0,0,0,0,0,0,0,0,0,0,0,0,0,0,0,0,0,0,0,0,0,0,0,0,0,0,0,0,0,0,0,0,0,0,0,0,0,0,0,0,0,0,0,0,0,0,0,0,0,0,0,0,0,0,0,0,0,0,0,0,0,0,0,0,0,
0,0,0,0,0,0,0,0,0,0,0,0,0,0,0,0,0,0,0,0,0,0,0,0,0,0,0,0,0,0,0,0,0,0,0,0,0,0,0,0,0,0,0,0,0,0,0,0,0,0,0,0,0,0,0,0,0,0,0,0,0,0,0,0,0,0,0,0,0,0,0,0,0,0,0,0,0,0,0,0,0,0,0,0,0,0,0,0,0,0,0,0,0,0,0,0,0,0,0,0,
0,0,0,0,0,0,0,0,0,0,0,0,0,0,0,0,0,0,0,0,0,0,0,0,0,0,0,0,0,0,0,0,0,0,0,0,0,0,0,0,0,0,0,0,0,0,0,0,0,0,0,0,0,0,0,0,0,0,0,0,0,0,0,0,0,0,0,0,0,0,0,0,0,0,0,0,0,0,0,0,0,0,0,0,0,0,0,0,0,0,0,0,0,0,0,0,0,0,0,0,
0,0,0,0,0,0,0,0,0,0,0,0,0,0,0,0,0,0,0,0,0,0,0,0,0,0,0,0,0,0,0,0,0,0,0,0,0,0,0,0,0,0,0,0,0,0,0,0,0,0,0,0,0,0,0,0,0,0,0,0,0,0,0,0,0,0,0,0,0,0,0,0,0,0,0,0,0,0,0,0,0,0,0,0,0,0,0,0,0,0,0,0,0,0,0,0,0,0,0,0,
0,0,0,0,0,0,0,0,0,0,0,0,0,0,0,0,0,0,0,0,0,0,0,0,0,0,0,0,0,0,0,0,0,0,0,0,0,0,0,0,0,0,0,0,0,0,0,0,0,0,0,0,0,0,0,0,0,0,0,0,0,0,0,0,0,0,0,0,0,0,0,0,0,0,0,0,0,0,0,0,0,0,0,0,0,0,0,0,0,0,0,0,0,0,0,0,0,0,0,0,
0,0,0,0,0,0,0,0,0,0,0,0,0,0,0,0,0,0,0,0,0,0,0,0,0,0,0,0,0,0,0,0,0,0,0,0,0,0,0,0,0,0,0,0,0,0,0,0,0,0,0,0,0,0,0,0,0,0,0,0,0,0,0,0,0,0,0,0,0,0,0,0,0,0,0,0,0,0,0,0,0,0,0,0,0,0,0,0,0,0,0,0,0,0,0,0,0,0,0,0,
0,0,0,0,0,0,0,0,0,0,0,0,0,0,0,0,0,0,0,0,0,0,0,0,0,0,0,0,0,0,0,0,0,0,0,0,0,0,0,0,0,0,0,0,0,0,0,0,0,0,0,0,0,0,0,0,0,0,0,0,0,0,0,0,0,0,0,0,0,0,0,0,0,0,0,0,0,0,0,0,0,0,0,0,0,0,0,0,0,0,0,0,0,0,0,0,0,0,0,0,
0,0,0,0,0,0,0,0,0,0,0,0,0,0,0,0,0,0,0,0,0,0,0,0,0,0,0,0,0,0,0,0,0,0,0,0,0,0,0,0,0,0,0,0,0,0,0,0,0,0,0,0,0,0,0,0,0,0,0,0,0,0,0,0,0,0,0,0,0,0,0,0,0,0,0,0,0,0,0,0,0,0,0,0,0,0,0,0,0,0,0,0,0,0,0,0,0,0,0,0,
0,0,0,0,0,0,0,0,0,0,0,0,0,0,0,0,0,0,0,0,0,0,0,0,0,0,0,0,0,0,0,0,0,0,0,0,0,0,0,0,0,0,0,0,0,0,0,0,0,0,0,0,0,0,0,0,0,0,0,0,0,0,0,0,0,0,0,0,0,0,0,0,0,0,0,0,0,0,0,0,0,0,0,0,0,0,0,0,0,0,0,0,0,0,0,0,0,0,0,0,
0,0,0,0,0,0,0,0,0,0,0,0,0,0,0,0,0,0,0,0,0,0,0,0,0,0,0,0,0,0,0,0,0,0,0,0,0,0,0,0,0,0,0,0,0,0,0,0,0,0,0,0,0,0,0,0,0,0,0,0,0,0,0,0,0,0,0,0,0,0,0,0,0,0,0,0,0,0,0,0,0,0,0,0,0,0,0,0,0,0,0,0,0,0,0,0,0,0,0,0,
0,0,0,0,0,0,0,0,0,0,0,0,0,0,0,0,0,0,0,0,0,0,0,0,0,0,0,0,0,0,0,0,0,0,0,0,0,0,0,0,0,0,0,0,0,0,0,0,0,0,0,0,0,0,0,0,0,0,0,0,0,0,0,0,0,0,0,0,0,0,0,0,0,0,0,0,0,0,0,0,0,0,0,0,0,0,0,0,0,0,0,0,0,0,0,0,0,0,0,0,
0,0,0,0,0,0,0,0,0,0,0,0,0,0,0,0,0,0,0,0,0,0,0,0,0,0,0,0,0,0,0,0,0,0,0,0,0,0,0,0,0,0,0,0,0,0,0,0,0,0,0,0,0,0,0,0,0,0,0,0,0,0,0,0,0,0,0,0,0,0,0,0,0,0,0,0,0,0,0,0,0,0,0,0,0,0,0,0,0,0,0,0,0,0,0,0,0,0,0,0,
0,0,0,0,0,0,0,0,0,0,0,0,0,0,0,0,0,0,0,0,0,0,0,0,0,0,0,0,0,0,0,0,0,0,0,0,0,0,0,0,0,0,0,0,0,0,0,0,0,0,0,0,0,0,0,0,0,0,0,0,0,0,0,0,0,0,0,0,0,0,0,0,0,0,0,0,0,0,0,0,0,0,0,0,0,0,0,0,0,0,0,0,0,0,0,0,0,0,0,0,
0,0,0,0,0,0,0,0,0,0,0,0,0,0,0,0,0,0,0,0,0,0,0,0,0,0,0,0,0,0,0,0,0,0,0,0,0,0,0,0,0,0,0,0,0,0,0,0,0,0,0,0,0,0,0,0,0,0,0,0,0,0,0,0,0,0,0,0,0,0,0,0,0,0,0,0,0,0,0,0,0,0,0,0,0,0,0,0,0,0,0,0,0,0,0,0,0,0,0,0,
0,0,0,0,0,0,0,0,0,0,0,0,0,0,0,0,0,0,0,0,0,0,0,0,0,0,0,0,0,0,0,0,0,0,0,0,0,0,0,0,0,0,0,0,0,0,0,0,0,0,0,0,0,0,0,0,0,0,0,0,0,0,0,0,0,0,0,0,0,0,0,0,0,0,0,0,0,0,0,0,0,0,0,0,0,0,0,0,0,0,0,0,0,0,0,0,0,0,0,0,
0,0,0,0,0,0,0,0,0,0,0,0,0,0,0,0,0,0,0,0,0,0,0,0,0,0,0,0,0,0,0,0,0,0,0,0,0,0,0,0,0,0,0,0,0,0,0,0,0,0,0,0,0,0,0,0,0,0,0,0,0,0,0,0,0,0,0,0,0,0,0,0,0,0,0,0,0,0,0,0,0,0,0,0,0,0,0,0,0,0,0,0,0,0,0,0,0,0,0,0,
0,0,0,0,0,0,0,0,0,0,0,0,0,0,0,0,0,0,0,0,0,0,0,0,0,0,0,0,0,0,0,0,0,0,0,0,0,0,0,0,0,0,0,0,0,0,0,0,0,0,0,0,0,0,0,0,0,0,0,0,0,0,0,0,0,0,0,0,0,0,0,0,0,0,0,0,0,0,0,0,0,0,0,0,0,0,0,0,0,0,0,0,0,0,0,0,0,0,0,0,
0,0,0,0,0,0,0,0,0,0,0,0,0,0,0,0,0,0,0,0,0,0,0,0,0,0,0,0,0,0,0,0,0,0,0,0,0,0,0,0,0,0,0,0,0,0,0,0,0,0,0,0,0,0,0,0,0,0,0,0,0,0,0,0,0,0,0,0,0,0,0,0,0,0,0,0,0,0,0,0,0,0,0,0,0,0,0,0,0,0,0,0,0,0,0,0,0,0,0,0,
0,0,0,0,0,0,0,0,0,0,0,0,0,0,0,0,0,0,0,0,0,0,0,0,0,0,0,0,0,0,0,0,0,0,0,0,0,0,0,0,0,0,0,0,0,0,0,0,0,0,0,0,0,0,0,0,0,0,0,0,0,0,0,0,0,0,0,0,0,0,0,0,0,0,0,0,0,0,0,0,0,0,0,0,0,0,0,0,0,0,0,0,0,0,0,0,0,0,0,0,
0,0,0,0,0,0,0,0,0,0,0,0,0,0,0,0,0,0,0,0,0,0,0,0,0,0,0,0,0,0,0,0,0,0,0,0,0,0,0,0,0,0,0,0,0,0,0,0,0,0,0,0,0,0,0,0,0,0,0,0,0,0,0,0,0,0,0,0,0,0,0,0,0,0,0,0,0,0,0,0,0,0,0,0,0,0,0,0,0,0,0,0,0,0,0,0,0,0,0,0,
0,0,0,0,0,0,0,0,0,0,0,0,0,0,0,0,0,0,0,0,0,0,0,0,0,0,0,0,0,0,0,0,0,0,0,0,0,0,0,0,0,0,0,0,0,0,0,0,0,0,0,0,0,0,0,0,0,0,0,0,0,0,0,0,0,0,0,0,0,0,0,0,0,0,0,0,0,0,0,0,0,0,0,0,0,0,0,0,0,0,0,0,0,0,0,0,0,0,0,0,
0,0,0,0,0,0,0,0,0,0,0,0,0,0,0,0,0,0,0,0,0,0,0,0,0,0,0,0,0,0,0,0,0,0,0,0,0,0,0,0,0,0,0,0,0,0,0,0,0,0,0,0,0,0,0,0,0,0,0,0,0,0,0,0,0,0,0,0,0,0,0,0,0,0,0,0,0,0,0,0,0,0,0,0,0,0,0,0,0,0,0,0,0,0,0,0,0,0,0,0,
0,0,0,0,0,0,0,0,0,0,0,0,0,0,0,0,0,0,0,0,0,0,0,0,0,0,0,0,0,0,0,0,0,0,0,0,0,0,0,0,0,0,0,0,0,0,0,0,0,0,0,0,0,0,0,0,0,0,0,0,0,0,0,0,0,0,0,0,0,0,0,0,0,0,0,0,0,0,0,0,0,0,0,0,0,0,0,0,0,0,0,0,0,0,0,0,0,0,0,0,
0,0,0,0,0,0,0,0,0,0,0,0,0,0,0,0,0,0,0,0,0,0,0,0,0,0,0,0,0,0,0,0,0,0,0,0,0,0,0,0,0,0,0,0,0,0,0,0,0,0,0,0,0,0,0,0,0,0,0,0,0,0,0,0,0,0,0,0,0,0,0,0,0,0,0,0,0,0,0,0,0,0,0,0,0,0,0,0,0,0,0,0,0,0,0,0,0,0,0,0,
0,0,0,0,0,0,0,0,0,0,0,0,0,0,0,0,0,0,0,0,0,0,0,0,0,0,0,0,0,0,0,0,0,0,0,0,0,0,0,0,0,0,0,0,0,0,0,0,0,0,0,0,0,0,0,0,0,0,0,0,0,0,0,0,0,0,0,0,0,0,0,0,0,0,0,0,0,0,0,0,0,0,0,0,0,0,0,0,0,0,0,0,0,0,0,0,0,0,0,0,
0,0,0,0,0,0,0,0,0,0,0,0,0,0,0,0,0,0,0,0,0,0,0,0,0,0,0,0,0,0,0,0,0,0,0,0,0,0,0,0,0,0,0,0,0,0,0,0,0,0,0,0,0,0,0,0,0,0,0,0,0,0,0,0,0,0,0,0,0,0,0,0,0,0,0,0,0,0,0,0,0,0,0,0,0,0,0,0,0,0,0,0,0,0,0,0,0,0,0,0,
0,0,0,0,0,0,0,0,0,0,0,0,0,0,0,0,0,0,0,0,0,0,0,0,0,0,0,0,0,0,0,0,0,0,0,0,0,0,0,0,0,0,0,0,0,0,0,0,0,0,0,0,0,0,0,0,0,0,0,0,0,0,0,0,0,0,0,0,0,0,0,0,0,0,0,0,0,0,0,0,0,0,0,0,0,0,0,0,0,0,0,0,0,0,0,0,0,0,0,0,
0,0,0,0,0,0,0,0,0,0,0,0,0,0,0,0,0,0,0,0,0,0,0,0,0,0,0,0,0,0,0,0,0,0,0,0,0,0,0,0,0,0,0,0,0,0,0,0,0,0,0,0,0,0,0,0,0,0,0,0,0,0,0,0,0,0,0,0,0,0,0,0,0,0,0,0,0,0,0,0,0,0,0,0,0,0,0,0,0,0,0,0,0,0,0,0,0,0,0,0,
0,0,0,0,0,0,0,0,0,0,0,0,0,0,0,0,0,0,0,0,0,0,0,0,0,0,0,0,0,0,0,0,0,0,0,0,0,0,0,0,0,0,0,0,0,0,0,0,0,0,0,0,0,0,0,0,0,0,0,0,0,0,0,0,0,0,0,0,0,0,0,0,0,0,0,0,0,0,0,0,0,0,0,0,0,0,0,0,0,0,0,0,0,0,0,0,0,0,0,0,
0,0,0,0,0,0,0,0,0,0,0,0,0,0,0,0,0,0,0,0,0,0,0,0,0,0,0,0,0,0,0,0,0,0,0,0,0,0,0,0,0,0,0,0,0,0,0,0,0,0,0,0,0,0,0,0,0,0,0,0,0,0,0,0,0,0,0,0,0,0,0,0,0,0,0,0,0,0,0,0,0,0,0,0,0,0,0,0,0,0,0,0,0,0,0,0,0,0,0,0,
0,0,0,0,0,0,0,0,0,0,0,0,0,0,0,0,0,0,0,0,0,0,0,0,0,0,0,0,0,0,0,0,0,0,0,0,0,0,0,0,0,0,0,0,0,0,0,0,0,0,0,0,0,0,0,0,0,0,0,0,0,0,0,0,0,0,0,0,0,0,0,0,0,0,0,0,0,0,0,0,0,0,0,0,0,0,0,0,0,0,0,0,0,0,0,0,0,0,0,0,
0,0,0,0,0,0,0,0,0,0,0,0,0,0,0,0,0,0,0,0,0,0,0,0,0,0,0,0,0,0,0,0,0,0,0,0,0,0,0,0,0,0,0,0,0,0,0,0,0,0,0,0,0,0,0,0,0,0,0,0,0,0,0,0,0,0,0,0,0,0,0,0,0,0,0,0,0,0,0,0,0,0,0,0,0,0,0,0,0,0,0,0,0,0,0,0,0,0,0,0,
0,0,0,0,0,0,0,0,0,0,0,0,0,0,0,0,0,0,0,0,0,0,0,0,0,0,0,0,0,0,0,0,0,0,0,0,0,0,0,0,0,0,0,0,0,0,0,0,0,0,0,0,0,0,0,0,0,0,0,0,0,0,0,0,0,0,0,0,0,0,0,0,0,0,0,0,0,0,0,0,0,0,0,0,0,0,0,0,0,0,0,0,0,0,0,0,0,0,0,0,
0,0,0,0,0,0,0,0,0,0,0,0,0,0,0,0,0,0,0,0,0,0,0,0,0,0,0,0,0,0,0,0,0,0,0,0,0,0,0,0,0,0,0,0,0,0,0,0,0,0,0,0,0,0,0,0,0,0,0,0,0,0,0,0,0,0,0,0,0,0,0,0,0,0,0,0,0,0,0,0,0,0,0,0,0,0,0,0,0,0,0,0,0,0,0,0,0,0,0,0,
0,0,0,0,0,0,0,0,0,0,0,0,0,0,0,0,0,0,0,0,0,0,0,0,0,0,0,0,0,0,0,0,0,0,0,0,0,0,0,0,0,0,0,0,0,0,0,0,0,0,0,0,0,0,0,0,0,0,0,0,0,0,0,0,0,0,0,0,0,0,0,0,0,0,0,0,0,0,0,0,0,0,0,0,0,0,0,0,0,0,0,0,0,0,0,0,0,0,0,0,
0,0,0,0,0,0,0,0,0,0,0,0,0,0,0,0,0,0,0,0,0,0,0,0,0,0,0,0,0,0,0,0,0,0,0,0,0,0,0,0,0,0,0,0,0,0,0,0,0,0,0,0,0,0,0,0,0,0,0,0,0,0,0,0,0,0,0,0,0,0,0,0,0,0,0,0,0,0,0,0,0,0,0,0,0,0,0,0,0,0,0,0,0,0,0,0,0,0,0,0,
0,0,0,0,0,0,0,0,0,0,0,0,0,0,0,0,0,0,0,0,0,0,0,0,0,0,0,0,0,0,0,0,0,0,0,0,0,0,0,0,0,0,0,0,0,0,0,0,0,0,0,0,0,0,0,0,0,0,0,0,0,0,0,0,0,0,0,0,0,0,0,0,0,0,0,0,0,0,0,0,0,0,0,0,0,0,0,0,0,0,0,0,0,0,0,0,0,0,0,0,
0,0,0,0,0,0,0,0,0,0,0,0,0,0,0,0,0,0,0,0,0,0,0,0,0,0,0,0,0,0,0,0,0,0,0,0,0,0,0,0,0,0,0,0,0,0,0,0,0,0,0,0,0,0,0,0,0,0,0,0,0,0,0,0,0,0,0,0,0,0,0,0,0,0,0,0,0,0,0,0,0,0,0,0,0,0,0,0,0,0,0,0,0,0,0,0,0,0,0,0,
0,0,0,0,0,0,0,0,0,0,0,0,0,0,0,0,0,0,0,0,0,0,0,0,0,0,0,0,0,0,0,0,0,0,0,0,0,0,0,0,0,0,0,0,0,0,0,0,0,0,0,0,0,0,0,0,0,0,0,0,0,0,0,0,0,0,0,0,0,0,0,0,0,0,0,0,0,0,0,0,0,0,0,0,0,0,0,0,0,0,0,0,0,0,0,0,0,0,0,0,
0,0,0,0,0,0,0,0,0,0,0,0,0,0,0,0,0,0,0,0,0,0,0,0,0,0,0,0,0,0,0,0,0,0,0,0,0,0,0,0,0,0,0,0,0,0,0,0,0,0,0,0,0,0,0,0,0,0,0,0,0,0,0,0,0,0,0,0,0,0,0,0,0,0,0,0,0,0,0,0,0,0,0,0,0,0,0,0,0,0,0,0,0,0,0,0,0,0,0,0,
0,0,0,0,0,0,0,0,0,0,0,0,0,0,0,0,0,0,0,0,0,0,0,0,0,0,0,0,0,0,0,0,0,0,0,0,0,0,0,0,0,0,0,0,0,0,0,0,0,0,0,0,0,0,0,0,0,0,0,0,0,0,0,0,0,0,0,0,0,0,0,0,0,0,0,0,0,0,0,0,0,0,0,0,0,0,0,0,0,0,0,0,0,0,0,0,0,0,0,0,
0,0,0,0,0,0,0,0,0,0,0,0,0,0,0,0,0,0,0,0,0,0,0,0,0,0,0,0,0,0,0,0,0,0,0,0,0,0,0,0,0,0,0,0,0,0,0,0,0,0,0,0,0,0,0,0,0,0,0,0,0,0,0,0,0,0,0,0,0,0,0,0,0,0,0,0,0,0,0,0,0,0,0,0,0,0,0,0,0,0,0,0,0,0,0,0,0,0,0,0,
0,0,0,0,0,0,0,0,0,0,0,0,0,0,0,0,0,0,0,0,0,0,0,0,0,0,0,0,0,0,0,0,0,0,0,0,0,0,0,0,0,0,0,0,0,0,0,0,0,0,0,0,0,0,0,0,0,0,0,0,0,0,0,0,0,0,0,0,0,0,0,0,0,0,0,0,0,0,0,0,0,0,0,0,0,0,0,0,0,0,0,0,0,0,0,0,0,0,0,0,
0,0,0,0,0,0,0,0,0,0,0,0,0,0,0,0,0,0,0,0,0,0,0,0,0,0,0,0,0,0,0,0,0,0,0,0,0,0,0,0,0,0,0,0,0,0,0,0,0,0,0,0,0,0,0,0,0,0,0,0,0,0,0,0,0,0,0,0,0,0,0,0,0,0,0,0,0,0,0,0,0,0,0,0,0,0,0,0,0,0,0,0,0,0,0,0,0,0,0,0,
0,0,0,0,0,0,0,0,0,0,0,0,0,0,0,0,0,0,0,0,0,0,0,0,0,0,0,0,0,0,0,0,0,0,0,0,0,0,0,0,0,0,0,0,0,0,0,0,0,0,0,0,0,0,0,0,0,0,0,0,0,0,0,0,0,0,0,0,0,0,0,0,0,0,0,0,0,0,0,0,0,0,0,0,0,0,0,0,0,0,0,0,0,0,0,0,0,0,0,0,
0,0,0,0,0,0,0,0,0,0,0,0,0,0,0,0,0,0,0,0,0,0,0,0,0,0,0,0,0,0,0,0,0,0,0,0,0,0,0,0,0,0,0,0,0,0,0,0,0,0,0,0,0,0,0,0,0,0,0,0,0,0,0,0,0,0,0,0,0,0,0,0,0,0,0,0,0,0,0,0,0,0,0,0,0,0,0,0,0,0,0,0,0,0,0,0,0,0,0,0,
0,0,0,0,0,0,0,0,0,0,0,0,0,0,0,0,0,0,0,0,0,0,0,0,0,0,0,0,0,0,0,0,0,0,0,0,0,0,0,0,0,0,0,0,0,0,0,0,0,0,0,0,0,0,0,0,0,0,0,0,0,0,0,0,0,0,0,0,0,0,0,0,0,0,0,0,0,0,0,0,0,0,0,0,0,0,0,0,0,0,0,0,0,0,0,0,0,0,0,0,
0,0,0,0,0,0,0,0,0,0,0,0,0,0,0,0,0,0,0,0,0,0,0,0,0,0,0,0,0,0,0,0,0,0,0,0,0,0,0,0,0,0,0,0,0,0,0,0,0,0,0,0,0,0,0,0,0,0,0,0,0,0,0,0,0,0,0,0,0,0,0,0,0,0,0,0,0,0,0,0,0,0,0,0,0,0,0,0,0,0,0,0,0,0,0,0,0,0,0,0,
0,0,0,0,0,0,0,0,0,0,0,0,0,0,0,0,0,0,0,0,0,0,0,0,0,0,0,0,0,0,0,0,0,0,0,0,0,0,0,0,0,0,0,0,0,0,0,0,0,0,0,0,0,0,0,0,0,0,0,0,0,0,0,0,0,0,0,0,0,0,0,0,0,0,0,0,0,0,0,0,0,0,0,0,0,0,0,0,0,0,0,0,0,0,0,0,0,0,0,0,
0,0,0,0,0,0,0,0,0,0,0,0,0,0,0,0,0,0,0,0,0,0,0,0,0,0,0,0,0,0,0,0,0,0,0,0,0,0,0,0,0,0,0,0,0,0,0,0,0,0,0,0,0,0,0,0,0,0,0,0,0,0,0,0,0,0,0,0,0,0,0,0,0,0,0,0,0,0,0,0,0,0,0,0,0,0,0,0,0,0,0,0,0,0,0,0,0,0,0,0,
0,0,0,0,0,0,0,0,0,0,0,0,0,0,0,0,0,0,0,0,0,0,0,0,0,0,0,0,0,0,0,0,0,0,0,0,0,0,0,0,0,0,0,0,0,0,0,0,0,0,0,0,0,0,0,0,0,0,0,0,0,0,0,0,0,0,0,0,0,0,0,0,0,0,0,0,0,0,0,0,0,0,0,0,0,0,0,0,0,0,0,0,0,0,0,0,0,0,0,0,
0,0,0,0,0,0,0,0,0,0,0,0,0,0,0,0,0,0,0,0,0,0,0,0,0,0,0,0,0,0,0,0,0,0,0,0,0,0,0,0,0,0,0,0,0,0,0,0,0,0,0,0,0,0,0,0,0,0,0,0,0,0,0,0,0,0,0,0,0,0,0,0,0,0,0,0,0,0,0,0,0,0,0,0,0,0,0,0,0,0,0,0,0,0,0,0,0,0,0,0
</data>
 </layer>
 <layer id="14" name="2" width="100" height="100">
  <data encoding="csv">
0,0,0,0,0,0,0,0,0,0,0,0,0,0,0,0,0,0,0,0,0,0,0,0,0,0,0,0,0,0,0,0,0,0,0,0,0,0,0,0,0,0,0,0,0,0,0,0,0,0,0,0,0,0,0,0,0,0,0,0,0,0,0,0,0,0,0,0,0,0,0,0,0,0,0,0,0,0,0,0,0,0,0,0,0,0,0,0,0,0,0,0,0,0,0,0,0,0,0,0,
0,0,0,0,0,0,0,0,0,0,0,0,0,0,0,0,0,0,0,0,0,0,0,0,0,0,0,0,0,0,0,0,0,0,0,0,0,0,0,0,0,0,0,0,0,0,0,0,0,0,0,0,0,0,0,0,0,0,0,0,0,0,0,0,0,0,0,0,0,0,0,0,0,0,0,0,0,0,0,0,0,0,0,0,0,0,0,0,0,0,0,0,0,0,0,0,0,0,0,0,
0,0,0,0,0,0,0,0,0,0,0,0,0,0,0,0,0,0,0,0,0,0,0,0,0,0,0,0,0,0,0,0,0,0,0,0,0,0,0,0,0,0,0,0,0,0,0,0,0,0,0,0,0,0,0,0,0,0,0,0,0,0,0,0,0,0,0,0,0,0,0,0,0,0,0,0,0,0,0,0,0,0,0,0,0,0,0,0,0,0,0,0,0,0,0,0,0,0,0,0,
0,0,0,0,0,0,0,0,0,0,0,0,0,0,0,0,0,0,0,0,0,0,0,0,0,0,0,0,0,0,0,0,0,0,0,0,0,0,0,0,0,0,0,0,0,0,0,0,0,0,0,0,0,0,0,0,0,0,0,0,0,0,0,0,0,0,0,0,0,0,0,0,0,0,0,0,0,0,0,0,0,0,0,0,0,0,0,0,0,0,0,0,0,0,0,0,0,0,0,0,
0,0,0,0,0,0,0,0,0,0,0,0,0,0,0,0,0,0,0,0,0,0,0,0,0,0,0,0,0,0,0,0,0,0,0,0,0,0,0,0,0,0,0,0,0,0,0,0,0,0,0,0,0,0,0,0,0,0,0,0,0,0,0,0,0,0,0,0,0,0,0,0,0,0,0,0,0,0,0,0,0,0,0,0,0,0,0,0,0,0,0,0,0,0,0,0,0,0,0,0,
0,0,0,0,0,0,0,0,0,0,0,0,0,0,0,0,0,0,0,0,0,0,0,0,0,0,0,0,0,0,0,0,0,0,0,0,0,0,0,0,0,0,0,0,0,0,0,0,0,0,0,0,0,0,0,0,0,0,0,0,0,0,0,0,0,0,0,0,0,0,0,0,0,0,0,0,0,0,0,0,0,0,0,0,0,0,0,0,0,0,0,0,0,0,0,0,0,0,0,0,
0,0,0,0,0,0,0,0,0,0,0,0,0,0,0,0,0,0,0,0,0,0,0,0,0,0,0,0,0,0,0,0,0,0,0,0,0,0,0,0,0,0,0,0,0,0,0,0,0,0,0,0,0,0,0,0,0,0,0,0,0,0,0,0,0,0,0,0,0,0,0,0,0,0,0,0,0,0,0,0,0,0,0,0,0,0,0,0,0,0,0,0,0,0,0,0,0,0,0,0,
0,0,0,0,0,0,0,0,0,0,0,0,0,0,0,0,0,0,0,0,0,0,0,0,0,0,0,0,0,0,0,0,0,0,0,0,0,0,0,0,0,0,0,0,0,0,0,0,0,0,0,0,0,0,0,0,0,0,0,0,0,0,0,0,0,0,0,0,0,0,0,0,0,0,0,0,0,0,0,0,0,0,0,0,0,0,0,0,0,0,0,0,0,0,0,0,0,0,0,0,
0,0,0,0,0,0,0,0,0,0,0,0,0,0,0,0,0,0,0,0,0,0,0,0,0,0,0,0,0,0,0,0,0,0,0,0,0,0,0,0,0,0,0,0,0,0,0,0,0,0,0,0,0,0,0,0,0,0,0,0,0,0,0,0,0,0,0,0,0,0,0,0,0,0,0,0,0,0,0,0,0,0,0,0,0,0,0,0,0,0,0,0,0,0,0,0,0,0,0,0,
0,0,0,0,0,0,0,0,0,0,0,0,0,0,0,0,0,0,0,0,0,0,0,0,0,0,0,0,0,0,0,0,0,0,0,0,0,0,0,0,0,0,0,0,0,0,0,0,0,0,0,0,0,0,0,0,0,0,0,0,0,0,0,0,0,0,0,0,0,0,0,0,0,0,0,0,0,0,0,0,0,0,0,0,0,0,0,0,0,0,0,0,0,0,0,0,0,0,0,0,
0,0,0,0,0,0,0,0,0,0,0,0,0,0,0,0,0,0,0,0,0,0,0,0,0,0,0,0,0,0,0,0,0,0,0,0,0,0,0,0,0,0,0,0,0,0,0,0,0,0,0,0,0,0,0,0,0,0,0,0,0,0,0,0,0,0,0,0,0,0,0,0,0,0,0,0,0,0,0,0,0,0,0,0,0,0,0,0,0,0,0,0,0,0,0,0,0,0,0,0,
0,0,0,0,0,0,0,0,0,0,0,0,0,0,0,0,0,0,0,0,0,0,0,0,0,0,0,0,0,0,0,0,0,0,0,0,0,0,0,0,0,0,0,0,0,0,0,0,0,0,0,0,0,0,0,0,0,0,0,0,0,0,0,0,0,0,0,0,0,0,0,0,0,0,0,0,0,0,0,0,0,0,0,0,0,0,0,0,0,0,0,0,0,0,0,0,0,0,0,0,
0,0,0,0,0,0,0,0,0,0,0,0,0,0,0,0,0,0,0,0,0,0,0,0,0,0,0,0,0,0,0,0,0,0,0,0,0,0,0,0,0,0,0,0,0,0,0,0,0,0,0,0,0,0,0,0,0,0,0,0,0,0,0,0,0,0,0,0,0,0,0,0,0,0,0,0,0,0,0,0,0,0,0,0,0,0,0,0,0,0,0,0,0,0,0,0,0,0,0,0,
0,0,0,0,0,0,0,0,0,0,0,0,0,0,0,0,0,0,0,0,0,0,0,0,0,0,0,0,0,0,0,0,0,0,0,0,0,0,0,0,0,0,0,0,0,0,0,0,0,0,0,0,0,0,0,0,0,0,0,0,0,0,0,0,0,0,0,0,0,0,0,0,0,0,0,0,0,0,0,0,0,0,0,0,0,0,0,0,0,0,0,0,0,0,0,0,0,0,0,0,
0,0,0,0,0,0,0,0,0,0,0,0,0,0,0,0,0,0,0,0,0,0,0,0,0,0,0,0,0,0,0,0,0,0,0,0,0,0,0,0,0,0,0,0,0,0,0,0,0,0,0,0,0,0,0,0,0,0,0,0,0,0,0,0,0,0,0,0,0,0,0,0,0,0,0,0,0,0,0,0,0,0,0,0,0,0,0,0,0,0,0,0,0,0,0,0,0,0,0,0,
0,0,0,0,0,0,0,0,0,0,0,0,0,0,0,0,0,0,0,0,0,0,0,0,0,0,0,0,0,0,0,0,0,0,0,0,0,0,0,0,0,0,0,0,0,0,0,0,0,0,0,0,0,0,0,0,0,0,0,0,0,0,0,0,0,0,0,0,0,0,0,0,0,0,0,0,0,0,0,0,0,0,0,0,0,0,0,0,0,0,0,0,0,0,0,0,0,0,0,0,
0,0,0,0,0,0,0,0,0,0,0,0,0,0,0,0,0,0,0,0,0,0,0,0,0,0,0,0,0,0,0,0,0,0,0,0,0,0,0,0,0,0,0,0,0,0,0,0,0,0,0,0,0,0,0,0,0,0,0,0,0,0,0,0,0,0,0,0,0,0,0,0,0,0,0,0,0,0,0,0,0,0,0,0,0,0,0,0,0,0,0,0,0,0,0,0,0,0,0,0,
0,0,0,0,0,0,0,0,0,0,0,0,0,0,0,0,0,0,0,0,0,0,0,0,0,0,0,0,0,0,0,0,0,0,0,0,0,0,0,0,0,0,0,0,0,0,0,0,0,0,0,0,0,0,0,0,0,0,0,0,0,0,0,0,0,0,0,0,0,0,0,0,0,0,0,0,0,0,0,0,0,0,0,0,0,0,0,0,0,0,0,0,0,0,0,0,0,0,0,0,
0,0,0,0,0,0,0,0,0,0,0,0,0,0,0,0,0,0,0,0,0,0,0,0,0,0,0,0,0,0,0,0,0,0,0,0,0,0,0,0,0,0,0,0,0,0,0,0,0,0,0,0,0,0,0,0,0,0,0,0,0,0,0,0,0,0,0,0,0,0,0,0,0,0,0,0,0,0,0,0,0,0,0,0,0,0,0,0,0,0,0,0,0,0,0,0,0,0,0,0,
0,0,0,0,0,0,0,0,0,0,0,0,0,0,0,0,0,0,0,0,0,0,0,0,0,0,0,0,0,0,0,0,0,0,0,0,0,0,0,0,0,0,0,0,0,0,0,0,0,0,0,0,0,0,0,0,0,0,0,0,0,0,0,0,0,0,0,0,0,0,0,0,0,0,0,0,0,0,0,0,0,0,0,0,0,0,0,0,0,0,0,0,0,0,0,0,0,0,0,0,
0,0,0,0,0,0,0,0,0,0,0,0,0,0,0,0,0,0,0,0,0,0,0,0,0,0,0,0,0,0,0,0,0,0,0,0,0,0,0,0,0,0,0,0,0,0,0,0,0,0,0,0,0,0,0,0,0,0,0,0,0,0,0,0,0,0,0,0,0,0,0,0,0,0,0,0,0,0,0,0,0,0,0,0,0,0,0,0,0,0,0,0,0,0,0,0,0,0,0,0,
0,0,0,0,0,0,0,0,0,0,0,0,0,0,0,0,0,0,0,0,0,0,0,0,0,0,0,0,0,0,0,0,0,0,0,0,0,0,0,0,0,0,0,0,0,0,0,0,0,0,0,0,0,0,0,0,0,0,0,0,0,0,0,0,0,0,0,0,0,0,0,0,0,0,0,0,0,0,0,0,0,0,0,0,0,0,0,0,0,0,0,0,0,0,0,0,0,0,0,0,
0,0,0,0,0,0,0,0,0,0,0,0,0,0,0,0,0,0,0,0,0,0,0,0,0,0,0,0,0,0,0,0,0,0,0,0,0,0,0,0,0,0,0,0,0,0,0,0,0,0,0,0,0,0,0,0,0,0,0,0,0,0,0,0,0,0,0,0,0,0,0,0,0,0,0,0,0,0,0,0,0,0,0,0,0,0,0,0,0,0,0,0,0,0,0,0,0,0,0,0,
0,0,0,0,0,0,0,0,0,0,0,0,0,0,0,0,0,0,0,0,0,0,0,0,0,0,0,0,0,0,0,0,0,0,0,0,0,0,0,0,0,0,0,0,0,0,0,0,0,0,0,0,0,0,0,0,0,0,0,0,0,0,0,0,0,0,0,0,0,0,0,0,0,0,0,0,0,0,0,0,0,0,0,0,0,0,0,0,0,0,0,0,0,0,0,0,0,0,0,0,
0,0,0,0,0,0,0,0,0,0,0,0,0,0,0,0,0,0,0,0,0,0,0,0,0,0,0,0,0,0,0,0,0,0,0,0,0,0,0,0,0,0,0,0,0,0,0,0,0,0,0,0,0,0,0,0,0,0,0,0,0,0,0,0,0,0,0,0,0,0,0,0,0,0,0,0,0,0,0,0,0,0,0,0,0,0,0,0,0,0,0,0,0,0,0,0,0,0,0,0,
0,0,0,0,0,0,0,0,0,0,0,0,0,0,0,0,0,0,0,0,0,0,0,0,0,0,0,0,0,0,0,0,0,0,0,0,0,0,0,0,0,0,0,0,0,0,0,0,0,0,0,0,0,0,0,0,0,0,0,0,0,0,0,0,0,0,0,0,0,0,0,0,0,0,0,0,0,0,0,0,0,0,0,0,0,0,0,0,0,0,0,0,0,0,0,0,0,0,0,0,
0,0,0,0,0,0,0,0,0,0,0,0,0,0,0,0,0,0,0,0,0,0,0,0,0,0,0,0,0,0,0,0,0,0,0,0,0,0,0,0,0,0,0,0,0,0,0,0,0,0,0,0,0,0,0,0,0,0,0,0,0,0,0,0,0,0,0,0,0,0,0,0,0,0,0,0,0,0,0,0,0,0,0,0,0,0,0,0,0,0,0,0,0,0,0,0,0,0,0,0,
0,0,0,0,0,0,0,0,0,0,0,0,0,0,0,0,0,0,0,0,0,0,0,0,0,0,0,0,0,0,0,0,0,0,0,0,0,0,0,0,0,0,0,0,0,0,0,0,0,0,0,0,0,0,0,0,0,0,0,0,0,0,0,0,0,0,0,0,0,0,0,0,0,0,0,0,0,0,0,0,0,0,0,0,0,0,0,0,0,0,0,0,0,0,0,0,0,0,0,0,
0,0,0,0,0,0,0,0,0,0,0,0,0,0,0,0,0,0,0,0,0,0,0,0,0,0,0,0,0,0,0,0,0,0,0,0,0,0,0,0,0,0,0,0,0,0,0,0,0,0,0,0,0,0,0,0,0,0,0,0,0,0,0,0,0,0,0,0,0,0,0,0,0,0,0,0,0,0,0,0,0,0,0,0,0,0,0,0,0,0,0,0,0,0,0,0,0,0,0,0,
0,0,0,0,0,0,0,0,0,0,0,0,0,0,0,0,0,0,0,0,0,0,0,0,0,0,0,0,0,0,0,0,0,0,0,0,0,0,0,0,0,0,0,0,0,0,0,0,0,0,0,0,0,0,0,0,0,0,0,0,0,0,0,0,0,0,0,0,0,0,0,0,0,0,0,0,0,0,0,0,0,0,0,0,0,0,0,0,0,0,0,0,0,0,0,0,0,0,0,0,
0,0,0,0,0,0,0,0,0,0,0,0,0,0,0,0,0,0,0,0,0,0,0,0,0,0,0,0,0,0,0,0,0,0,0,0,0,0,0,0,0,0,0,0,0,0,0,0,0,0,0,0,0,0,0,0,0,0,0,0,0,0,0,0,0,0,0,0,0,0,0,0,0,0,0,0,0,0,0,0,0,0,0,0,0,0,0,0,0,0,0,0,0,0,0,0,0,0,0,0,
0,0,0,0,0,0,0,0,0,0,0,0,0,0,0,0,0,0,0,0,0,0,0,0,0,0,0,0,0,0,0,0,0,0,0,0,0,0,0,0,0,0,0,0,0,0,0,0,0,0,0,0,0,0,0,0,0,0,0,0,0,0,0,0,0,0,0,0,0,0,0,0,0,0,0,0,0,0,0,0,0,0,0,0,0,0,0,0,0,0,0,0,0,0,0,0,0,0,0,0,
0,0,0,0,0,0,0,0,0,0,0,0,0,0,0,0,0,0,0,0,0,0,0,0,0,0,0,0,0,0,0,0,0,0,0,0,0,0,0,0,0,0,0,0,0,0,0,0,0,0,0,0,0,0,0,0,0,0,0,0,0,0,0,0,0,0,0,0,0,0,0,0,0,0,0,0,0,0,0,0,0,0,0,0,0,0,0,0,0,0,0,0,0,0,0,0,0,0,0,0,
0,0,0,0,0,0,0,0,0,0,0,0,0,0,0,0,0,0,0,0,0,0,0,0,0,0,0,0,0,0,0,0,0,0,0,0,0,0,0,0,0,0,0,0,0,0,0,0,0,0,0,0,0,0,0,0,0,0,0,0,0,0,0,0,0,0,0,0,0,0,0,0,0,0,0,0,0,0,0,0,0,0,0,0,0,0,0,0,0,0,0,0,0,0,0,0,0,0,0,0,
0,0,0,0,0,0,0,0,0,0,0,0,0,0,0,0,0,0,0,0,0,0,0,0,0,0,0,0,0,0,0,0,0,0,0,0,0,0,0,0,0,0,0,0,0,0,0,0,0,0,0,0,0,0,0,0,0,0,0,0,0,0,0,0,0,0,0,0,0,0,0,0,0,0,0,0,0,0,0,0,0,0,0,0,0,0,0,0,0,0,0,0,0,0,0,0,0,0,0,0,
0,0,0,0,0,0,0,0,0,0,0,0,0,0,0,0,0,0,0,0,0,0,0,0,0,0,0,0,0,0,0,0,0,0,0,0,0,0,0,0,0,0,0,0,0,0,0,0,0,0,0,0,0,0,0,0,0,0,0,0,0,0,0,0,0,0,0,0,0,0,0,0,0,0,0,0,0,0,0,0,0,0,0,0,0,0,0,0,0,0,0,0,0,0,0,0,0,0,0,0,
0,0,0,0,0,0,0,0,0,0,0,0,0,0,0,0,0,0,0,0,0,0,0,0,0,0,0,0,0,0,0,0,0,0,0,0,0,0,0,0,0,0,0,0,0,0,0,0,0,0,0,0,0,0,0,0,0,0,0,0,0,0,0,0,0,0,0,0,0,0,0,0,0,0,0,0,0,0,0,0,0,0,0,0,0,0,0,0,0,0,0,0,0,0,0,0,0,0,0,0,
0,0,0,0,0,0,0,0,0,0,0,0,0,0,0,0,0,0,0,0,0,0,0,0,0,0,0,0,0,0,0,0,0,0,0,0,0,0,0,0,0,0,0,0,0,0,0,0,0,0,0,0,0,0,0,0,0,0,0,0,0,0,0,0,0,0,0,0,0,0,0,0,0,0,0,0,0,0,0,0,0,0,0,0,0,0,0,0,0,0,0,0,0,0,0,0,0,0,0,0,
0,0,0,0,0,0,0,0,0,0,0,0,0,0,0,0,0,0,0,0,0,0,0,0,0,0,0,0,0,0,0,0,0,0,0,0,0,0,0,0,0,0,0,0,0,0,0,0,0,0,0,0,0,0,0,0,0,0,0,0,0,0,0,0,0,0,0,0,0,0,0,0,0,0,0,0,0,0,0,0,0,0,0,0,0,0,0,0,0,0,0,0,0,0,0,0,0,0,0,0,
0,0,0,0,0,0,0,0,0,0,0,0,0,0,0,0,0,0,0,0,0,0,0,0,0,0,0,0,0,0,0,0,0,0,0,0,0,0,0,0,0,0,0,0,0,0,0,0,0,0,0,0,0,0,0,0,0,0,0,0,0,0,0,0,0,0,0,0,0,0,0,0,0,0,0,0,0,0,0,0,0,0,0,0,0,0,0,0,0,0,0,0,0,0,0,0,0,0,0,0,
0,0,0,0,0,0,0,0,0,0,0,0,0,0,0,0,0,0,0,0,0,0,0,0,0,0,0,0,0,0,0,0,0,0,0,0,0,0,0,0,0,0,0,0,0,0,0,0,0,0,0,0,0,0,0,0,0,0,0,0,0,0,0,0,0,0,0,0,0,0,0,0,0,0,0,0,0,0,0,0,0,0,0,0,0,0,0,0,0,0,0,0,0,0,0,0,0,0,0,0,
0,0,0,0,0,0,0,0,0,0,0,0,0,0,0,0,0,0,0,0,0,0,0,0,0,0,0,0,0,0,0,0,0,0,0,0,0,0,0,0,0,0,0,0,0,0,0,0,0,0,0,0,0,0,0,0,0,0,0,0,0,0,0,0,0,0,0,0,0,0,0,0,0,0,0,0,0,0,0,0,0,0,0,0,0,0,0,0,0,0,0,0,0,0,0,0,0,0,0,0,
0,0,0,0,0,0,0,0,0,0,0,0,0,0,0,0,0,0,0,0,0,0,0,0,0,0,0,0,0,0,0,0,0,0,0,0,0,0,0,0,0,0,0,0,0,0,0,0,0,0,0,0,0,0,0,0,0,0,0,0,0,0,0,0,0,0,0,0,0,0,0,0,0,0,0,0,0,0,0,0,0,0,0,0,0,0,0,0,0,0,0,0,0,0,0,0,0,0,0,0,
0,0,0,0,0,0,0,0,0,0,0,0,0,0,0,0,0,0,0,0,0,0,0,0,0,0,0,0,0,0,0,0,0,0,0,0,0,0,0,0,0,0,0,0,0,0,0,0,0,0,0,0,0,0,0,0,0,0,0,0,0,0,0,0,0,0,0,0,0,0,0,0,0,0,0,0,0,0,0,0,0,0,0,0,0,0,0,0,0,0,0,0,0,0,0,0,0,0,0,0,
0,0,0,0,0,0,0,0,0,0,0,0,0,0,0,0,0,0,0,0,0,0,0,0,0,0,0,0,0,0,0,0,0,0,0,0,0,0,0,0,0,0,0,0,0,0,0,0,0,0,0,0,0,0,0,0,0,0,0,0,0,0,0,0,0,0,0,0,0,0,0,0,0,0,0,0,0,0,0,0,0,0,0,0,0,0,0,0,0,0,0,0,0,0,0,0,0,0,0,0,
0,0,0,0,0,0,0,0,0,0,0,0,0,0,0,0,0,0,0,0,0,0,0,0,0,0,0,0,0,0,0,0,0,0,0,0,0,0,0,0,0,0,0,0,0,0,0,0,0,0,0,0,0,0,0,0,0,0,0,0,0,0,0,0,0,0,0,0,0,0,0,0,0,0,0,0,0,0,0,0,0,0,0,0,0,0,0,0,0,0,0,0,0,0,0,0,0,0,0,0,
0,0,0,0,0,0,0,0,0,0,0,0,0,0,0,0,0,0,0,0,0,0,0,0,0,0,0,0,0,0,0,0,0,0,0,0,0,0,0,0,0,0,0,0,0,0,0,0,0,0,0,0,0,0,0,0,0,0,0,0,0,0,0,0,0,0,0,0,0,0,0,0,0,0,0,0,0,0,0,0,0,0,0,0,0,0,0,0,0,0,0,0,0,0,0,0,0,0,0,0,
0,0,0,0,0,0,0,0,0,0,0,0,0,0,0,0,0,0,0,0,0,0,0,0,0,0,0,0,0,0,0,0,0,0,0,0,0,0,0,0,0,0,0,0,0,0,0,0,0,0,0,0,0,0,0,0,0,0,0,0,0,0,0,0,0,0,0,0,0,0,0,0,0,0,0,0,0,0,0,0,0,0,0,0,0,0,0,0,0,0,0,0,0,0,0,0,0,0,0,0,
0,0,0,0,0,0,0,0,0,0,0,0,0,0,0,0,0,0,0,0,0,0,0,0,0,0,0,0,0,0,0,0,0,0,0,0,0,0,0,0,0,0,0,0,0,0,0,0,0,0,0,0,0,0,0,0,0,0,0,0,0,0,0,0,0,0,0,0,0,0,0,0,0,0,0,0,0,0,0,0,0,0,0,0,0,0,0,0,0,0,0,0,0,0,0,0,0,0,0,0,
0,0,0,0,0,0,0,0,0,0,0,0,0,0,0,0,0,0,0,0,0,0,0,0,0,0,0,0,0,0,0,0,0,0,0,0,0,0,0,0,0,0,0,0,0,0,0,0,0,0,0,0,0,0,0,0,0,0,0,0,0,0,0,0,0,0,0,0,0,0,0,0,0,0,0,0,0,0,0,0,0,0,0,0,0,0,0,0,0,0,0,0,0,0,0,0,0,0,0,0,
0,0,0,0,0,0,0,0,0,0,0,0,0,0,0,0,0,0,0,0,0,0,0,0,0,0,0,0,0,0,0,0,0,0,0,0,0,0,0,0,0,0,0,0,0,0,0,0,0,0,0,0,0,0,0,0,0,0,0,0,0,0,0,0,0,0,0,0,0,0,0,0,0,0,0,0,0,0,0,0,0,0,0,0,0,0,0,0,0,0,0,0,0,0,0,0,0,0,0,0,
0,0,0,0,0,0,0,0,0,0,0,0,0,0,0,0,0,0,0,0,0,0,0,0,0,0,0,0,0,0,0,0,0,0,0,0,0,0,0,0,0,0,0,0,0,0,0,0,0,0,0,0,0,0,0,0,0,0,0,0,0,0,0,0,0,0,0,0,0,0,0,0,0,0,0,0,0,0,0,0,0,0,0,0,0,0,0,0,0,0,0,0,0,0,0,0,0,0,0,0,
0,0,0,0,0,0,0,0,0,0,0,0,0,0,0,0,0,0,0,0,0,0,0,0,0,0,0,0,0,0,0,0,0,0,0,0,0,0,0,0,0,0,0,0,0,0,0,0,0,0,0,0,0,0,0,0,0,0,0,0,0,0,0,0,0,0,0,0,0,0,0,0,0,0,0,0,0,0,0,0,0,0,0,0,0,0,0,0,0,0,0,0,0,0,0,0,0,0,0,0,
0,0,0,0,0,0,0,0,0,0,0,0,0,0,0,0,0,0,0,0,0,0,0,0,0,0,0,0,0,0,0,0,0,0,0,0,0,0,0,0,0,0,0,0,0,0,0,0,0,0,0,0,0,0,0,0,0,0,0,0,0,0,0,0,0,0,0,0,0,0,0,0,0,0,0,0,0,0,0,0,0,0,0,0,0,0,0,0,0,0,0,0,0,0,0,0,0,0,0,0,
0,0,0,0,0,0,0,0,0,0,0,0,0,0,0,0,0,0,0,0,0,0,0,0,0,0,0,0,0,0,0,0,0,0,0,0,0,0,0,0,0,0,0,0,0,0,0,0,0,0,0,0,0,0,0,0,0,0,0,0,0,0,0,0,0,0,0,0,0,0,0,0,0,0,0,0,0,0,0,0,0,0,0,0,0,0,0,0,0,0,0,0,0,0,0,0,0,0,0,0,
0,0,0,0,0,0,0,0,0,0,0,0,0,0,0,0,0,0,0,0,0,0,0,0,0,0,0,0,0,0,0,0,0,0,0,0,0,0,0,0,0,0,0,0,0,0,0,0,0,0,0,0,0,0,0,0,0,0,0,0,0,0,0,0,0,0,0,0,0,0,0,0,0,0,0,0,0,0,0,0,0,0,0,0,0,0,0,0,0,0,0,0,0,0,0,0,0,0,0,0,
0,0,0,0,0,0,0,0,0,0,0,0,0,0,0,0,0,0,0,0,0,0,0,0,0,0,0,0,0,0,0,0,0,0,0,0,0,0,0,0,0,0,0,0,0,0,0,0,0,0,0,0,0,0,0,0,0,0,0,0,0,0,0,0,0,0,0,0,0,0,0,0,0,0,0,0,0,0,0,0,0,0,0,0,0,0,0,0,0,0,0,0,0,0,0,0,0,0,0,0,
0,0,0,0,0,0,0,0,0,0,0,0,0,0,0,0,0,0,0,0,0,0,0,0,0,0,0,0,0,0,0,0,0,0,0,0,0,0,0,0,0,0,0,0,0,0,0,0,0,0,0,0,0,0,0,0,0,0,0,0,0,0,0,0,0,0,0,0,0,0,0,0,0,0,0,0,0,0,0,0,0,0,0,0,0,0,0,0,0,0,0,0,0,0,0,0,0,0,0,0,
0,0,0,0,0,0,0,0,0,0,0,0,0,0,0,0,0,0,0,0,0,0,0,0,0,0,0,0,0,0,0,0,0,0,0,0,0,0,0,0,0,0,0,0,0,0,0,0,0,0,0,0,0,0,0,0,0,0,0,0,0,0,0,0,0,0,0,0,0,0,0,0,0,0,0,0,0,0,0,0,0,0,0,0,0,0,0,0,0,0,0,0,0,0,0,0,0,0,0,0,
0,0,0,0,0,0,0,0,0,0,0,0,0,0,0,0,0,0,0,0,0,0,0,0,0,0,0,0,0,0,0,0,0,0,0,0,0,0,0,0,0,0,0,0,0,0,0,0,0,0,0,0,0,0,0,0,0,0,0,0,0,0,0,0,0,0,0,0,0,0,0,0,0,0,0,0,0,0,0,0,0,0,0,0,0,0,0,0,0,0,0,0,0,0,0,0,0,0,0,0,
0,0,0,0,0,0,0,0,0,0,0,0,0,0,0,0,0,0,0,0,0,0,0,0,0,0,0,0,0,0,0,0,0,0,0,0,0,0,0,0,0,0,0,0,0,0,0,0,0,0,0,0,0,0,0,0,0,0,0,0,0,0,0,0,0,0,0,0,0,0,0,0,0,0,0,0,0,0,0,0,0,0,0,0,0,0,0,0,0,0,0,0,0,0,0,0,0,0,0,0,
0,0,0,0,0,0,0,0,0,0,0,0,0,0,0,0,0,0,0,0,0,0,0,0,0,0,0,0,0,0,0,0,0,0,0,0,0,0,0,0,0,0,0,0,0,0,0,0,0,0,0,0,0,0,0,0,0,0,0,0,0,0,0,0,0,0,0,0,0,0,0,0,0,0,0,0,0,0,0,0,0,0,0,0,0,0,0,0,0,0,0,0,0,0,0,0,0,0,0,0,
0,0,0,0,0,0,0,0,0,0,0,0,0,0,0,0,0,0,0,0,0,0,0,0,0,0,0,0,0,0,0,0,0,0,0,0,0,0,0,0,0,0,0,0,0,0,0,0,0,0,0,0,0,0,0,0,0,0,0,0,0,0,0,0,0,0,0,0,0,0,0,0,0,0,0,0,0,0,0,0,0,0,0,0,0,0,0,0,0,0,0,0,0,0,0,0,0,0,0,0,
0,0,0,0,0,0,0,0,0,0,0,0,0,0,0,0,0,0,0,0,0,0,0,0,0,0,0,0,0,0,0,0,0,0,0,0,0,0,0,0,0,0,0,0,0,0,0,0,0,0,0,0,0,0,0,0,0,0,0,0,0,0,0,0,0,0,0,0,0,0,0,0,0,0,0,0,0,0,0,0,0,0,0,0,0,0,0,0,0,0,0,0,0,0,0,0,0,0,0,0,
0,0,0,0,0,0,0,0,0,0,0,0,0,0,0,0,0,0,0,0,0,0,0,0,0,0,0,0,0,0,0,0,0,0,0,0,0,0,0,0,0,0,0,0,0,0,0,0,0,0,0,0,0,0,0,0,0,0,0,0,0,0,0,0,0,0,0,0,0,0,0,0,0,0,0,0,0,0,0,0,0,0,0,0,0,0,0,0,0,0,0,0,0,0,0,0,0,0,0,0,
0,0,0,0,0,0,0,0,0,0,0,0,0,0,0,0,0,0,0,0,0,0,0,0,0,0,0,0,0,0,0,0,0,0,0,0,0,0,0,0,0,0,0,0,0,0,0,0,0,0,0,0,0,0,0,0,0,0,0,0,0,0,0,0,0,0,0,0,0,0,0,0,0,0,0,0,0,0,0,0,0,0,0,0,0,0,0,0,0,0,0,0,0,0,0,0,0,0,0,0,
0,0,0,0,0,0,0,0,0,0,0,0,0,0,0,0,0,0,0,0,0,0,0,0,0,0,0,0,0,0,0,0,0,0,0,0,0,0,0,0,0,0,0,0,0,0,0,0,0,0,0,0,0,0,0,0,0,0,0,0,0,0,0,0,0,0,0,0,0,0,0,0,0,0,0,0,0,0,0,0,0,0,0,0,0,0,0,0,0,0,0,0,0,0,0,0,0,0,0,0,
0,0,0,0,0,0,0,0,0,0,0,0,0,0,0,0,0,0,0,0,0,0,0,0,0,0,0,0,0,0,0,0,0,0,0,0,0,0,0,0,0,0,0,0,0,0,0,0,0,0,0,0,0,0,0,0,0,0,0,0,0,0,0,0,0,0,0,0,0,0,0,0,0,0,0,0,0,0,0,0,0,0,0,0,0,0,0,0,0,0,0,0,0,0,0,0,0,0,0,0,
0,0,0,0,0,0,0,0,0,0,0,0,0,0,0,0,0,0,0,0,0,0,0,0,0,0,0,0,0,0,0,0,0,0,0,0,0,0,0,0,0,0,0,0,0,0,0,0,0,0,0,0,0,0,0,0,0,0,0,0,0,0,0,0,0,0,0,0,0,0,0,0,0,0,0,0,0,0,0,0,0,0,0,0,0,0,0,0,0,0,0,0,0,0,0,0,0,0,0,0,
0,0,0,0,0,0,0,0,0,0,0,0,0,0,0,0,0,0,0,0,0,0,0,0,0,0,0,0,0,0,0,0,0,0,0,0,0,0,0,0,0,0,0,0,0,0,0,0,0,0,0,0,0,0,0,0,0,0,0,0,0,0,0,0,0,0,0,0,0,0,0,0,0,0,0,0,0,0,0,0,0,0,0,0,0,0,0,0,0,0,0,0,0,0,0,0,0,0,0,0,
0,0,0,0,0,0,0,0,0,0,0,0,0,0,0,0,0,0,0,0,0,0,0,0,0,0,0,0,0,0,0,0,0,0,0,0,0,0,0,0,0,0,0,0,0,0,0,0,0,0,0,0,0,0,0,0,0,0,0,0,0,0,0,0,0,0,0,0,0,0,0,0,0,0,0,0,0,0,0,0,0,0,0,0,0,0,0,0,0,0,0,0,0,0,0,0,0,0,0,0,
0,0,0,0,0,0,0,0,0,0,0,0,0,0,0,0,0,0,0,0,0,0,0,0,0,0,0,0,0,0,0,0,0,0,0,0,0,0,0,0,0,0,0,0,0,0,0,0,0,0,0,0,0,0,0,0,0,0,0,0,0,0,0,0,0,0,0,0,0,0,0,0,0,0,0,0,0,0,0,0,0,0,0,0,0,0,0,0,0,0,0,0,0,0,0,0,0,0,0,0,
0,0,0,0,0,0,0,0,0,0,0,0,0,0,0,0,0,0,0,0,0,0,0,0,0,0,0,0,0,0,0,0,0,0,0,0,0,0,0,0,0,0,0,0,0,0,0,0,0,0,0,0,0,0,0,0,0,0,0,0,0,0,0,0,0,0,0,0,0,0,0,0,0,0,0,0,0,0,0,0,0,0,0,0,0,0,0,0,0,0,0,0,0,0,0,0,0,0,0,0,
0,0,0,0,0,0,0,0,0,0,0,0,0,0,0,0,0,0,0,0,0,0,0,0,0,0,0,0,0,0,0,0,0,0,0,0,0,0,0,0,0,0,0,0,0,0,0,0,0,0,0,0,0,0,0,0,0,0,0,0,0,0,0,0,0,0,0,0,0,0,0,0,0,0,0,0,0,0,0,0,0,0,0,0,0,0,0,0,0,0,0,0,0,0,0,0,0,0,0,0,
0,0,0,0,0,0,0,0,0,0,0,0,0,0,0,0,0,0,0,0,0,0,0,0,0,0,0,0,0,0,0,0,0,0,0,0,0,0,0,0,0,0,0,0,0,0,0,0,0,0,0,0,0,0,0,0,0,0,0,0,0,0,0,0,0,0,0,0,0,0,0,0,0,0,0,0,0,0,0,0,0,0,0,0,0,0,0,0,0,0,0,0,0,0,0,0,0,0,0,0,
0,0,0,0,0,0,0,0,0,0,0,0,0,0,0,0,0,0,0,0,0,0,0,0,0,0,0,0,0,0,0,0,0,0,0,0,0,0,0,0,0,0,0,0,0,0,0,0,0,0,0,0,0,0,0,0,0,0,0,0,0,0,0,0,0,0,0,0,0,0,0,0,0,0,0,0,0,0,0,0,0,0,0,0,0,0,0,0,0,0,0,0,0,0,0,0,0,0,0,0,
0,0,0,0,0,0,0,0,0,0,0,0,0,0,0,0,0,0,0,0,0,0,0,0,0,0,0,0,0,0,0,0,0,0,0,0,0,0,0,0,0,0,0,0,0,0,0,0,0,0,0,0,0,0,0,0,0,0,0,0,0,0,0,0,0,0,0,0,0,0,0,0,0,0,0,0,0,0,0,0,0,0,0,0,0,0,0,0,0,0,0,0,0,0,0,0,0,0,0,0,
0,0,0,0,0,0,0,0,0,0,0,0,0,0,0,0,0,0,0,0,0,0,0,0,0,0,0,0,0,0,0,0,0,0,0,0,0,0,0,0,0,0,0,0,0,0,0,0,0,0,0,0,0,0,0,0,0,0,0,0,0,0,0,0,0,0,0,0,0,0,0,0,0,0,0,0,0,0,0,0,0,0,0,0,0,0,0,0,0,0,0,0,0,0,0,0,0,0,0,0,
0,0,0,0,0,0,0,0,0,0,0,0,0,0,0,0,0,0,0,0,0,0,0,0,0,0,0,0,0,0,0,0,0,0,0,0,0,0,0,0,0,0,0,0,0,0,0,0,0,0,0,0,0,0,0,0,0,0,0,0,0,0,0,0,0,0,0,0,0,0,0,0,0,0,0,0,0,0,0,0,0,0,0,0,0,0,0,0,0,0,0,0,0,0,0,0,0,0,0,0,
0,0,0,0,0,0,0,0,0,0,0,0,0,0,0,0,0,0,0,0,0,0,0,0,0,0,0,0,0,0,0,0,0,0,0,0,0,0,0,0,0,0,0,0,0,0,0,0,0,0,0,0,0,0,0,0,0,0,0,0,0,0,0,0,0,0,0,0,0,0,0,0,0,0,0,0,0,0,0,0,0,0,0,0,0,0,0,0,0,0,0,0,0,0,0,0,0,0,0,0,
0,0,0,0,0,0,0,0,0,0,0,0,0,0,0,0,0,0,0,0,0,0,0,0,0,0,0,0,0,0,0,0,0,0,0,0,0,0,0,0,0,0,0,0,0,0,0,0,0,0,0,0,0,0,0,0,0,0,0,0,0,0,0,0,0,0,0,0,0,0,0,0,0,0,0,0,0,0,0,0,0,0,0,0,0,0,0,0,0,0,0,0,0,0,0,0,0,0,0,0,
0,0,0,0,0,0,0,0,0,0,0,0,0,0,0,0,0,0,0,0,0,0,0,0,0,0,0,0,0,0,0,0,0,0,0,0,0,0,0,0,0,0,0,0,0,0,0,0,0,0,0,0,0,0,0,0,0,0,0,0,0,0,0,0,0,0,0,0,0,0,0,0,0,0,0,0,0,0,0,0,0,0,0,0,0,0,0,0,0,0,0,0,0,0,0,0,0,0,0,0,
0,0,0,0,0,0,0,0,0,0,0,0,0,0,0,0,0,0,0,0,0,0,0,0,0,0,0,0,0,0,0,0,0,0,0,0,0,0,0,0,0,0,0,0,0,0,0,0,0,0,0,0,0,0,0,0,0,0,0,0,0,0,0,0,0,0,0,0,0,0,0,0,0,0,0,0,0,0,0,0,0,0,0,0,0,0,0,0,0,0,0,0,0,0,0,0,0,0,0,0,
0,0,0,0,0,0,0,0,0,0,0,0,0,0,0,0,0,0,0,0,0,0,0,0,0,0,0,0,0,0,0,0,0,0,0,0,0,0,0,0,0,0,0,0,0,0,0,0,0,0,0,0,0,0,0,0,0,0,0,0,0,0,0,0,0,0,0,0,0,0,0,0,0,0,0,0,0,0,0,0,0,0,0,0,0,0,0,0,0,0,0,0,0,0,0,0,0,0,0,0,
0,0,0,0,0,0,0,0,0,0,0,0,0,0,0,0,0,0,0,0,0,0,0,0,0,0,0,0,0,0,0,0,0,0,0,0,0,0,0,0,0,0,0,0,0,0,0,0,0,0,0,0,0,0,0,0,0,0,0,0,0,0,0,0,0,0,0,0,0,0,0,0,0,0,0,0,0,0,0,0,0,0,0,0,0,0,0,0,0,0,0,0,0,0,0,0,0,0,0,0,
0,0,0,0,0,0,0,0,0,0,0,0,0,0,0,0,0,0,0,0,0,0,0,0,0,0,0,0,0,0,0,0,0,0,0,0,0,0,0,0,0,0,0,0,0,0,0,0,0,0,0,0,0,0,0,0,0,0,0,0,0,0,0,0,0,0,0,0,0,0,0,0,0,0,0,0,0,0,0,0,0,0,0,0,0,0,0,0,0,0,0,0,0,0,0,0,0,0,0,0,
0,0,0,0,0,0,0,0,0,0,0,0,0,0,0,0,0,0,0,0,0,0,0,0,0,0,0,0,0,0,0,0,0,0,0,0,0,0,0,0,0,0,0,0,0,0,0,0,0,0,0,0,0,0,0,0,0,0,0,0,0,0,0,0,0,0,0,0,0,0,0,0,0,0,0,0,0,0,0,0,0,0,0,0,0,0,0,0,0,0,0,0,0,0,0,0,0,0,0,0,
0,0,0,0,0,0,0,0,0,0,0,0,0,0,0,0,0,0,0,0,0,0,0,0,0,0,0,0,0,0,0,0,0,0,0,0,0,0,0,0,0,0,0,0,0,0,0,0,0,0,0,0,0,0,0,0,0,0,0,0,0,0,0,0,0,0,0,0,0,0,0,0,0,0,0,0,0,0,0,0,0,0,0,0,0,0,0,0,0,0,0,0,0,0,0,0,0,0,0,0,
0,0,0,0,0,0,0,0,0,0,0,0,0,0,0,0,0,0,0,0,0,0,0,0,0,0,0,0,0,0,0,0,0,0,0,0,0,0,0,0,0,0,0,0,0,0,0,0,0,0,0,0,0,0,0,0,0,0,0,0,0,0,0,0,0,0,0,0,0,0,0,0,0,0,0,0,0,0,0,0,0,0,0,0,0,0,0,0,0,0,0,0,0,0,0,0,0,0,0,0,
0,0,0,0,0,0,0,0,0,0,0,0,0,0,0,0,0,0,0,0,0,0,0,0,0,0,0,0,0,0,0,0,0,0,0,0,0,0,0,0,0,0,0,0,0,0,0,0,0,0,0,0,0,0,0,0,0,0,0,0,0,0,0,0,0,0,0,0,0,0,0,0,0,0,0,0,0,0,0,0,0,0,0,0,0,0,0,0,0,0,0,0,0,0,0,0,0,0,0,0,
0,0,0,0,0,0,0,0,0,0,0,0,0,0,0,0,0,0,0,0,0,0,0,0,0,0,0,0,0,0,0,0,0,0,0,0,0,0,0,0,0,0,0,0,0,0,0,0,0,0,0,0,0,0,0,0,0,0,0,0,0,0,0,0,0,0,0,0,0,0,0,0,0,0,0,0,0,0,0,0,0,0,0,0,0,0,0,0,0,0,0,0,0,0,0,0,0,0,0,0,
0,0,0,0,0,0,0,0,0,0,0,0,0,0,0,0,0,0,0,0,0,0,0,0,0,0,0,0,0,0,0,0,0,0,0,0,0,0,0,0,0,0,0,0,0,0,0,0,0,0,0,0,0,0,0,0,0,0,0,0,0,0,0,0,0,0,0,0,0,0,0,0,0,0,0,0,0,0,0,0,0,0,0,0,0,0,0,0,0,0,0,0,0,0,0,0,0,0,0,0,
0,0,0,0,0,0,0,0,0,0,0,0,0,0,0,0,0,0,0,0,0,0,0,0,0,0,0,0,0,0,0,0,0,0,0,0,0,0,0,0,0,0,0,0,0,0,0,0,0,0,0,0,0,0,0,0,0,0,0,0,0,0,0,0,0,0,0,0,0,0,0,0,0,0,0,0,0,0,0,0,0,0,0,0,0,0,0,0,0,0,0,0,0,0,0,0,0,0,0,0,
0,0,0,0,0,0,0,0,0,0,0,0,0,0,0,0,0,0,0,0,0,0,0,0,0,0,0,0,0,0,0,0,0,0,0,0,0,0,0,0,0,0,0,0,0,0,0,0,0,0,0,0,0,0,0,0,0,0,0,0,0,0,0,0,0,0,0,0,0,0,0,0,0,0,0,0,0,0,0,0,0,0,0,0,0,0,0,0,0,0,0,0,0,0,0,0,0,0,0,0,
0,0,0,0,0,0,0,0,0,0,0,0,0,0,0,0,0,0,0,0,0,0,0,0,0,0,0,0,0,0,0,0,0,0,0,0,0,0,0,0,0,0,0,0,0,0,0,0,0,0,0,0,0,0,0,0,0,0,0,0,0,0,0,0,0,0,0,0,0,0,0,0,0,0,0,0,0,0,0,0,0,0,0,0,0,0,0,0,0,0,0,0,0,0,0,0,0,0,0,0,
0,0,0,0,0,0,0,0,0,0,0,0,0,0,0,0,0,0,0,0,0,0,0,0,0,0,0,0,0,0,0,0,0,0,0,0,0,0,0,0,0,0,0,0,0,0,0,0,0,0,0,0,0,0,0,0,0,0,0,0,0,0,0,0,0,0,0,0,0,0,0,0,0,0,0,0,0,0,0,0,0,0,0,0,0,0,0,0,0,0,0,0,0,0,0,0,0,0,0,0,
0,0,0,0,0,0,0,0,0,0,0,0,0,0,0,0,0,0,0,0,0,0,0,0,0,0,0,0,0,0,0,0,0,0,0,0,0,0,0,0,0,0,0,0,0,0,0,0,0,0,0,0,0,0,0,0,0,0,0,0,0,0,0,0,0,0,0,0,0,0,0,0,0,0,0,0,0,0,0,0,0,0,0,0,0,0,0,0,0,0,0,0,0,0,0,0,0,0,0,0,
0,0,0,0,0,0,0,0,0,0,0,0,0,0,0,0,0,0,0,0,0,0,0,0,0,0,0,0,0,0,0,0,0,0,0,0,0,0,0,0,0,0,0,0,0,0,0,0,0,0,0,0,0,0,0,0,0,0,0,0,0,0,0,0,0,0,0,0,0,0,0,0,0,0,0,0,0,0,0,0,0,0,0,0,0,0,0,0,0,0,0,0,0,0,0,0,0,0,0,0,
0,0,0,0,0,0,0,0,0,0,0,0,0,0,0,0,0,0,0,0,0,0,0,0,0,0,0,0,0,0,0,0,0,0,0,0,0,0,0,0,0,0,0,0,0,0,0,0,0,0,0,0,0,0,0,0,0,0,0,0,0,0,0,0,0,0,0,0,0,0,0,0,0,0,0,0,0,0,0,0,0,0,0,0,0,0,0,0,0,0,0,0,0,0,0,0,0,0,0,0,
0,0,0,0,0,0,0,0,0,0,0,0,0,0,0,0,0,0,0,0,0,0,0,0,0,0,0,0,0,0,0,0,0,0,0,0,0,0,0,0,0,0,0,0,0,0,0,0,0,0,0,0,0,0,0,0,0,0,0,0,0,0,0,0,0,0,0,0,0,0,0,0,0,0,0,0,0,0,0,0,0,0,0,0,0,0,0,0,0,0,0,0,0,0,0,0,0,0,0,0
</data>
 </layer>
 <layer id="15" name="3" width="100" height="100">
  <data encoding="csv">
0,0,0,0,0,0,0,0,0,0,0,0,0,0,0,0,0,0,0,0,0,0,0,0,0,0,0,0,0,0,0,0,0,0,0,0,0,0,0,0,0,0,0,0,0,0,0,0,0,0,0,0,0,0,0,0,0,0,0,0,0,0,0,0,0,0,0,0,0,0,0,0,0,0,0,0,0,0,0,0,0,0,0,0,0,0,0,0,0,0,0,0,0,0,0,0,0,0,0,0,
0,0,0,0,0,0,0,0,0,0,0,0,0,0,0,0,0,0,0,0,0,0,0,0,0,0,0,0,0,0,0,0,0,0,0,0,0,0,0,0,0,0,0,0,0,0,0,0,0,0,0,0,0,0,0,0,0,0,0,0,0,0,0,0,0,0,0,0,0,0,0,0,0,0,0,0,0,0,0,0,0,0,0,0,0,0,0,0,0,0,0,0,0,0,0,0,0,0,0,0,
0,0,0,0,0,0,0,0,0,0,0,0,0,0,0,0,0,0,0,0,0,0,0,0,0,0,0,0,0,0,0,0,0,0,0,0,0,0,0,0,0,0,0,0,0,0,0,0,0,0,0,0,0,0,0,0,0,0,0,0,0,0,0,0,0,0,0,0,0,0,0,0,0,0,0,0,0,0,0,0,0,0,0,0,0,0,0,0,0,0,0,0,0,0,0,0,0,0,0,0,
0,0,0,0,0,0,0,0,0,0,0,0,0,0,0,0,0,0,0,0,0,0,0,0,0,0,0,0,0,0,0,0,0,0,0,0,0,0,0,0,0,0,0,0,0,0,0,0,0,0,0,0,0,0,0,0,0,0,0,0,0,0,0,0,0,0,0,0,0,0,0,0,0,0,0,0,0,0,0,0,0,0,0,0,0,0,0,0,0,0,0,0,0,0,0,0,0,0,0,0,
0,0,0,0,0,0,0,0,0,0,0,0,0,0,0,0,0,0,0,0,0,0,0,0,0,0,0,0,0,0,0,0,0,0,0,0,0,0,0,0,0,0,0,0,0,0,0,0,0,0,0,0,0,0,0,0,0,0,0,0,0,0,0,0,0,0,0,0,0,0,0,0,0,0,0,0,0,0,0,0,0,0,0,0,0,0,0,0,0,0,0,0,0,0,0,0,0,0,0,0,
0,0,0,0,0,0,0,0,0,0,0,0,0,0,0,0,0,0,0,0,0,0,0,0,0,0,0,0,0,0,0,0,0,0,0,0,0,0,0,0,0,0,0,0,0,0,0,0,0,0,0,0,0,0,0,0,0,0,0,0,0,0,0,0,0,0,0,0,0,0,0,0,0,0,0,0,0,0,0,0,0,0,0,0,0,0,0,0,0,0,0,0,0,0,0,0,0,0,0,0,
0,0,0,0,0,0,0,0,0,0,0,0,0,0,0,0,0,0,0,0,0,0,0,0,0,0,0,0,0,0,0,0,0,0,0,0,0,0,0,0,0,0,0,0,0,0,0,0,0,0,0,0,0,0,0,0,0,0,0,0,0,0,0,0,0,0,0,0,0,0,0,0,0,0,0,0,0,0,0,0,0,0,0,0,0,0,0,0,0,0,0,0,0,0,0,0,0,0,0,0,
0,0,0,0,0,0,0,0,0,0,0,0,0,0,0,0,0,0,0,0,0,0,0,0,0,0,0,0,0,0,0,0,0,0,0,0,0,0,0,0,0,0,0,0,0,0,0,0,0,0,0,0,0,0,0,0,0,0,0,0,0,0,0,0,0,0,0,0,0,0,0,0,0,0,0,0,0,0,0,0,0,0,0,0,0,0,0,0,0,0,0,0,0,0,0,0,0,0,0,0,
0,0,0,0,0,0,0,0,0,0,0,0,0,0,0,0,0,0,0,0,0,0,0,0,0,0,0,0,0,0,0,0,0,0,0,0,0,0,0,0,0,0,0,0,0,0,0,0,0,0,0,0,0,0,0,0,0,0,0,0,0,0,0,0,0,0,0,0,0,0,0,0,0,0,0,0,0,0,0,0,0,0,0,0,0,0,0,0,0,0,0,0,0,0,0,0,0,0,0,0,
0,0,0,0,0,0,0,0,0,0,0,0,0,0,0,0,0,0,0,0,0,0,0,0,0,0,0,0,0,0,0,0,0,0,0,0,0,0,0,0,0,0,0,0,0,0,0,0,0,0,0,0,0,0,0,0,0,0,0,0,0,0,0,0,0,0,0,0,0,0,0,0,0,0,0,0,0,0,0,0,0,0,0,0,0,0,0,0,0,0,0,0,0,0,0,0,0,0,0,0,
0,0,0,0,0,0,0,0,0,0,0,0,0,0,0,0,0,0,0,0,0,0,0,0,0,0,0,0,0,0,0,0,0,0,0,0,0,0,0,0,0,0,0,0,0,0,0,0,0,0,0,0,0,0,0,0,0,0,0,0,0,0,0,0,0,0,0,0,0,0,0,0,0,0,0,0,0,0,0,0,0,0,0,0,0,0,0,0,0,0,0,0,0,0,0,0,0,0,0,0,
0,0,0,0,0,0,0,0,0,0,0,0,0,0,0,0,0,0,0,0,0,0,0,0,0,0,0,0,0,0,0,0,0,0,0,0,0,0,0,0,0,0,0,0,0,0,0,0,0,0,0,0,0,0,0,0,0,0,0,0,0,0,0,0,0,0,0,0,0,0,0,0,0,0,0,0,0,0,0,0,0,0,0,0,0,0,0,0,0,0,0,0,0,0,0,0,0,0,0,0,
0,0,0,0,0,0,0,0,0,0,0,0,0,0,0,0,0,0,0,0,0,0,0,0,0,0,0,0,0,0,0,0,0,0,0,0,0,0,0,0,0,0,0,0,0,0,0,0,0,0,0,0,0,0,0,0,0,0,0,0,0,0,0,0,0,0,0,0,0,0,0,0,0,0,0,0,0,0,0,0,0,0,0,0,0,0,0,0,0,0,0,0,0,0,0,0,0,0,0,0,
0,0,0,0,0,0,0,0,0,0,0,0,0,0,0,0,0,0,0,0,0,0,0,0,0,0,0,0,0,0,0,0,0,0,0,0,0,0,0,0,0,0,0,0,0,0,0,0,0,0,0,0,0,0,0,0,0,0,0,0,0,0,0,0,0,0,0,0,0,0,0,0,0,0,0,0,0,0,0,0,0,0,0,0,0,0,0,0,0,0,0,0,0,0,0,0,0,0,0,0,
0,0,0,0,0,0,0,0,0,0,0,0,0,0,0,0,0,0,0,0,0,0,0,0,0,0,0,0,0,0,0,0,0,0,0,0,0,0,0,0,0,0,0,0,0,0,0,0,0,0,0,0,0,0,0,0,0,0,0,0,0,0,0,0,0,0,0,0,0,0,0,0,0,0,0,0,0,0,0,0,0,0,0,0,0,0,0,0,0,0,0,0,0,0,0,0,0,0,0,0,
0,0,0,0,0,0,0,0,0,0,0,0,0,0,0,0,0,0,0,0,0,0,0,0,0,0,0,0,0,0,0,0,0,0,0,0,0,0,0,0,0,0,0,0,0,0,0,0,0,0,0,0,0,0,0,0,0,0,0,0,0,0,0,0,0,0,0,0,0,0,0,0,0,0,0,0,0,0,0,0,0,0,0,0,0,0,0,0,0,0,0,0,0,0,0,0,0,0,0,0,
0,0,0,0,0,0,0,0,0,0,0,0,0,0,0,0,0,0,0,0,0,0,0,0,0,0,0,0,0,0,0,0,0,0,0,0,0,0,0,0,0,0,0,0,0,0,0,0,0,0,0,0,0,0,0,0,0,0,0,0,0,0,0,0,0,0,0,0,0,0,0,0,0,0,0,0,0,0,0,0,0,0,0,0,0,0,0,0,0,0,0,0,0,0,0,0,0,0,0,0,
0,0,0,0,0,0,0,0,0,0,0,0,0,0,0,0,0,0,0,0,0,0,0,0,0,0,0,0,0,0,0,0,0,0,0,0,0,0,0,0,0,0,0,0,0,0,0,0,0,0,0,0,0,0,0,0,0,0,0,0,0,0,0,0,0,0,0,0,0,0,0,0,0,0,0,0,0,0,0,0,0,0,0,0,0,0,0,0,0,0,0,0,0,0,0,0,0,0,0,0,
0,0,0,0,0,0,0,0,0,0,0,0,0,0,0,0,0,0,0,0,0,0,0,0,0,0,0,0,0,0,0,0,0,0,0,0,0,0,0,0,0,0,0,0,0,0,0,0,0,0,0,0,0,0,0,0,0,0,0,0,0,0,0,0,0,0,0,0,0,0,0,0,0,0,0,0,0,0,0,0,0,0,0,0,0,0,0,0,0,0,0,0,0,0,0,0,0,0,0,0,
0,0,0,0,0,0,0,0,0,0,0,0,0,0,0,0,0,0,0,0,0,0,0,0,0,0,0,0,0,0,0,0,0,0,0,0,0,0,0,0,0,0,0,0,0,0,0,0,0,0,0,0,0,0,0,0,0,0,0,0,0,0,0,0,0,0,0,0,0,0,0,0,0,0,0,0,0,0,0,0,0,0,0,0,0,0,0,0,0,0,0,0,0,0,0,0,0,0,0,0,
0,0,0,0,0,0,0,0,0,0,0,0,0,0,0,0,0,0,0,0,0,0,0,0,0,0,0,0,0,0,0,0,0,0,0,0,0,0,0,0,0,0,0,0,0,0,0,0,0,0,0,0,0,0,0,0,0,0,0,0,0,0,0,0,0,0,0,0,0,0,0,0,0,0,0,0,0,0,0,0,0,0,0,0,0,0,0,0,0,0,0,0,0,0,0,0,0,0,0,0,
0,0,0,0,0,0,0,0,0,0,0,0,0,0,0,0,0,0,0,0,0,0,0,0,0,0,0,0,0,0,0,0,0,0,0,0,0,0,0,0,0,0,0,0,0,0,0,0,0,0,0,0,0,0,0,0,0,0,0,0,0,0,0,0,0,0,0,0,0,0,0,0,0,0,0,0,0,0,0,0,0,0,0,0,0,0,0,0,0,0,0,0,0,0,0,0,0,0,0,0,
0,0,0,0,0,0,0,0,0,0,0,0,0,0,0,0,0,0,0,0,0,0,0,0,0,0,0,0,0,0,0,0,0,0,0,0,0,0,0,0,0,0,0,0,0,0,0,0,0,0,0,0,0,0,0,0,0,0,0,0,0,0,0,0,0,0,0,0,0,0,0,0,0,0,0,0,0,0,0,0,0,0,0,0,0,0,0,0,0,0,0,0,0,0,0,0,0,0,0,0,
0,0,0,0,0,0,0,0,0,0,0,0,0,0,0,0,0,0,0,0,0,0,0,0,0,0,0,0,0,0,0,0,0,0,0,0,0,0,0,0,0,0,0,0,0,0,0,0,0,0,0,0,0,0,0,0,0,0,0,0,0,0,0,0,0,0,0,0,0,0,0,0,0,0,0,0,0,0,0,0,0,0,0,0,0,0,0,0,0,0,0,0,0,0,0,0,0,0,0,0,
0,0,0,0,0,0,0,0,0,0,0,0,0,0,0,0,0,0,0,0,0,0,0,0,0,0,0,0,0,0,0,0,0,0,0,0,0,0,0,0,0,0,0,0,0,0,0,0,0,0,0,0,0,0,0,0,0,0,0,0,0,0,0,0,0,0,0,0,0,0,0,0,0,0,0,0,0,0,0,0,0,0,0,0,0,0,0,0,0,0,0,0,0,0,0,0,0,0,0,0,
0,0,0,0,0,0,0,0,0,0,0,0,0,0,0,0,0,0,0,0,0,0,0,0,0,0,0,0,0,0,0,0,0,0,0,0,0,0,0,0,0,0,0,0,0,0,0,0,0,0,0,0,0,0,0,0,0,0,0,0,0,0,0,0,0,0,0,0,0,0,0,0,0,0,0,0,0,0,0,0,0,0,0,0,0,0,0,0,0,0,0,0,0,0,0,0,0,0,0,0,
0,0,0,0,0,0,0,0,0,0,0,0,0,0,0,0,0,0,0,0,0,0,0,0,0,0,0,0,0,0,0,0,0,0,0,0,0,0,0,0,0,0,0,0,0,0,0,0,0,0,0,0,0,0,0,0,0,0,0,0,0,0,0,0,0,0,0,0,0,0,0,0,0,0,0,0,0,0,0,0,0,0,0,0,0,0,0,0,0,0,0,0,0,0,0,0,0,0,0,0,
0,0,0,0,0,0,0,0,0,0,0,0,0,0,0,0,0,0,0,0,0,0,0,0,0,0,0,0,0,0,0,0,0,0,0,0,0,0,0,0,0,0,0,0,0,0,0,0,0,0,0,0,0,0,0,0,0,0,0,0,0,0,0,0,0,0,0,0,0,0,0,0,0,0,0,0,0,0,0,0,0,0,0,0,0,0,0,0,0,0,0,0,0,0,0,0,0,0,0,0,
0,0,0,0,0,0,0,0,0,0,0,0,0,0,0,0,0,0,0,0,0,0,0,0,0,0,0,0,0,0,0,0,0,0,0,0,0,0,0,0,0,0,0,0,0,0,0,0,0,0,0,0,0,0,0,0,0,0,0,0,0,0,0,0,0,0,0,0,0,0,0,0,0,0,0,0,0,0,0,0,0,0,0,0,0,0,0,0,0,0,0,0,0,0,0,0,0,0,0,0,
0,0,0,0,0,0,0,0,0,0,0,0,0,0,0,0,0,0,0,0,0,0,0,0,0,0,0,0,0,0,0,0,0,0,0,0,0,0,0,0,0,0,0,0,0,0,0,0,0,0,0,0,0,0,0,0,0,0,0,0,0,0,0,0,0,0,0,0,0,0,0,0,0,0,0,0,0,0,0,0,0,0,0,0,0,0,0,0,0,0,0,0,0,0,0,0,0,0,0,0,
0,0,0,0,0,0,0,0,0,0,0,0,0,0,0,0,0,0,0,0,0,0,0,0,0,0,0,0,0,0,0,0,0,0,0,0,0,0,0,0,0,0,0,0,0,0,0,0,0,0,0,0,0,0,0,0,0,0,0,0,0,0,0,0,0,0,0,0,0,0,0,0,0,0,0,0,0,0,0,0,0,0,0,0,0,0,0,0,0,0,0,0,0,0,0,0,0,0,0,0,
0,0,0,0,0,0,0,0,0,0,0,0,0,0,0,0,0,0,0,0,0,0,0,0,0,0,0,0,0,0,0,0,0,0,0,0,0,0,0,0,0,0,0,0,0,0,0,0,0,0,0,0,0,0,0,0,0,0,0,0,0,0,0,0,0,0,0,0,0,0,0,0,0,0,0,0,0,0,0,0,0,0,0,0,0,0,0,0,0,0,0,0,0,0,0,0,0,0,0,0,
0,0,0,0,0,0,0,0,0,0,0,0,0,0,0,0,0,0,0,0,0,0,0,0,0,0,0,0,0,0,0,0,0,0,0,0,0,0,0,0,0,0,0,0,0,0,0,0,0,0,0,0,0,0,0,0,0,0,0,0,0,0,0,0,0,0,0,0,0,0,0,0,0,0,0,0,0,0,0,0,0,0,0,0,0,0,0,0,0,0,0,0,0,0,0,0,0,0,0,0,
0,0,0,0,0,0,0,0,0,0,0,0,0,0,0,0,0,0,0,0,0,0,0,0,0,0,0,0,0,0,0,0,0,0,0,0,0,0,0,0,0,0,0,0,0,0,0,0,0,0,0,0,0,0,0,0,0,0,0,0,0,0,0,0,0,0,0,0,0,0,0,0,0,0,0,0,0,0,0,0,0,0,0,0,0,0,0,0,0,0,0,0,0,0,0,0,0,0,0,0,
0,0,0,0,0,0,0,0,0,0,0,0,0,0,0,0,0,0,0,0,0,0,0,0,0,0,0,0,0,0,0,0,0,0,0,0,0,0,0,0,0,0,0,0,0,0,0,0,0,0,0,0,0,0,0,0,0,0,0,0,0,0,0,0,0,0,0,0,0,0,0,0,0,0,0,0,0,0,0,0,0,0,0,0,0,0,0,0,0,0,0,0,0,0,0,0,0,0,0,0,
0,0,0,0,0,0,0,0,0,0,0,0,0,0,0,0,0,0,0,0,0,0,0,0,0,0,0,0,0,0,0,0,0,0,0,0,0,0,0,0,0,0,0,0,0,0,0,0,0,0,0,0,0,0,0,0,0,0,0,0,0,0,0,0,0,0,0,0,0,0,0,0,0,0,0,0,0,0,0,0,0,0,0,0,0,0,0,0,0,0,0,0,0,0,0,0,0,0,0,0,
0,0,0,0,0,0,0,0,0,0,0,0,0,0,0,0,0,0,0,0,0,0,0,0,0,0,0,0,0,0,0,0,0,0,0,0,0,0,0,0,0,0,0,0,0,0,0,0,0,0,0,0,0,0,0,0,0,0,0,0,0,0,0,0,0,0,0,0,0,0,0,0,0,0,0,0,0,0,0,0,0,0,0,0,0,0,0,0,0,0,0,0,0,0,0,0,0,0,0,0,
0,0,0,0,0,0,0,0,0,0,0,0,0,0,0,0,0,0,0,0,0,0,0,0,0,0,0,0,0,0,0,0,0,0,0,0,0,0,0,0,0,0,0,0,0,0,0,0,0,0,0,0,0,0,0,0,0,0,0,0,0,0,0,0,0,0,0,0,0,0,0,0,0,0,0,0,0,0,0,0,0,0,0,0,0,0,0,0,0,0,0,0,0,0,0,0,0,0,0,0,
0,0,0,0,0,0,0,0,0,0,0,0,0,0,0,0,0,0,0,0,0,0,0,0,0,0,0,0,0,0,0,0,0,0,0,0,0,0,0,0,0,0,0,0,0,0,0,0,0,0,0,0,0,0,0,0,0,0,0,0,0,0,0,0,0,0,0,0,0,0,0,0,0,0,0,0,0,0,0,0,0,0,0,0,0,0,0,0,0,0,0,0,0,0,0,0,0,0,0,0,
0,0,0,0,0,0,0,0,0,0,0,0,0,0,0,0,0,0,0,0,0,0,0,0,0,0,0,0,0,0,0,0,0,0,0,0,0,0,0,0,0,0,0,0,0,0,0,0,0,0,0,0,0,0,0,0,0,0,0,0,0,0,0,0,0,0,0,0,0,0,0,0,0,0,0,0,0,0,0,0,0,0,0,0,0,0,0,0,0,0,0,0,0,0,0,0,0,0,0,0,
0,0,0,0,0,0,0,0,0,0,0,0,0,0,0,0,0,0,0,0,0,0,0,0,0,0,0,0,0,0,0,0,0,0,0,0,0,0,0,0,0,0,0,0,0,0,0,0,0,0,0,0,0,0,0,0,0,0,0,0,0,0,0,0,0,0,0,0,0,0,0,0,0,0,0,0,0,0,0,0,0,0,0,0,0,0,0,0,0,0,0,0,0,0,0,0,0,0,0,0,
0,0,0,0,0,0,0,0,0,0,0,0,0,0,0,0,0,0,0,0,0,0,0,0,0,0,0,0,0,0,0,0,0,0,0,0,0,0,0,0,0,0,0,0,0,0,0,0,0,0,0,0,0,0,0,0,0,0,0,0,0,0,0,0,0,0,0,0,0,0,0,0,0,0,0,0,0,0,0,0,0,0,0,0,0,0,0,0,0,0,0,0,0,0,0,0,0,0,0,0,
0,0,0,0,0,0,0,0,0,0,0,0,0,0,0,0,0,0,0,0,0,0,0,0,0,0,0,0,0,0,0,0,0,0,0,0,0,0,0,0,0,0,0,0,0,0,0,0,0,0,0,0,0,0,0,0,0,0,0,0,0,0,0,0,0,0,0,0,0,0,0,0,0,0,0,0,0,0,0,0,0,0,0,0,0,0,0,0,0,0,0,0,0,0,0,0,0,0,0,0,
0,0,0,0,0,0,0,0,0,0,0,0,0,0,0,0,0,0,0,0,0,0,0,0,0,0,0,0,0,0,0,0,0,0,0,0,0,0,0,0,0,0,0,0,0,0,0,0,0,0,0,0,0,0,0,0,0,0,0,0,0,0,0,0,0,0,0,0,0,0,0,0,0,0,0,0,0,0,0,0,0,0,0,0,0,0,0,0,0,0,0,0,0,0,0,0,0,0,0,0,
0,0,0,0,0,0,0,0,0,0,0,0,0,0,0,0,0,0,0,0,0,0,0,0,0,0,0,0,0,0,0,0,0,0,0,0,0,0,0,0,0,0,0,0,0,0,0,0,0,0,0,0,0,0,0,0,0,0,0,0,0,0,0,0,0,0,0,0,0,0,0,0,0,0,0,0,0,0,0,0,0,0,0,0,0,0,0,0,0,0,0,0,0,0,0,0,0,0,0,0,
0,0,0,0,0,0,0,0,0,0,0,0,0,0,0,0,0,0,0,0,0,0,0,0,0,0,0,0,0,0,0,0,0,0,0,0,0,0,0,0,0,0,0,0,0,0,0,0,0,0,0,0,0,0,0,0,0,0,0,0,0,0,0,0,0,0,0,0,0,0,0,0,0,0,0,0,0,0,0,0,0,0,0,0,0,0,0,0,0,0,0,0,0,0,0,0,0,0,0,0,
0,0,0,0,0,0,0,0,0,0,0,0,0,0,0,0,0,0,0,0,0,0,0,0,0,0,0,0,0,0,0,0,0,0,0,0,0,0,0,0,0,0,0,0,0,0,0,0,0,0,0,0,0,0,0,0,0,0,0,0,0,0,0,0,0,0,0,0,0,0,0,0,0,0,0,0,0,0,0,0,0,0,0,0,0,0,0,0,0,0,0,0,0,0,0,0,0,0,0,0,
0,0,0,0,0,0,0,0,0,0,0,0,0,0,0,0,0,0,0,0,0,0,0,0,0,0,0,0,0,0,0,0,0,0,0,0,0,0,0,0,0,0,0,0,0,0,0,0,0,0,0,0,0,0,0,0,0,0,0,0,0,0,0,0,0,0,0,0,0,0,0,0,0,0,0,0,0,0,0,0,0,0,0,0,0,0,0,0,0,0,0,0,0,0,0,0,0,0,0,0,
0,0,0,0,0,0,0,0,0,0,0,0,0,0,0,0,0,0,0,0,0,0,0,0,0,0,0,0,0,0,0,0,0,0,0,0,0,0,0,0,0,0,0,0,0,0,0,0,0,0,0,0,0,0,0,0,0,0,0,0,0,0,0,0,0,0,0,0,0,0,0,0,0,0,0,0,0,0,0,0,0,0,0,0,0,0,0,0,0,0,0,0,0,0,0,0,0,0,0,0,
0,0,0,0,0,0,0,0,0,0,0,0,0,0,0,0,0,0,0,0,0,0,0,0,0,0,0,0,0,0,0,0,0,0,0,0,0,0,0,0,0,0,0,0,0,0,0,0,0,0,0,0,0,0,0,0,0,0,0,0,0,0,0,0,0,0,0,0,0,0,0,0,0,0,0,0,0,0,0,0,0,0,0,0,0,0,0,0,0,0,0,0,0,0,0,0,0,0,0,0,
0,0,0,0,0,0,0,0,0,0,0,0,0,0,0,0,0,0,0,0,0,0,0,0,0,0,0,0,0,0,0,0,0,0,0,0,0,0,0,0,0,0,0,0,0,0,0,0,0,0,0,0,0,0,0,0,0,0,0,0,0,0,0,0,0,0,0,0,0,0,0,0,0,0,0,0,0,0,0,0,0,0,0,0,0,0,0,0,0,0,0,0,0,0,0,0,0,0,0,0,
0,0,0,0,0,0,0,0,0,0,0,0,0,0,0,0,0,0,0,0,0,0,0,0,0,0,0,0,0,0,0,0,0,0,0,0,0,0,0,0,0,0,0,0,0,0,0,0,0,0,0,0,0,0,0,0,0,0,0,0,0,0,0,0,0,0,0,0,0,0,0,0,0,0,0,0,0,0,0,0,0,0,0,0,0,0,0,0,0,0,0,0,0,0,0,0,0,0,0,0,
0,0,0,0,0,0,0,0,0,0,0,0,0,0,0,0,0,0,0,0,0,0,0,0,0,0,0,0,0,0,0,0,0,0,0,0,0,0,0,0,0,0,0,0,0,0,0,0,0,0,0,0,0,0,0,0,0,0,0,0,0,0,0,0,0,0,0,0,0,0,0,0,0,0,0,0,0,0,0,0,0,0,0,0,0,0,0,0,0,0,0,0,0,0,0,0,0,0,0,0,
0,0,0,0,0,0,0,0,0,0,0,0,0,0,0,0,0,0,0,0,0,0,0,0,0,0,0,0,0,0,0,0,0,0,0,0,0,0,0,0,0,0,0,0,0,0,0,0,0,0,0,0,0,0,0,0,0,0,0,0,0,0,0,0,0,0,0,0,0,0,0,0,0,0,0,0,0,0,0,0,0,0,0,0,0,0,0,0,0,0,0,0,0,0,0,0,0,0,0,0,
0,0,0,0,0,0,0,0,0,0,0,0,0,0,0,0,0,0,0,0,0,0,0,0,0,0,0,0,0,0,0,0,0,0,0,0,0,0,0,0,0,0,0,0,0,0,0,0,0,0,0,0,0,0,0,0,0,0,0,0,0,0,0,0,0,0,0,0,0,0,0,0,0,0,0,0,0,0,0,0,0,0,0,0,0,0,0,0,0,0,0,0,0,0,0,0,0,0,0,0,
0,0,0,0,0,0,0,0,0,0,0,0,0,0,0,0,0,0,0,0,0,0,0,0,0,0,0,0,0,0,0,0,0,0,0,0,0,0,0,0,0,0,0,0,0,0,0,0,0,0,0,0,0,0,0,0,0,0,0,0,0,0,0,0,0,0,0,0,0,0,0,0,0,0,0,0,0,0,0,0,0,0,0,0,0,0,0,0,0,0,0,0,0,0,0,0,0,0,0,0,
0,0,0,0,0,0,0,0,0,0,0,0,0,0,0,0,0,0,0,0,0,0,0,0,0,0,0,0,0,0,0,0,0,0,0,0,0,0,0,0,0,0,0,0,0,0,0,0,0,0,0,0,0,0,0,0,0,0,0,0,0,0,0,0,0,0,0,0,0,0,0,0,0,0,0,0,0,0,0,0,0,0,0,0,0,0,0,0,0,0,0,0,0,0,0,0,0,0,0,0,
0,0,0,0,0,0,0,0,0,0,0,0,0,0,0,0,0,0,0,0,0,0,0,0,0,0,0,0,0,0,0,0,0,0,0,0,0,0,0,0,0,0,0,0,0,0,0,0,0,0,0,0,0,0,0,0,0,0,0,0,0,0,0,0,0,0,0,0,0,0,0,0,0,0,0,0,0,0,0,0,0,0,0,0,0,0,0,0,0,0,0,0,0,0,0,0,0,0,0,0,
0,0,0,0,0,0,0,0,0,0,0,0,0,0,0,0,0,0,0,0,0,0,0,0,0,0,0,0,0,0,0,0,0,0,0,0,0,0,0,0,0,0,0,0,0,0,0,0,0,0,0,0,0,0,0,0,0,0,0,0,0,0,0,0,0,0,0,0,0,0,0,0,0,0,0,0,0,0,0,0,0,0,0,0,0,0,0,0,0,0,0,0,0,0,0,0,0,0,0,0,
0,0,0,0,0,0,0,0,0,0,0,0,0,0,0,0,0,0,0,0,0,0,0,0,0,0,0,0,0,0,0,0,0,0,0,0,0,0,0,0,0,0,0,0,0,0,0,0,0,0,0,0,0,0,0,0,0,0,0,0,0,0,0,0,0,0,0,0,0,0,0,0,0,0,0,0,0,0,0,0,0,0,0,0,0,0,0,0,0,0,0,0,0,0,0,0,0,0,0,0,
0,0,0,0,0,0,0,0,0,0,0,0,0,0,0,0,0,0,0,0,0,0,0,0,0,0,0,0,0,0,0,0,0,0,0,0,0,0,0,0,0,0,0,0,0,0,0,0,0,0,0,0,0,0,0,0,0,0,0,0,0,0,0,0,0,0,0,0,0,0,0,0,0,0,0,0,0,0,0,0,0,0,0,0,0,0,0,0,0,0,0,0,0,0,0,0,0,0,0,0,
0,0,0,0,0,0,0,0,0,0,0,0,0,0,0,0,0,0,0,0,0,0,0,0,0,0,0,0,0,0,0,0,0,0,0,0,0,0,0,0,0,0,0,0,0,0,0,0,0,0,0,0,0,0,0,0,0,0,0,0,0,0,0,0,0,0,0,0,0,0,0,0,0,0,0,0,0,0,0,0,0,0,0,0,0,0,0,0,0,0,0,0,0,0,0,0,0,0,0,0,
0,0,0,0,0,0,0,0,0,0,0,0,0,0,0,0,0,0,0,0,0,0,0,0,0,0,0,0,0,0,0,0,0,0,0,0,0,0,0,0,0,0,0,0,0,0,0,0,0,0,0,0,0,0,0,0,0,0,0,0,0,0,0,0,0,0,0,0,0,0,0,0,0,0,0,0,0,0,0,0,0,0,0,0,0,0,0,0,0,0,0,0,0,0,0,0,0,0,0,0,
0,0,0,0,0,0,0,0,0,0,0,0,0,0,0,0,0,0,0,0,0,0,0,0,0,0,0,0,0,0,0,0,0,0,0,0,0,0,0,0,0,0,0,0,0,0,0,0,0,0,0,0,0,0,0,0,0,0,0,0,0,0,0,0,0,0,0,0,0,0,0,0,0,0,0,0,0,0,0,0,0,0,0,0,0,0,0,0,0,0,0,0,0,0,0,0,0,0,0,0,
0,0,0,0,0,0,0,0,0,0,0,0,0,0,0,0,0,0,0,0,0,0,0,0,0,0,0,0,0,0,0,0,0,0,0,0,0,0,0,0,0,0,0,0,0,0,0,0,0,0,0,0,0,0,0,0,0,0,0,0,0,0,0,0,0,0,0,0,0,0,0,0,0,0,0,0,0,0,0,0,0,0,0,0,0,0,0,0,0,0,0,0,0,0,0,0,0,0,0,0,
0,0,0,0,0,0,0,0,0,0,0,0,0,0,0,0,0,0,0,0,0,0,0,0,0,0,0,0,0,0,0,0,0,0,0,0,0,0,0,0,0,0,0,0,0,0,0,0,0,0,0,0,0,0,0,0,0,0,0,0,0,0,0,0,0,0,0,0,0,0,0,0,0,0,0,0,0,0,0,0,0,0,0,0,0,0,0,0,0,0,0,0,0,0,0,0,0,0,0,0,
0,0,0,0,0,0,0,0,0,0,0,0,0,0,0,0,0,0,0,0,0,0,0,0,0,0,0,0,0,0,0,0,0,0,0,0,0,0,0,0,0,0,0,0,0,0,0,0,0,0,0,0,0,0,0,0,0,0,0,0,0,0,0,0,0,0,0,0,0,0,0,0,0,0,0,0,0,0,0,0,0,0,0,0,0,0,0,0,0,0,0,0,0,0,0,0,0,0,0,0,
0,0,0,0,0,0,0,0,0,0,0,0,0,0,0,0,0,0,0,0,0,0,0,0,0,0,0,0,0,0,0,0,0,0,0,0,0,0,0,0,0,0,0,0,0,0,0,0,0,0,0,0,0,0,0,0,0,0,0,0,0,0,0,0,0,0,0,0,0,0,0,0,0,0,0,0,0,0,0,0,0,0,0,0,0,0,0,0,0,0,0,0,0,0,0,0,0,0,0,0,
0,0,0,0,0,0,0,0,0,0,0,0,0,0,0,0,0,0,0,0,0,0,0,0,0,0,0,0,0,0,0,0,0,0,0,0,0,0,0,0,0,0,0,0,0,0,0,0,0,0,0,0,0,0,0,0,0,0,0,0,0,0,0,0,0,0,0,0,0,0,0,0,0,0,0,0,0,0,0,0,0,0,0,0,0,0,0,0,0,0,0,0,0,0,0,0,0,0,0,0,
0,0,0,0,0,0,0,0,0,0,0,0,0,0,0,0,0,0,0,0,0,0,0,0,0,0,0,0,0,0,0,0,0,0,0,0,0,0,0,0,0,0,0,0,0,0,0,0,0,0,0,0,0,0,0,0,0,0,0,0,0,0,0,0,0,0,0,0,0,0,0,0,0,0,0,0,0,0,0,0,0,0,0,0,0,0,0,0,0,0,0,0,0,0,0,0,0,0,0,0,
0,0,0,0,0,0,0,0,0,0,0,0,0,0,0,0,0,0,0,0,0,0,0,0,0,0,0,0,0,0,0,0,0,0,0,0,0,0,0,0,0,0,0,0,0,0,0,0,0,0,0,0,0,0,0,0,0,0,0,0,0,0,0,0,0,0,0,0,0,0,0,0,0,0,0,0,0,0,0,0,0,0,0,0,0,0,0,0,0,0,0,0,0,0,0,0,0,0,0,0,
0,0,0,0,0,0,0,0,0,0,0,0,0,0,0,0,0,0,0,0,0,0,0,0,0,0,0,0,0,0,0,0,0,0,0,0,0,0,0,0,0,0,0,0,0,0,0,0,0,0,0,0,0,0,0,0,0,0,0,0,0,0,0,0,0,0,0,0,0,0,0,0,0,0,0,0,0,0,0,0,0,0,0,0,0,0,0,0,0,0,0,0,0,0,0,0,0,0,0,0,
0,0,0,0,0,0,0,0,0,0,0,0,0,0,0,0,0,0,0,0,0,0,0,0,0,0,0,0,0,0,0,0,0,0,0,0,0,0,0,0,0,0,0,0,0,0,0,0,0,0,0,0,0,0,0,0,0,0,0,0,0,0,0,0,0,0,0,0,0,0,0,0,0,0,0,0,0,0,0,0,0,0,0,0,0,0,0,0,0,0,0,0,0,0,0,0,0,0,0,0,
0,0,0,0,0,0,0,0,0,0,0,0,0,0,0,0,0,0,0,0,0,0,0,0,0,0,0,0,0,0,0,0,0,0,0,0,0,0,0,0,0,0,0,0,0,0,0,0,0,0,0,0,0,0,0,0,0,0,0,0,0,0,0,0,0,0,0,0,0,0,0,0,0,0,0,0,0,0,0,0,0,0,0,0,0,0,0,0,0,0,0,0,0,0,0,0,0,0,0,0,
0,0,0,0,0,0,0,0,0,0,0,0,0,0,0,0,0,0,0,0,0,0,0,0,0,0,0,0,0,0,0,0,0,0,0,0,0,0,0,0,0,0,0,0,0,0,0,0,0,0,0,0,0,0,0,0,0,0,0,0,0,0,0,0,0,0,0,0,0,0,0,0,0,0,0,0,0,0,0,0,0,0,0,0,0,0,0,0,0,0,0,0,0,0,0,0,0,0,0,0,
0,0,0,0,0,0,0,0,0,0,0,0,0,0,0,0,0,0,0,0,0,0,0,0,0,0,0,0,0,0,0,0,0,0,0,0,0,0,0,0,0,0,0,0,0,0,0,0,0,0,0,0,0,0,0,0,0,0,0,0,0,0,0,0,0,0,0,0,0,0,0,0,0,0,0,0,0,0,0,0,0,0,0,0,0,0,0,0,0,0,0,0,0,0,0,0,0,0,0,0,
0,0,0,0,0,0,0,0,0,0,0,0,0,0,0,0,0,0,0,0,0,0,0,0,0,0,0,0,0,0,0,0,0,0,0,0,0,0,0,0,0,0,0,0,0,0,0,0,0,0,0,0,0,0,0,0,0,0,0,0,0,0,0,0,0,0,0,0,0,0,0,0,0,0,0,0,0,0,0,0,0,0,0,0,0,0,0,0,0,0,0,0,0,0,0,0,0,0,0,0,
0,0,0,0,0,0,0,0,0,0,0,0,0,0,0,0,0,0,0,0,0,0,0,0,0,0,0,0,0,0,0,0,0,0,0,0,0,0,0,0,0,0,0,0,0,0,0,0,0,0,0,0,0,0,0,0,0,0,0,0,0,0,0,0,0,0,0,0,0,0,0,0,0,0,0,0,0,0,0,0,0,0,0,0,0,0,0,0,0,0,0,0,0,0,0,0,0,0,0,0,
0,0,0,0,0,0,0,0,0,0,0,0,0,0,0,0,0,0,0,0,0,0,0,0,0,0,0,0,0,0,0,0,0,0,0,0,0,0,0,0,0,0,0,0,0,0,0,0,0,0,0,0,0,0,0,0,0,0,0,0,0,0,0,0,0,0,0,0,0,0,0,0,0,0,0,0,0,0,0,0,0,0,0,0,0,0,0,0,0,0,0,0,0,0,0,0,0,0,0,0,
0,0,0,0,0,0,0,0,0,0,0,0,0,0,0,0,0,0,0,0,0,0,0,0,0,0,0,0,0,0,0,0,0,0,0,0,0,0,0,0,0,0,0,0,0,0,0,0,0,0,0,0,0,0,0,0,0,0,0,0,0,0,0,0,0,0,0,0,0,0,0,0,0,0,0,0,0,0,0,0,0,0,0,0,0,0,0,0,0,0,0,0,0,0,0,0,0,0,0,0,
0,0,0,0,0,0,0,0,0,0,0,0,0,0,0,0,0,0,0,0,0,0,0,0,0,0,0,0,0,0,0,0,0,0,0,0,0,0,0,0,0,0,0,0,0,0,0,0,0,0,0,0,0,0,0,0,0,0,0,0,0,0,0,0,0,0,0,0,0,0,0,0,0,0,0,0,0,0,0,0,0,0,0,0,0,0,0,0,0,0,0,0,0,0,0,0,0,0,0,0,
0,0,0,0,0,0,0,0,0,0,0,0,0,0,0,0,0,0,0,0,0,0,0,0,0,0,0,0,0,0,0,0,0,0,0,0,0,0,0,0,0,0,0,0,0,0,0,0,0,0,0,0,0,0,0,0,0,0,0,0,0,0,0,0,0,0,0,0,0,0,0,0,0,0,0,0,0,0,0,0,0,0,0,0,0,0,0,0,0,0,0,0,0,0,0,0,0,0,0,0,
0,0,0,0,0,0,0,0,0,0,0,0,0,0,0,0,0,0,0,0,0,0,0,0,0,0,0,0,0,0,0,0,0,0,0,0,0,0,0,0,0,0,0,0,0,0,0,0,0,0,0,0,0,0,0,0,0,0,0,0,0,0,0,0,0,0,0,0,0,0,0,0,0,0,0,0,0,0,0,0,0,0,0,0,0,0,0,0,0,0,0,0,0,0,0,0,0,0,0,0,
0,0,0,0,0,0,0,0,0,0,0,0,0,0,0,0,0,0,0,0,0,0,0,0,0,0,0,0,0,0,0,0,0,0,0,0,0,0,0,0,0,0,0,0,0,0,0,0,0,0,0,0,0,0,0,0,0,0,0,0,0,0,0,0,0,0,0,0,0,0,0,0,0,0,0,0,0,0,0,0,0,0,0,0,0,0,0,0,0,0,0,0,0,0,0,0,0,0,0,0,
0,0,0,0,0,0,0,0,0,0,0,0,0,0,0,0,0,0,0,0,0,0,0,0,0,0,0,0,0,0,0,0,0,0,0,0,0,0,0,0,0,0,0,0,0,0,0,0,0,0,0,0,0,0,0,0,0,0,0,0,0,0,0,0,0,0,0,0,0,0,0,0,0,0,0,0,0,0,0,0,0,0,0,0,0,0,0,0,0,0,0,0,0,0,0,0,0,0,0,0,
0,0,0,0,0,0,0,0,0,0,0,0,0,0,0,0,0,0,0,0,0,0,0,0,0,0,0,0,0,0,0,0,0,0,0,0,0,0,0,0,0,0,0,0,0,0,0,0,0,0,0,0,0,0,0,0,0,0,0,0,0,0,0,0,0,0,0,0,0,0,0,0,0,0,0,0,0,0,0,0,0,0,0,0,0,0,0,0,0,0,0,0,0,0,0,0,0,0,0,0,
0,0,0,0,0,0,0,0,0,0,0,0,0,0,0,0,0,0,0,0,0,0,0,0,0,0,0,0,0,0,0,0,0,0,0,0,0,0,0,0,0,0,0,0,0,0,0,0,0,0,0,0,0,0,0,0,0,0,0,0,0,0,0,0,0,0,0,0,0,0,0,0,0,0,0,0,0,0,0,0,0,0,0,0,0,0,0,0,0,0,0,0,0,0,0,0,0,0,0,0,
0,0,0,0,0,0,0,0,0,0,0,0,0,0,0,0,0,0,0,0,0,0,0,0,0,0,0,0,0,0,0,0,0,0,0,0,0,0,0,0,0,0,0,0,0,0,0,0,0,0,0,0,0,0,0,0,0,0,0,0,0,0,0,0,0,0,0,0,0,0,0,0,0,0,0,0,0,0,0,0,0,0,0,0,0,0,0,0,0,0,0,0,0,0,0,0,0,0,0,0,
0,0,0,0,0,0,0,0,0,0,0,0,0,0,0,0,0,0,0,0,0,0,0,0,0,0,0,0,0,0,0,0,0,0,0,0,0,0,0,0,0,0,0,0,0,0,0,0,0,0,0,0,0,0,0,0,0,0,0,0,0,0,0,0,0,0,0,0,0,0,0,0,0,0,0,0,0,0,0,0,0,0,0,0,0,0,0,0,0,0,0,0,0,0,0,0,0,0,0,0,
0,0,0,0,0,0,0,0,0,0,0,0,0,0,0,0,0,0,0,0,0,0,0,0,0,0,0,0,0,0,0,0,0,0,0,0,0,0,0,0,0,0,0,0,0,0,0,0,0,0,0,0,0,0,0,0,0,0,0,0,0,0,0,0,0,0,0,0,0,0,0,0,0,0,0,0,0,0,0,0,0,0,0,0,0,0,0,0,0,0,0,0,0,0,0,0,0,0,0,0,
0,0,0,0,0,0,0,0,0,0,0,0,0,0,0,0,0,0,0,0,0,0,0,0,0,0,0,0,0,0,0,0,0,0,0,0,0,0,0,0,0,0,0,0,0,0,0,0,0,0,0,0,0,0,0,0,0,0,0,0,0,0,0,0,0,0,0,0,0,0,0,0,0,0,0,0,0,0,0,0,0,0,0,0,0,0,0,0,0,0,0,0,0,0,0,0,0,0,0,0,
0,0,0,0,0,0,0,0,0,0,0,0,0,0,0,0,0,0,0,0,0,0,0,0,0,0,0,0,0,0,0,0,0,0,0,0,0,0,0,0,0,0,0,0,0,0,0,0,0,0,0,0,0,0,0,0,0,0,0,0,0,0,0,0,0,0,0,0,0,0,0,0,0,0,0,0,0,0,0,0,0,0,0,0,0,0,0,0,0,0,0,0,0,0,0,0,0,0,0,0,
0,0,0,0,0,0,0,0,0,0,0,0,0,0,0,0,0,0,0,0,0,0,0,0,0,0,0,0,0,0,0,0,0,0,0,0,0,0,0,0,0,0,0,0,0,0,0,0,0,0,0,0,0,0,0,0,0,0,0,0,0,0,0,0,0,0,0,0,0,0,0,0,0,0,0,0,0,0,0,0,0,0,0,0,0,0,0,0,0,0,0,0,0,0,0,0,0,0,0,0,
0,0,0,0,0,0,0,0,0,0,0,0,0,0,0,0,0,0,0,0,0,0,0,0,0,0,0,0,0,0,0,0,0,0,0,0,0,0,0,0,0,0,0,0,0,0,0,0,0,0,0,0,0,0,0,0,0,0,0,0,0,0,0,0,0,0,0,0,0,0,0,0,0,0,0,0,0,0,0,0,0,0,0,0,0,0,0,0,0,0,0,0,0,0,0,0,0,0,0,0,
0,0,0,0,0,0,0,0,0,0,0,0,0,0,0,0,0,0,0,0,0,0,0,0,0,0,0,0,0,0,0,0,0,0,0,0,0,0,0,0,0,0,0,0,0,0,0,0,0,0,0,0,0,0,0,0,0,0,0,0,0,0,0,0,0,0,0,0,0,0,0,0,0,0,0,0,0,0,0,0,0,0,0,0,0,0,0,0,0,0,0,0,0,0,0,0,0,0,0,0,
0,0,0,0,0,0,0,0,0,0,0,0,0,0,0,0,0,0,0,0,0,0,0,0,0,0,0,0,0,0,0,0,0,0,0,0,0,0,0,0,0,0,0,0,0,0,0,0,0,0,0,0,0,0,0,0,0,0,0,0,0,0,0,0,0,0,0,0,0,0,0,0,0,0,0,0,0,0,0,0,0,0,0,0,0,0,0,0,0,0,0,0,0,0,0,0,0,0,0,0,
0,0,0,0,0,0,0,0,0,0,0,0,0,0,0,0,0,0,0,0,0,0,0,0,0,0,0,0,0,0,0,0,0,0,0,0,0,0,0,0,0,0,0,0,0,0,0,0,0,0,0,0,0,0,0,0,0,0,0,0,0,0,0,0,0,0,0,0,0,0,0,0,0,0,0,0,0,0,0,0,0,0,0,0,0,0,0,0,0,0,0,0,0,0,0,0,0,0,0,0,
0,0,0,0,0,0,0,0,0,0,0,0,0,0,0,0,0,0,0,0,0,0,0,0,0,0,0,0,0,0,0,0,0,0,0,0,0,0,0,0,0,0,0,0,0,0,0,0,0,0,0,0,0,0,0,0,0,0,0,0,0,0,0,0,0,0,0,0,0,0,0,0,0,0,0,0,0,0,0,0,0,0,0,0,0,0,0,0,0,0,0,0,0,0,0,0,0,0,0,0,
0,0,0,0,0,0,0,0,0,0,0,0,0,0,0,0,0,0,0,0,0,0,0,0,0,0,0,0,0,0,0,0,0,0,0,0,0,0,0,0,0,0,0,0,0,0,0,0,0,0,0,0,0,0,0,0,0,0,0,0,0,0,0,0,0,0,0,0,0,0,0,0,0,0,0,0,0,0,0,0,0,0,0,0,0,0,0,0,0,0,0,0,0,0,0,0,0,0,0,0,
0,0,0,0,0,0,0,0,0,0,0,0,0,0,0,0,0,0,0,0,0,0,0,0,0,0,0,0,0,0,0,0,0,0,0,0,0,0,0,0,0,0,0,0,0,0,0,0,0,0,0,0,0,0,0,0,0,0,0,0,0,0,0,0,0,0,0,0,0,0,0,0,0,0,0,0,0,0,0,0,0,0,0,0,0,0,0,0,0,0,0,0,0,0,0,0,0,0,0,0
</data>
 </layer>
 <layer id="7" name="4 WARSTWA" width="100" height="100" visible="0">
  <data encoding="csv">
0,0,0,0,0,0,0,0,0,0,0,0,0,0,0,0,0,0,0,0,0,0,0,0,0,0,0,0,0,0,0,0,0,0,0,0,0,0,0,0,0,0,0,0,0,0,0,0,0,0,0,0,0,0,0,0,0,0,0,0,0,0,0,0,0,0,0,0,0,0,0,0,0,0,0,0,0,0,0,0,0,0,0,0,0,0,0,0,0,0,0,0,0,0,0,0,0,0,0,0,
0,0,0,0,0,0,0,0,0,0,0,0,0,0,0,0,0,0,0,0,0,0,0,0,0,0,0,0,0,0,0,0,0,0,0,0,0,0,0,0,0,0,0,0,0,0,0,0,0,0,0,0,0,0,0,0,0,0,0,0,0,0,0,0,0,0,0,0,0,0,0,0,0,0,0,0,0,0,0,0,0,0,0,0,0,0,0,0,0,0,0,0,0,0,0,0,0,0,0,0,
0,0,0,0,0,0,0,0,0,0,0,0,0,0,0,0,0,0,0,0,0,0,0,0,0,0,0,0,0,0,0,0,0,0,0,0,0,0,0,0,0,0,0,0,0,0,0,0,0,0,0,0,0,0,0,0,0,0,0,0,0,0,0,0,0,0,0,0,0,0,0,0,0,0,0,0,0,0,0,0,0,0,0,0,0,0,0,0,0,0,0,0,0,0,0,0,0,0,0,0,
0,0,0,0,0,0,0,0,0,0,0,0,0,0,0,0,0,0,0,0,0,0,0,0,0,0,0,0,0,0,0,0,0,0,0,0,0,0,0,0,0,0,0,0,0,0,0,0,0,0,0,0,0,0,0,0,0,0,0,0,0,0,0,0,0,0,0,0,0,0,0,0,0,0,0,0,0,0,0,0,0,0,0,0,0,0,0,0,0,0,0,0,0,0,0,0,0,0,0,0,
0,0,0,0,0,0,0,0,0,0,0,0,0,0,0,0,0,0,0,0,0,0,0,0,0,0,0,0,0,0,0,0,0,0,0,0,0,0,0,0,0,0,0,0,0,0,0,0,0,0,0,0,0,0,0,0,0,0,0,0,0,0,0,0,0,0,0,0,0,0,0,0,0,0,0,0,0,0,0,0,0,0,0,0,0,0,0,0,0,0,0,0,0,0,0,0,0,0,0,0,
0,0,0,0,0,0,0,0,0,0,0,0,0,0,0,0,0,0,0,0,0,0,0,0,0,0,0,0,0,0,0,0,6884,6884,6884,6884,6884,0,0,0,0,0,0,0,0,0,0,0,0,0,0,0,0,0,0,0,0,0,0,0,0,0,0,0,0,0,0,0,0,0,0,0,0,0,0,0,0,0,0,0,0,0,0,0,0,0,0,0,0,0,0,0,0,0,0,0,0,0,0,0,
0,0,0,0,0,0,0,0,0,0,0,0,0,0,0,0,0,0,0,0,0,0,0,0,0,0,0,0,0,0,0,6884,6884,6884,6884,6884,6884,6884,6884,6884,0,0,0,0,0,0,0,0,0,0,0,0,0,0,0,0,0,0,0,0,0,0,0,0,0,0,0,0,0,0,0,0,0,0,0,0,0,0,0,0,0,0,0,0,0,0,0,0,0,0,0,0,0,0,0,0,0,0,0,0,
0,0,0,0,0,0,0,0,0,0,0,0,0,6884,6884,6884,6884,6884,6884,0,0,0,0,0,0,0,0,0,0,0,6884,6884,6884,6884,6884,6884,6884,6884,6884,6884,6884,6884,6884,0,0,0,0,0,0,0,0,0,0,0,0,0,0,0,0,0,0,0,0,0,0,0,0,0,0,0,0,0,0,0,0,0,0,0,0,0,0,0,0,0,0,0,0,0,0,0,0,0,0,0,0,0,0,0,0,0,
0,0,0,0,0,0,0,0,0,0,0,0,6884,6884,6884,6884,6884,6884,6884,6884,0,0,0,0,0,0,0,0,0,0,6884,0,6884,6884,6884,6884,0,0,0,0,0,0,6884,6884,0,0,0,0,0,0,0,0,0,0,0,0,0,0,0,0,0,0,0,0,0,0,0,0,0,0,0,0,0,0,0,0,0,0,0,0,0,0,0,0,0,0,0,0,0,0,0,0,0,0,0,0,0,0,0,0,
0,0,0,0,0,0,0,0,0,0,0,6884,6884,6884,0,0,0,0,0,6884,6884,0,0,0,0,0,0,0,0,6884,6884,0,0,0,0,0,0,0,0,0,0,0,0,6884,6884,0,0,0,0,0,0,0,0,0,0,0,0,0,0,0,0,0,0,0,0,0,0,0,0,0,0,0,0,0,0,0,0,0,0,0,0,0,0,0,0,0,0,0,0,0,0,0,0,0,0,0,0,0,0,0,
0,0,0,0,0,0,0,0,0,0,6884,6884,6884,6884,0,0,0,0,0,0,6884,0,0,0,6884,6884,6884,6884,6884,6884,6884,0,0,0,0,0,0,0,0,0,0,0,0,6884,6884,6884,0,0,0,0,0,0,0,0,0,0,0,0,0,0,0,0,0,0,0,0,0,0,0,0,0,0,0,0,0,0,0,0,0,0,0,0,0,0,0,0,0,0,0,0,0,0,0,0,0,0,0,0,0,0,
0,0,0,0,0,0,0,0,0,6884,6884,6884,6884,0,0,0,0,0,0,0,6884,6884,0,0,6884,6884,6884,6884,6884,0,6884,0,0,0,0,0,0,0,0,0,0,0,0,0,0,6884,0,0,0,0,0,0,0,0,0,0,0,0,0,0,0,0,0,0,0,0,0,0,0,0,0,0,0,0,0,0,0,0,0,0,0,0,0,0,0,0,0,0,0,0,0,0,0,0,0,0,0,0,0,0,
0,0,0,0,0,0,0,0,0,6884,6884,6884,6884,0,0,0,0,0,0,0,0,6884,6884,6884,6884,6884,6884,6884,6884,0,6884,0,0,0,0,0,0,0,0,0,0,0,0,0,6884,6884,6884,0,6884,6884,6884,0,0,0,0,0,0,0,0,0,0,0,0,0,0,0,0,0,0,0,0,0,0,0,0,0,0,0,0,0,0,0,0,0,0,0,0,0,0,0,0,0,0,0,0,0,0,0,0,0,
0,0,0,0,0,0,0,0,6884,6884,6884,6884,0,0,0,0,0,0,0,0,0,0,6884,6884,6884,6884,6884,6884,6884,0,6884,0,0,0,0,0,0,0,0,0,0,0,0,6884,6884,6884,6884,6884,6884,6884,6884,6884,0,0,0,0,0,0,0,0,0,0,0,0,0,0,0,0,0,0,0,0,0,0,0,0,0,0,0,0,0,0,0,0,0,0,0,0,0,0,0,0,0,0,0,0,0,0,0,0,
0,0,0,0,0,0,0,0,6884,0,6884,0,0,0,0,0,0,0,0,0,0,0,6884,6884,6884,6884,6884,6884,0,0,6884,6884,0,0,0,0,0,0,0,0,0,0,6884,6884,0,6884,6884,6884,6884,6884,6884,6884,6884,0,0,0,0,0,0,0,0,0,0,0,0,0,0,0,0,0,0,0,0,0,0,0,0,0,0,0,0,0,0,0,0,0,0,0,0,0,0,0,0,0,0,0,0,0,0,0,
0,0,0,0,0,0,0,0,6884,0,0,0,0,0,0,0,0,0,0,0,0,0,0,6884,6884,6884,6884,6884,0,0,6884,6884,0,0,0,0,0,0,0,0,6884,6884,6884,0,0,6884,6884,6884,6884,6884,6884,6884,6884,6884,0,0,0,0,0,0,0,0,0,0,0,0,0,0,0,0,0,0,0,0,0,0,0,0,0,0,0,0,0,0,0,0,0,0,0,0,0,0,0,0,0,0,0,0,0,0,
0,0,0,0,0,0,0,0,6884,0,0,0,0,0,0,0,0,0,0,0,0,0,6884,6884,6884,0,0,0,0,0,0,6884,6884,6884,0,0,0,0,6884,6884,6884,0,0,0,0,0,0,0,0,6884,6884,6884,6884,6884,0,0,0,0,0,0,0,0,0,0,0,0,0,0,0,0,0,0,0,0,0,0,0,0,0,0,0,0,0,0,0,0,0,0,0,0,0,0,0,0,0,0,0,0,0,0,
0,0,0,0,0,0,0,0,6884,0,0,0,0,0,0,0,0,0,0,0,0,6884,6884,6884,0,0,0,0,0,0,0,0,0,6884,6884,0,0,6884,6884,0,0,0,0,0,0,0,0,0,0,0,0,6884,6884,6884,6884,6884,0,0,0,0,0,0,0,0,0,0,0,0,0,0,0,0,0,0,0,0,0,0,0,0,0,0,0,0,0,0,0,0,0,0,0,0,0,0,0,0,0,0,0,0,
0,0,0,0,0,0,0,0,6884,0,0,0,0,0,0,0,0,0,0,0,6884,6884,0,0,0,0,0,0,0,0,0,0,0,0,0,0,0,0,0,0,0,0,0,0,6884,6884,0,0,0,0,0,0,0,0,6884,6884,6884,0,0,0,0,0,0,0,0,0,0,0,0,0,0,0,0,0,0,0,0,0,0,0,0,0,0,0,0,0,0,0,0,0,0,0,0,0,0,0,0,0,0,0,
0,0,0,0,0,0,0,0,6884,0,0,0,0,0,0,0,0,0,0,0,6884,0,0,0,0,0,0,0,0,0,0,0,0,0,0,0,0,0,0,0,0,0,0,0,0,0,0,0,0,0,0,0,0,0,0,0,6884,6884,6884,0,0,0,0,0,0,0,0,0,0,0,0,0,0,0,0,0,0,0,0,0,0,0,0,0,0,0,0,0,0,0,0,0,0,0,0,0,0,0,0,0,
0,0,0,0,0,0,0,0,6884,6884,0,0,0,0,0,0,0,0,0,6884,6884,0,0,0,6884,6884,0,0,0,0,0,0,0,0,0,0,0,0,0,0,0,0,0,0,0,0,0,0,0,0,0,0,0,0,0,0,6884,6884,6884,6884,0,0,0,0,0,0,0,0,0,0,0,0,0,0,0,0,0,0,0,0,0,0,0,0,0,0,0,0,0,0,0,0,0,0,0,0,0,0,0,0,
0,0,0,0,0,0,0,0,0,6884,6884,0,0,0,0,0,0,0,0,6884,0,0,0,0,6884,0,0,0,0,0,0,0,0,0,0,0,0,0,0,0,0,0,0,0,0,0,0,0,0,0,0,0,0,0,0,0,0,6884,6884,6884,6884,0,0,0,0,0,0,0,0,0,0,0,0,0,0,0,0,0,0,0,0,0,0,0,0,0,0,0,0,0,0,0,0,0,0,0,0,0,0,0,
0,0,0,0,0,0,0,0,0,0,6884,0,0,0,0,0,0,0,0,0,0,0,0,0,0,0,0,0,0,0,0,0,0,0,0,0,0,0,0,0,0,0,0,0,0,0,0,0,6884,6884,6884,6884,0,0,0,0,6884,6884,6884,6884,6884,6884,0,0,0,0,0,0,0,0,0,0,0,0,0,0,0,0,0,0,0,0,0,0,0,0,0,0,0,0,0,0,0,0,0,0,0,0,0,0,
0,0,0,0,0,0,0,0,0,0,6884,6884,0,0,0,6884,0,0,0,6884,6884,0,0,0,0,0,0,0,0,0,0,0,0,0,0,0,0,6884,6884,0,0,0,0,0,0,0,6884,6884,6884,6884,6884,6884,6884,6884,0,6884,6884,0,6884,6884,6884,6884,6884,0,0,0,0,0,0,0,0,0,0,0,0,0,0,0,0,0,0,0,0,0,0,0,0,0,0,0,0,0,0,0,0,0,0,0,0,0,
0,0,0,0,0,0,0,0,0,0,0,6884,6884,6884,6884,6884,0,0,6884,6884,6884,0,0,0,0,0,6884,6884,0,6884,6884,6884,0,0,0,0,0,0,0,0,0,0,0,0,6884,6884,6884,6884,6884,6884,6884,6884,6884,0,0,0,0,0,0,6884,6884,6884,6884,6884,0,0,0,0,0,0,0,0,0,0,0,0,0,0,0,0,0,0,0,0,0,0,0,0,0,0,0,0,0,0,0,0,0,0,0,0,
0,0,0,0,0,0,0,0,0,0,0,0,6884,6884,6884,6884,6884,6884,6884,6884,0,0,0,0,6884,6884,6884,0,0,0,6884,6884,6884,6884,0,0,0,0,0,0,0,0,0,6884,6884,6884,6884,6884,6884,6884,0,0,0,0,0,0,0,0,0,0,6884,0,0,6884,6884,6884,0,0,0,0,0,0,0,0,0,0,0,0,0,0,0,0,0,0,0,0,0,0,0,0,0,0,0,0,0,0,0,0,0,0,
0,0,0,0,0,0,0,0,0,0,0,0,0,6884,6884,6884,6884,6884,0,0,0,0,6884,6884,6884,6884,0,0,0,0,0,0,6884,6884,6884,0,0,0,0,0,0,0,6884,6884,6884,6884,6884,6884,0,0,0,0,0,0,0,0,0,0,0,0,0,0,0,0,0,6884,0,0,0,0,0,0,0,0,0,0,0,0,0,0,0,0,0,0,0,0,0,0,0,0,0,0,0,0,0,0,0,0,0,0,
0,0,0,0,0,0,0,0,0,0,0,0,0,0,6884,6884,6884,6884,0,0,6884,6884,6884,0,0,0,0,0,0,0,0,0,0,0,6884,6884,6884,6884,6884,6884,6884,6884,6884,6884,6884,6884,0,0,0,0,0,0,0,0,0,0,0,0,0,0,0,0,0,0,0,6884,0,0,0,0,0,0,0,0,0,0,0,0,0,0,0,0,0,0,0,0,0,0,0,0,0,0,0,0,0,0,0,0,0,0,
0,0,0,0,0,0,0,0,0,0,0,0,0,0,0,6884,6884,0,0,6884,6884,6884,6884,6884,0,0,0,0,0,0,0,0,0,0,0,6884,6884,6884,6884,6884,6884,6884,6884,6884,6884,0,0,0,0,0,0,0,0,0,0,0,0,0,0,0,0,0,0,0,0,6884,0,0,0,0,0,0,0,0,0,0,0,0,0,0,0,0,0,0,0,0,0,0,0,0,0,0,0,0,0,0,0,0,0,0,
0,0,0,0,0,0,0,0,0,0,0,0,0,0,0,6884,6884,0,0,6884,6884,6884,6884,6884,0,0,0,6884,6884,6884,6884,0,0,0,0,0,0,6884,6884,6884,6884,6884,6884,6884,0,0,0,0,0,0,0,0,0,0,0,0,0,0,0,0,0,6884,6884,6884,6884,6884,0,0,0,0,0,0,0,0,0,0,0,0,0,0,0,0,0,0,0,0,0,0,0,0,0,0,0,0,0,0,0,0,0,0,
0,0,0,0,0,0,0,0,0,0,0,0,0,0,0,6884,6884,0,0,6884,6884,6884,6884,6884,6884,6884,6884,6884,6884,6884,6884,6884,0,0,0,0,0,6884,6884,6884,6884,6884,6884,6884,0,0,0,0,0,0,0,0,0,0,0,0,0,6884,6884,6884,6884,6884,0,0,0,0,0,0,0,0,0,0,0,0,0,0,0,0,0,0,0,0,0,0,0,0,0,0,0,0,0,0,0,0,0,0,0,0,0,0,
0,0,0,0,0,0,0,0,0,0,0,0,0,0,0,6884,6884,0,0,6884,6884,6884,6884,6884,6884,0,6884,0,0,0,6884,6884,6884,6884,0,0,0,0,0,6884,6884,6884,6884,0,0,0,0,0,0,0,0,0,0,0,6884,6884,6884,6884,6884,0,0,0,0,0,0,0,0,0,0,0,0,0,0,0,0,0,0,0,0,0,0,0,0,0,0,0,0,0,0,0,0,0,0,0,0,0,0,0,0,0,
0,0,0,0,0,0,0,0,0,0,0,0,0,0,0,6884,6884,6884,0,6884,6884,6884,6884,6884,0,0,0,0,0,0,0,0,0,6884,6884,0,0,0,6884,6884,6884,6884,0,0,0,0,0,0,0,0,0,0,0,6884,6884,0,0,0,0,0,0,0,0,0,0,0,0,0,0,0,0,0,0,0,0,0,0,0,0,0,0,0,0,0,0,0,6884,6884,6884,6884,6884,0,0,0,0,0,0,0,0,0,
0,0,0,0,0,0,0,0,0,0,0,0,0,0,6884,6884,6884,6884,0,6884,6884,6884,6884,0,0,0,0,0,0,0,0,0,0,0,6884,6884,0,0,6884,6884,6884,6884,0,0,0,0,0,0,0,6884,6884,6884,6884,6884,0,0,0,6884,6884,0,6884,6884,6884,6884,6884,6884,6884,6884,6884,0,0,0,0,0,0,0,0,0,0,0,0,0,0,6884,6884,6884,6884,6884,6884,6884,6884,0,0,0,0,0,0,0,0,0,
0,0,0,0,0,0,0,0,0,0,0,0,0,0,6884,6884,6884,6884,0,6884,6884,6884,0,0,0,0,0,0,6884,6884,0,0,0,0,0,6884,6884,6884,6884,6884,6884,0,0,0,0,0,0,0,6884,6884,6884,0,0,0,0,6884,6884,6884,6884,6884,6884,6884,6884,6884,6884,6884,6884,6884,6884,6884,6884,0,0,0,0,0,0,6884,6884,6884,6884,6884,6884,6884,6884,6884,6884,6884,6884,6884,6884,6884,6884,0,0,0,0,0,0,0,
0,0,0,0,0,0,0,0,0,0,0,0,0,0,6884,6884,6884,6884,0,6884,6884,6884,0,0,0,0,0,0,6884,6884,6884,0,0,0,0,0,0,0,6884,6884,6884,0,0,0,0,0,0,6884,6884,0,0,0,6884,6884,0,6884,6884,6884,6884,6884,6884,6884,6884,6884,6884,6884,6884,6884,6884,6884,6884,6884,0,0,0,0,0,6884,6884,6884,6884,6884,6884,6884,6884,6884,6884,6884,6884,6884,6884,6884,6884,0,0,0,0,0,0,0,
0,0,0,0,0,0,0,0,0,0,0,0,0,0,6884,6884,6884,6884,0,6884,6884,6884,0,0,6884,0,0,0,0,6884,6884,0,0,0,6884,0,0,0,0,0,6884,0,0,0,0,0,6884,6884,0,0,0,0,6884,6884,6884,6884,6884,6884,6884,6884,6884,6884,6884,6884,6884,6884,6884,6884,6884,6884,6884,6884,6884,0,0,0,0,6884,6884,6884,6884,6884,6884,6884,6884,6884,6884,6884,6884,6884,6884,6884,6884,0,0,0,0,0,0,0,
0,0,0,0,0,0,0,0,0,0,0,0,0,0,6884,6884,6884,0,0,0,0,6884,6884,0,0,0,0,0,0,0,0,0,0,0,0,0,0,0,0,0,6884,0,0,0,0,6884,6884,0,0,0,0,6884,6884,6884,0,6884,6884,0,6884,6884,6884,6884,6884,6884,6884,6884,6884,6884,6884,6884,0,6884,6884,6884,0,0,0,0,6884,6884,6884,6884,6884,6884,6884,0,6884,6884,6884,6884,6884,6884,6884,6884,0,0,0,0,0,0,
0,0,0,0,0,0,0,0,0,0,0,0,0,0,6884,6884,6884,0,0,0,0,0,6884,6884,6884,0,0,0,0,0,0,0,0,0,0,0,0,0,0,6884,6884,0,0,0,0,6884,6884,6884,6884,6884,6884,6884,6884,6884,0,0,0,0,0,0,0,6884,0,0,6884,6884,0,6884,0,0,0,6884,6884,6884,6884,0,0,6884,6884,6884,0,6884,6884,6884,6884,0,0,6884,0,0,0,6884,6884,6884,0,0,0,0,0,0,
0,0,0,0,0,0,0,0,0,0,0,0,0,6884,6884,6884,6884,0,0,0,0,0,0,0,6884,6884,0,0,0,0,0,0,0,6884,6884,0,0,0,0,6884,0,0,0,6884,6884,6884,6884,6884,6884,6884,6884,6884,6884,0,0,0,0,0,0,0,0,0,0,0,0,0,0,0,0,0,0,0,0,0,6884,6884,6884,6884,0,0,0,0,0,0,0,0,0,0,0,0,0,0,6884,6884,0,0,0,0,0,0,
0,0,0,0,0,0,0,0,0,0,0,0,0,6884,6884,6884,0,0,0,6884,6884,6884,0,0,0,6884,6884,6884,0,0,0,0,6884,6884,6884,0,0,0,0,0,0,0,0,0,0,0,0,0,0,0,0,0,0,0,0,0,0,0,0,0,0,0,0,0,0,0,0,0,0,0,0,0,0,0,0,0,0,0,0,0,0,0,0,0,0,0,0,0,0,0,0,6884,6884,6884,0,0,0,0,0,0,
0,0,0,0,0,0,0,0,0,0,0,0,0,6884,6884,0,0,0,6884,6884,0,6884,6884,0,0,0,0,6884,6884,0,0,0,6884,6884,0,0,0,0,0,6884,0,0,0,6884,6884,6884,6884,6884,6884,6884,6884,6884,6884,0,0,0,0,0,0,0,0,0,0,0,0,0,0,0,0,0,0,0,0,0,0,6884,6884,6884,6884,0,0,0,0,0,0,0,6884,6884,6884,0,6884,6884,6884,6884,6884,0,0,0,0,0,
0,0,0,0,0,0,0,0,0,0,0,0,0,6884,0,0,0,0,6884,0,0,0,6884,6884,6884,0,0,0,6884,6884,0,0,0,0,0,0,0,0,0,6884,0,0,0,6884,6884,6884,6884,6884,6884,6884,6884,6884,6884,0,0,0,6884,0,0,0,0,0,0,0,0,0,0,0,0,0,6884,6884,0,6884,6884,6884,6884,6884,6884,6884,6884,6884,6884,6884,6884,6884,6884,6884,6884,6884,6884,6884,6884,6884,6884,0,0,0,0,0,
0,0,0,0,0,0,0,0,0,0,0,0,0,6884,0,0,0,0,6884,6884,0,0,0,0,6884,6884,0,0,0,6884,6884,0,0,0,0,0,0,0,0,6884,6884,0,0,0,0,6884,0,0,0,0,6884,6884,6884,6884,6884,6884,6884,6884,0,0,0,0,0,0,0,6884,6884,0,0,0,0,0,6884,6884,6884,6884,6884,6884,6884,6884,6884,6884,6884,6884,6884,6884,6884,6884,6884,6884,6884,6884,6884,6884,6884,0,0,0,0,0,
0,0,0,0,0,0,0,0,0,0,0,0,0,6884,0,0,0,0,0,6884,6884,0,0,0,0,6884,6884,0,0,0,6884,6884,0,0,6884,6884,0,0,0,0,6884,0,0,0,0,6884,6884,0,0,0,6884,6884,6884,6884,6884,6884,6884,6884,6884,0,0,0,6884,6884,6884,6884,6884,0,0,0,0,0,6884,6884,6884,6884,6884,6884,6884,6884,6884,6884,6884,6884,6884,6884,6884,6884,6884,6884,6884,6884,6884,6884,6884,0,0,0,0,0,
0,0,0,0,0,0,0,0,0,0,0,0,0,6884,0,0,0,0,0,0,6884,6884,6884,0,0,0,6884,0,0,0,0,6884,6884,0,0,0,0,0,0,0,6884,6884,6884,0,0,0,6884,0,0,0,6884,6884,6884,6884,6884,6884,6884,6884,6884,0,0,0,6884,0,0,0,6884,0,0,0,0,6884,6884,6884,6884,6884,6884,6884,6884,0,0,6884,6884,6884,6884,6884,6884,6884,6884,6884,6884,6884,6884,6884,6884,0,0,0,0,0,
0,0,0,0,0,0,0,0,0,0,0,0,0,6884,0,0,0,0,0,0,0,0,6884,6884,6884,0,6884,0,0,0,0,0,6884,6884,6884,0,0,0,0,0,0,0,6884,0,0,0,6884,0,0,0,6884,6884,6884,6884,6884,6884,6884,6884,6884,0,0,0,6884,0,0,0,6884,0,0,0,0,6884,6884,6884,6884,6884,6884,6884,6884,0,0,0,6884,6884,6884,6884,6884,6884,6884,6884,6884,6884,6884,6884,6884,0,0,0,0,0,
0,0,0,0,0,0,0,0,0,0,0,0,0,6884,0,0,0,0,0,0,0,0,0,0,6884,6884,6884,0,0,0,0,0,0,0,6884,6884,0,0,0,0,6884,6884,6884,0,0,0,6884,0,0,0,0,6884,6884,6884,6884,6884,6884,6884,6884,0,0,0,6884,0,0,0,6884,0,0,0,0,6884,6884,6884,6884,6884,6884,6884,6884,0,0,0,0,6884,6884,6884,6884,6884,6884,6884,6884,6884,6884,6884,0,0,0,0,0,0,
0,0,0,0,0,0,0,0,0,0,0,0,0,6884,0,0,0,0,0,0,0,0,0,0,0,0,0,0,0,0,0,0,0,0,0,6884,6884,6884,0,6884,6884,6884,6884,0,0,0,6884,6884,0,0,0,0,0,6884,6884,6884,6884,0,0,0,0,0,6884,6884,6884,6884,6884,0,0,0,0,6884,6884,6884,6884,6884,6884,6884,6884,6884,0,0,0,0,0,0,0,6884,6884,6884,6884,6884,6884,0,0,0,0,0,0,0,
0,0,0,0,0,0,0,0,0,0,0,0,0,6884,0,0,0,0,0,0,0,6884,6884,6884,6884,6884,6884,6884,0,0,0,0,0,0,0,0,0,6884,6884,6884,6884,6884,6884,0,0,0,0,6884,6884,0,0,0,0,0,6884,6884,0,0,0,6884,6884,6884,6884,0,0,0,0,0,0,0,6884,6884,6884,0,6884,0,0,6884,6884,6884,0,0,0,0,0,0,0,0,0,0,0,0,0,0,0,0,0,0,0,0,
0,0,0,0,0,0,0,0,0,0,0,0,6884,6884,0,0,0,0,0,6884,6884,6884,6884,6884,6884,6884,6884,6884,6884,6884,0,0,0,0,0,0,0,0,6884,6884,6884,6884,0,0,0,0,0,0,6884,6884,0,0,0,0,0,6884,6884,0,6884,6884,6884,6884,6884,6884,6884,6884,0,0,0,0,0,6884,6884,0,0,0,0,6884,6884,6884,6884,0,0,0,0,0,0,0,0,0,0,0,0,0,0,0,0,0,0,0,
0,0,0,0,0,0,0,0,0,0,0,0,6884,0,0,0,0,6884,6884,6884,6884,6884,6884,6884,6884,6884,6884,6884,6884,6884,6884,6884,6884,0,0,0,0,0,0,0,0,0,0,0,0,0,0,0,0,6884,0,0,0,0,0,0,6884,6884,6884,6884,6884,6884,6884,6884,6884,6884,6884,0,0,0,0,0,0,0,0,0,0,6884,6884,6884,6884,0,0,0,0,0,0,0,0,0,0,0,0,0,0,0,0,0,0,0,
0,0,0,0,0,0,0,0,0,0,0,0,6884,0,0,0,0,6884,6884,6884,6884,6884,6884,6884,6884,6884,6884,6884,6884,6884,6884,6884,6884,6884,0,0,0,0,0,0,0,0,0,0,0,0,0,0,0,6884,0,0,0,0,0,0,0,6884,6884,6884,6884,6884,6884,6884,6884,6884,6884,0,0,0,0,0,0,0,0,0,0,0,6884,6884,6884,0,0,0,0,0,0,0,0,0,0,0,0,0,0,0,0,0,0,0,
0,0,0,0,0,0,0,0,0,0,0,0,6884,0,0,0,6884,6884,6884,6884,6884,6884,6884,6884,6884,6884,0,0,6884,6884,6884,6884,6884,6884,6884,6884,0,0,0,0,0,0,0,0,0,0,0,0,6884,6884,0,0,0,0,0,6884,6884,6884,6884,6884,6884,6884,6884,6884,6884,6884,0,0,0,0,0,0,0,0,6884,0,0,0,6884,6884,6884,0,0,0,0,0,0,0,0,0,0,0,0,0,0,0,0,0,0,0,
0,0,0,0,0,0,0,0,0,0,0,6884,6884,0,0,6884,6884,6884,6884,6884,6884,6884,6884,6884,6884,6884,0,0,0,6884,6884,6884,6884,6884,6884,6884,6884,6884,0,0,0,0,0,0,6884,6884,6884,6884,6884,6884,6884,6884,0,0,6884,6884,6884,6884,6884,6884,6884,6884,6884,0,6884,0,0,0,0,0,0,0,0,0,0,0,0,0,6884,6884,6884,6884,0,0,0,0,0,0,0,0,0,0,0,0,0,0,0,0,0,0,
0,0,0,0,0,0,0,0,0,0,0,6884,0,0,6884,6884,6884,6884,6884,6884,0,6884,0,6884,0,0,0,0,0,0,0,6884,6884,6884,6884,6884,6884,6884,6884,6884,0,0,6884,6884,6884,6884,6884,6884,6884,6884,6884,6884,6884,6884,6884,6884,6884,6884,6884,6884,6884,6884,6884,0,0,0,0,0,0,0,0,0,0,6884,6884,6884,0,0,0,6884,6884,6884,0,0,0,0,0,0,0,0,0,0,0,0,0,0,0,0,0,0,
0,0,0,0,0,0,0,0,0,0,0,6884,0,0,6884,6884,6884,6884,6884,6884,0,0,0,0,0,0,0,0,0,0,0,0,6884,0,6884,6884,6884,6884,6884,6884,6884,6884,6884,6884,6884,6884,6884,6884,6884,6884,6884,6884,6884,6884,6884,6884,6884,6884,0,6884,0,0,0,0,0,0,0,0,0,0,0,0,6884,6884,6884,6884,6884,0,0,6884,6884,6884,6884,0,0,0,0,0,0,0,0,0,0,0,0,0,0,0,0,0,
0,0,0,0,0,0,0,0,0,0,0,6884,0,0,6884,6884,6884,6884,6884,6884,0,0,0,6884,6884,0,0,0,0,0,0,0,0,0,6884,6884,0,6884,6884,6884,6884,6884,6884,6884,6884,6884,6884,6884,6884,6884,6884,6884,6884,6884,6884,0,6884,0,0,0,0,0,0,0,0,0,6884,6884,6884,0,0,0,6884,6884,6884,6884,6884,0,0,0,6884,6884,6884,6884,0,0,0,0,0,0,0,0,0,0,0,0,0,0,0,0,
0,0,0,0,0,0,0,0,0,0,0,6884,0,0,6884,6884,6884,6884,6884,6884,0,0,0,6884,6884,0,0,0,0,0,0,0,0,0,0,0,0,0,0,6884,6884,6884,6884,6884,6884,6884,6884,6884,6884,6884,6884,6884,6884,6884,6884,0,0,0,0,0,0,0,0,0,0,6884,6884,6884,6884,6884,0,0,0,6884,6884,6884,0,0,0,0,0,6884,6884,6884,0,0,0,0,0,0,0,0,0,0,0,0,0,0,0,0,
0,0,0,0,0,0,0,0,0,0,0,6884,0,0,6884,6884,6884,6884,6884,6884,0,0,0,0,0,0,0,0,0,0,0,0,0,0,0,0,0,0,0,6884,6884,6884,6884,6884,6884,6884,6884,6884,6884,6884,6884,6884,6884,0,0,0,0,0,0,0,6884,6884,0,0,0,6884,6884,6884,6884,6884,0,0,0,0,6884,0,0,0,0,0,0,6884,6884,6884,0,0,0,0,0,0,0,0,0,0,0,0,0,0,0,0,
0,0,0,0,0,0,0,0,0,0,0,6884,0,0,6884,6884,6884,6884,6884,6884,0,0,0,0,0,0,0,0,0,0,0,0,0,0,0,0,0,0,0,6884,6884,6884,6884,6884,6884,6884,6884,6884,6884,6884,0,0,0,0,0,0,0,0,0,0,6884,6884,0,0,0,0,6884,6884,6884,0,0,0,0,0,0,0,0,0,6884,0,0,0,6884,6884,0,0,0,0,0,0,0,0,0,0,0,0,0,0,0,0,
0,0,0,0,0,0,0,0,0,0,6884,6884,0,0,6884,6884,6884,6884,6884,6884,0,0,0,0,0,0,0,0,0,0,0,0,0,0,0,0,0,0,0,0,0,6884,6884,6884,6884,6884,6884,6884,6884,6884,0,0,0,0,0,0,6884,0,0,0,6884,6884,0,0,0,0,0,6884,0,0,0,0,0,0,0,0,0,0,0,0,0,6884,6884,6884,6884,0,0,0,0,0,0,0,0,0,0,0,0,0,0,0,
0,0,0,0,0,0,0,0,0,0,6884,6884,6884,6884,6884,6884,6884,6884,6884,6884,6884,6884,0,0,6884,6884,6884,6884,6884,6884,6884,6884,6884,6884,6884,6884,0,0,0,0,6884,6884,6884,6884,6884,6884,6884,6884,6884,0,0,0,0,0,0,0,0,0,0,0,6884,6884,0,0,0,0,0,0,0,0,0,0,0,0,0,0,0,0,0,0,0,0,6884,6884,6884,0,0,0,0,0,0,0,0,0,0,0,0,0,0,0,
0,0,0,0,0,0,0,0,0,0,6884,6884,6884,0,0,0,6884,6884,6884,6884,0,0,0,0,0,0,6884,6884,6884,6884,6884,6884,6884,6884,6884,6884,0,0,0,0,6884,6884,6884,6884,6884,6884,6884,6884,0,0,0,0,0,6884,6884,6884,0,0,0,0,0,0,0,0,0,0,0,0,0,0,0,0,0,0,0,6884,6884,6884,0,0,0,0,6884,6884,6884,0,0,0,0,0,0,0,0,0,0,0,0,0,0,0,
0,0,0,0,0,0,0,0,0,0,6884,6884,6884,0,0,0,6884,6884,0,0,0,0,0,0,0,6884,6884,0,0,0,0,0,6884,6884,6884,6884,0,0,0,0,6884,6884,6884,6884,6884,6884,6884,0,0,0,0,0,6884,6884,6884,6884,6884,0,0,0,0,0,0,0,6884,0,0,0,6884,6884,0,0,0,0,6884,6884,6884,6884,6884,0,0,0,0,0,6884,6884,0,0,0,0,0,0,0,0,0,0,0,0,0,0,
0,0,0,0,0,0,0,0,0,0,6884,0,0,0,0,0,0,6884,6884,0,0,0,0,0,0,6884,6884,6884,6884,6884,0,0,0,6884,6884,6884,0,0,0,0,6884,6884,6884,6884,6884,6884,6884,0,0,0,0,0,6884,6884,6884,6884,6884,0,0,0,0,0,0,0,0,0,0,0,6884,6884,0,0,0,0,6884,6884,6884,6884,6884,0,0,0,0,6884,6884,6884,6884,0,0,0,0,0,0,0,0,0,0,0,0,0,
0,0,0,0,0,0,0,0,0,0,6884,0,0,0,0,0,6884,6884,6884,6884,0,0,0,0,0,0,0,0,0,6884,0,0,0,6884,6884,6884,0,0,0,0,0,0,6884,6884,6884,6884,6884,0,0,0,0,0,0,6884,6884,6884,0,0,0,0,6884,6884,6884,0,0,0,0,0,6884,6884,0,0,0,0,0,6884,6884,6884,0,0,0,0,0,0,6884,6884,6884,0,0,0,0,0,0,0,0,0,0,0,0,0,
0,0,0,0,0,0,0,0,0,0,6884,0,0,0,0,0,6884,6884,0,6884,6884,6884,0,0,0,0,0,6884,6884,6884,0,0,0,6884,6884,6884,0,0,0,0,0,0,6884,6884,6884,6884,6884,6884,0,0,0,0,0,0,6884,0,0,0,0,6884,6884,6884,6884,6884,0,0,0,0,6884,6884,0,0,0,0,0,0,6884,0,0,0,0,0,0,0,6884,6884,6884,0,0,0,0,0,0,0,0,0,0,0,0,0,
0,0,0,0,0,0,0,0,0,0,6884,0,0,0,0,0,0,0,0,6884,6884,6884,6884,0,0,0,0,6884,6884,0,0,0,0,0,6884,6884,0,0,0,0,0,0,0,6884,6884,6884,6884,6884,0,0,0,0,0,0,0,0,0,0,0,6884,6884,6884,6884,6884,0,0,0,0,0,0,0,0,0,0,0,0,0,0,0,0,0,0,0,0,0,6884,6884,0,0,0,0,0,0,0,0,0,0,0,0,0,
0,0,0,0,0,0,0,0,0,0,6884,6884,6884,0,0,0,0,0,0,6884,6884,0,6884,0,0,0,0,0,6884,6884,6884,0,0,6884,6884,6884,0,0,0,0,0,0,0,6884,6884,6884,6884,6884,0,0,0,6884,6884,0,0,0,0,0,0,0,6884,6884,6884,0,0,0,0,0,0,0,0,0,0,0,0,0,0,0,0,0,0,0,0,0,6884,6884,6884,6884,0,0,0,0,0,0,0,0,0,0,0,0,
0,0,0,0,0,0,0,0,0,0,6884,6884,6884,0,0,0,0,0,0,0,0,0,6884,6884,0,0,0,0,0,0,6884,6884,6884,6884,6884,6884,0,0,0,0,0,0,0,6884,6884,6884,6884,6884,0,0,0,6884,6884,0,0,0,6884,0,0,0,0,6884,0,0,0,0,0,0,0,0,0,0,0,0,0,0,0,0,0,0,0,0,0,0,0,6884,6884,6884,0,0,0,0,0,0,0,0,0,0,0,0,
0,0,0,0,0,0,0,0,0,0,6884,0,0,0,0,0,0,0,0,0,0,0,0,6884,6884,0,0,0,0,0,0,0,0,6884,6884,6884,0,0,0,0,0,0,0,0,0,0,0,6884,6884,0,0,6884,6884,0,0,0,0,0,0,0,0,0,0,0,0,0,6884,6884,0,0,0,0,0,0,6884,0,0,0,0,0,0,0,0,0,0,6884,6884,6884,6884,0,0,0,0,0,0,0,0,0,0,0,
0,0,0,0,0,0,0,0,0,0,6884,0,0,0,0,0,0,0,6884,6884,0,0,0,6884,6884,6884,6884,0,0,0,0,0,0,6884,6884,6884,0,0,0,0,0,0,0,0,0,0,0,0,6884,0,0,6884,6884,0,0,0,0,0,0,0,0,0,0,0,0,0,6884,6884,0,0,0,0,0,0,0,0,0,0,0,0,0,0,0,0,0,0,0,6884,6884,0,0,0,0,0,0,0,0,0,0,0,
0,0,0,0,0,0,0,0,0,0,6884,6884,6884,0,0,0,6884,6884,6884,6884,0,0,0,0,6884,6884,6884,0,0,0,0,0,0,6884,6884,6884,0,0,0,0,0,0,0,0,0,0,0,0,6884,0,0,0,0,0,0,0,0,6884,6884,0,0,0,0,0,0,0,6884,6884,0,0,0,0,0,0,0,0,0,6884,6884,6884,0,0,0,0,0,0,6884,6884,6884,6884,0,0,0,0,0,0,0,0,0,0,
0,0,0,0,0,0,0,0,0,0,6884,6884,6884,0,0,0,6884,6884,6884,6884,0,0,0,0,6884,6884,6884,6884,0,0,0,0,0,6884,6884,6884,0,0,0,0,0,0,0,0,0,0,0,0,6884,0,0,0,0,0,0,0,0,6884,6884,0,0,0,0,0,0,0,6884,6884,0,0,0,0,0,0,0,0,6884,6884,6884,6884,6884,0,0,0,0,0,0,6884,6884,6884,0,0,0,0,0,0,0,0,0,0,
0,0,0,0,0,0,0,0,0,0,6884,6884,6884,6884,0,0,0,0,6884,6884,0,0,0,0,0,6884,6884,6884,0,0,0,0,0,6884,6884,6884,0,0,0,0,0,0,0,0,0,0,0,0,0,0,0,0,0,0,0,0,0,6884,6884,0,0,0,0,0,0,0,0,0,0,0,0,0,0,0,0,0,6884,6884,6884,6884,6884,0,0,0,0,0,0,6884,6884,6884,0,0,0,0,0,0,0,0,0,0,
0,0,0,0,0,0,0,0,0,0,0,6884,6884,6884,0,0,0,0,0,0,0,0,0,0,0,6884,6884,6884,6884,6884,0,0,0,6884,6884,6884,0,0,0,0,0,0,0,0,0,0,0,0,6884,0,0,0,0,0,0,0,0,6884,6884,0,0,0,0,0,6884,0,0,0,0,0,0,6884,0,0,0,0,0,6884,6884,6884,0,0,0,0,0,0,0,6884,6884,6884,0,0,0,0,0,0,0,0,0,0,
0,0,0,0,0,0,0,0,0,0,0,6884,6884,6884,6884,0,0,0,0,0,0,0,0,6884,0,0,6884,6884,6884,6884,0,0,0,6884,6884,6884,0,0,0,0,0,0,0,6884,6884,0,0,0,6884,0,0,6884,6884,6884,0,0,0,0,0,0,0,0,0,0,0,0,0,0,0,0,0,0,0,0,0,0,0,0,6884,0,6884,0,0,0,0,0,6884,6884,6884,6884,0,0,0,0,0,0,0,0,0,0,
0,0,0,0,0,0,0,0,0,0,0,0,6884,6884,6884,0,0,0,0,0,0,0,0,6884,0,0,0,6884,6884,6884,6884,0,0,6884,6884,6884,0,0,0,0,6884,6884,0,6884,6884,0,0,0,6884,0,6884,6884,6884,6884,6884,0,0,0,0,0,0,0,0,0,0,0,0,6884,6884,6884,0,0,0,0,0,0,0,0,0,0,0,0,0,0,0,0,0,6884,6884,6884,0,0,0,0,0,0,0,0,0,0,
0,0,0,0,0,0,0,0,0,0,0,0,6884,6884,6884,0,0,0,0,6884,6884,0,0,0,0,0,0,0,0,0,6884,6884,0,6884,6884,6884,0,0,0,0,6884,6884,0,0,0,0,6884,6884,6884,0,6884,6884,6884,6884,6884,0,0,0,0,0,6884,6884,6884,0,0,0,6884,6884,6884,6884,6884,0,0,0,0,0,0,0,0,0,0,0,0,0,0,0,0,6884,6884,6884,0,0,0,0,0,0,0,0,0,0,
0,0,0,0,0,0,0,0,0,0,0,0,0,0,6884,6884,0,0,0,0,0,0,0,0,0,0,0,0,0,0,0,6884,6884,6884,6884,6884,0,0,0,0,0,0,0,0,0,0,6884,6884,6884,0,0,6884,6884,6884,0,0,0,0,0,6884,6884,6884,6884,6884,0,0,6884,6884,6884,6884,6884,0,0,6884,6884,0,0,0,0,0,0,0,0,0,0,0,0,6884,6884,6884,0,0,0,0,0,0,0,0,0,0,
0,0,0,0,0,0,0,0,0,0,0,0,0,0,0,6884,6884,6884,6884,0,0,0,0,0,0,0,0,0,0,6884,6884,0,6884,6884,6884,6884,0,0,0,0,0,0,6884,6884,6884,6884,6884,6884,6884,0,0,0,6884,0,0,0,6884,0,0,6884,6884,6884,6884,6884,0,0,0,6884,6884,6884,0,0,6884,6884,6884,6884,0,0,0,0,0,0,0,0,0,0,6884,6884,6884,6884,0,0,0,0,0,0,0,0,0,0,
0,0,0,0,0,0,0,0,0,0,0,0,0,0,0,0,6884,6884,6884,6884,0,0,0,0,0,0,0,0,0,0,0,0,0,0,6884,6884,6884,0,6884,6884,6884,6884,6884,6884,6884,6884,6884,0,0,0,0,0,0,0,0,0,0,0,0,0,6884,6884,6884,0,0,0,0,0,6884,0,0,0,0,6884,6884,6884,6884,0,0,0,0,0,0,0,0,6884,6884,6884,6884,6884,0,0,0,0,0,0,0,0,0,0,
0,0,0,0,0,0,0,0,0,0,0,0,0,0,0,0,6884,6884,6884,6884,0,0,0,0,6884,0,0,0,0,0,0,0,0,0,0,0,0,0,0,6884,6884,6884,6884,6884,6884,6884,6884,0,0,0,0,0,0,0,0,0,0,0,0,0,0,6884,6884,6884,6884,6884,6884,6884,6884,6884,6884,6884,6884,6884,6884,6884,6884,6884,6884,6884,0,0,0,0,6884,6884,6884,6884,6884,6884,0,0,0,0,0,0,0,0,0,0,
0,0,0,0,0,0,0,0,0,0,0,0,0,0,0,0,0,6884,6884,6884,0,0,0,0,0,0,0,0,0,0,0,0,0,0,0,0,0,0,0,6884,6884,0,6884,0,0,0,0,0,0,0,0,0,0,0,6884,6884,0,0,0,0,6884,6884,6884,6884,0,0,0,0,0,0,0,0,6884,6884,6884,6884,6884,6884,6884,6884,6884,6884,6884,0,6884,6884,6884,6884,6884,6884,0,0,0,0,0,0,0,0,0,0,
0,0,0,0,0,0,0,0,0,0,0,0,0,0,0,0,0,0,0,6884,6884,6884,6884,0,0,6884,6884,0,0,0,0,0,0,0,0,0,0,0,0,0,0,0,0,0,0,0,0,0,0,0,6884,6884,0,0,6884,6884,6884,6884,6884,6884,6884,0,0,0,0,0,0,0,0,0,0,0,0,6884,6884,6884,6884,6884,6884,6884,6884,6884,6884,6884,6884,6884,6884,6884,6884,0,0,0,0,0,0,0,0,0,0,0,
0,0,0,0,0,0,0,0,0,0,0,0,0,0,0,0,0,0,0,0,0,0,6884,6884,6884,6884,6884,0,0,6884,6884,0,0,0,0,0,0,0,0,0,0,0,0,0,0,0,0,6884,6884,0,6884,6884,6884,6884,6884,6884,6884,0,0,0,0,0,0,0,0,0,0,0,0,0,0,0,0,0,6884,6884,6884,6884,6884,6884,6884,6884,6884,6884,6884,6884,6884,6884,0,0,0,0,0,0,0,0,0,0,0,0,
0,0,0,0,0,0,0,0,0,0,0,0,0,0,0,0,0,0,0,0,0,0,0,0,6884,6884,6884,6884,0,0,0,0,0,6884,0,0,0,0,0,0,0,6884,6884,6884,6884,0,0,6884,6884,6884,6884,6884,6884,0,0,0,0,0,0,0,0,0,0,0,0,0,0,0,0,0,0,0,0,0,0,0,6884,6884,6884,6884,6884,6884,6884,6884,6884,6884,6884,6884,0,0,0,0,0,0,0,0,0,0,0,0,
0,0,0,0,0,0,0,0,0,0,0,0,0,0,0,0,0,0,0,0,0,0,0,0,0,0,0,6884,6884,6884,6884,0,0,0,0,0,0,0,0,0,0,6884,6884,6884,6884,6884,6884,6884,6884,6884,0,0,0,0,0,0,0,0,0,0,0,0,0,0,0,0,0,0,0,0,0,0,0,0,0,0,0,0,6884,6884,6884,6884,6884,6884,6884,6884,6884,0,0,0,0,0,0,0,0,0,0,0,0,0,
0,0,0,0,0,0,0,0,0,0,0,0,0,0,0,0,0,0,0,0,0,0,0,0,0,0,0,0,0,0,6884,6884,6884,6884,6884,6884,6884,6884,6884,6884,6884,6884,6884,6884,6884,6884,0,0,0,0,0,0,0,0,0,0,0,0,0,0,0,0,0,0,0,0,0,0,0,0,0,0,0,0,0,0,0,0,0,0,0,0,0,0,0,0,0,0,0,0,0,0,0,0,0,0,0,0,0,0,
0,0,0,0,0,0,0,0,0,0,0,0,0,0,0,0,0,0,0,0,0,0,0,0,0,0,0,0,0,0,0,0,0,0,0,0,0,0,0,0,0,0,0,0,0,0,0,0,0,0,0,0,0,0,0,0,0,0,0,0,0,0,0,0,0,0,0,0,0,0,0,0,0,0,0,0,0,0,0,0,0,0,0,0,0,0,0,0,0,0,0,0,0,0,0,0,0,0,0,0,
0,0,0,0,0,0,0,0,0,0,0,0,0,0,0,0,0,0,0,0,0,0,0,0,0,0,0,0,0,0,0,0,0,0,0,0,0,0,0,0,0,0,0,0,0,0,0,0,0,0,0,0,0,0,0,0,0,0,0,0,0,0,0,0,0,0,0,0,0,0,0,0,0,0,0,0,0,0,0,0,0,0,0,0,0,0,0,0,0,0,0,0,0,0,0,0,0,0,0,0,
0,0,0,0,0,0,0,0,0,0,0,0,0,0,0,0,0,0,0,0,0,0,0,0,0,0,0,0,0,0,0,0,0,0,0,0,0,0,0,0,0,0,0,0,0,0,0,0,0,0,0,0,0,0,0,0,0,0,0,0,0,0,0,0,0,0,0,0,0,0,0,0,0,0,0,0,0,0,0,0,0,0,0,0,0,0,0,0,0,0,0,0,0,0,0,0,0,0,0,0,
0,0,0,0,0,0,0,0,0,0,0,0,0,0,0,0,0,0,0,0,0,0,0,0,0,0,0,0,0,0,0,0,0,0,0,0,0,0,0,0,0,0,0,0,0,0,0,0,0,0,0,0,0,0,0,0,0,0,0,0,0,0,0,0,0,0,0,0,0,0,0,0,0,0,0,0,0,0,0,0,0,0,0,0,0,0,0,0,0,0,0,0,0,0,0,0,0,0,0,0,
0,0,0,0,0,0,0,0,0,0,0,0,0,0,0,0,0,0,0,0,0,0,0,0,0,0,0,0,0,0,0,0,0,0,0,0,0,0,0,0,0,0,0,0,0,0,0,0,0,0,0,0,0,0,0,0,0,0,0,0,0,0,0,0,0,0,0,0,0,0,0,0,0,0,0,0,0,0,0,0,0,0,0,0,0,0,0,0,0,0,0,0,0,0,0,0,0,0,0,0,
0,0,0,0,0,0,0,0,0,0,0,0,0,0,0,0,0,0,0,0,0,0,0,0,0,0,0,0,0,0,0,0,0,0,0,0,0,0,0,0,0,0,0,0,0,0,0,0,0,0,0,0,0,0,0,0,0,0,0,0,0,0,0,0,0,0,0,0,0,0,0,0,0,0,0,0,0,0,0,0,0,0,0,0,0,0,0,0,0,0,0,0,0,0,0,0,0,0,0,0,
0,0,0,0,0,0,0,0,0,0,0,0,0,0,0,0,0,0,0,0,0,0,0,0,0,0,0,0,0,0,0,0,0,0,0,0,0,0,0,0,0,0,0,0,0,0,0,0,0,0,0,0,0,0,0,0,0,0,0,0,0,0,0,0,0,0,0,0,0,0,0,0,0,0,0,0,0,0,0,0,0,0,0,0,0,0,0,0,0,0,0,0,0,0,0,0,0,0,0,0,
0,0,0,0,0,0,0,0,0,0,0,0,0,0,0,0,0,0,0,0,0,0,0,0,0,0,0,0,0,0,0,0,0,0,0,0,0,0,0,0,0,0,0,0,0,0,0,0,0,0,0,0,0,0,0,0,0,0,0,0,0,0,0,0,0,0,0,0,0,0,0,0,0,0,0,0,0,0,0,0,0,0,0,0,0,0,0,0,0,0,0,0,0,0,0,0,0,0,0,0,
0,0,0,0,0,0,0,0,0,0,0,0,0,0,0,0,0,0,0,0,0,0,0,0,0,0,0,0,0,0,0,0,0,0,0,0,0,0,0,0,0,0,0,0,0,0,0,0,0,0,0,0,0,0,0,0,0,0,0,0,0,0,0,0,0,0,0,0,0,0,0,0,0,0,0,0,0,0,0,0,0,0,0,0,0,0,0,0,0,0,0,0,0,0,0,0,0,0,0,0,
0,0,0,0,0,0,0,0,0,0,0,0,0,0,0,0,0,0,0,0,0,0,0,0,0,0,0,0,0,0,0,0,0,0,0,0,0,0,0,0,0,0,0,0,0,0,0,0,0,0,0,0,0,0,0,0,0,0,0,0,0,0,0,0,0,0,0,0,0,0,0,0,0,0,0,0,0,0,0,0,0,0,0,0,0,0,0,0,0,0,0,0,0,0,0,0,0,0,0,0
</data>
 </layer>
 <layer id="9" name="5 WARSTWA - GRAFIKI POSTACI I PRZECIWNIKÓW" width="100" height="100">
  <data encoding="csv">
0,0,0,0,0,0,0,0,0,0,0,0,0,0,0,0,0,0,0,0,0,0,0,0,0,0,0,6890,6890,6890,0,0,0,0,0,0,0,6889,0,4589,0,0,0,0,0,0,0,0,0,0,0,0,0,0,0,0,0,0,0,0,0,0,0,0,0,0,0,0,0,0,0,0,0,0,0,0,0,0,0,0,0,0,0,0,0,0,0,0,0,0,0,0,0,0,0,0,0,0,0,0,
0,6654,6658,6659,0,5110,0,0,0,0,0,0,0,0,0,0,0,0,0,0,0,0,0,0,0,0,0,6891,6891,6891,0,0,0,0,0,0,6891,6890,6892,0,0,0,0,0,0,0,0,0,0,0,0,0,0,0,0,0,0,0,0,0,0,0,0,0,0,0,0,0,0,0,0,0,0,0,0,0,0,0,0,0,0,0,0,0,0,0,0,0,0,0,0,0,0,0,0,0,0,0,0,0,
0,6655,6656,6657,0,6676,0,0,0,0,0,0,0,0,0,0,0,0,0,0,4756,4757,0,0,0,0,0,6892,6892,6892,0,0,0,0,0,0,0,0,0,0,0,0,0,0,0,0,0,0,0,0,0,0,0,0,0,0,0,0,0,0,0,0,0,0,0,0,0,0,0,0,0,0,0,0,0,0,0,0,0,0,0,0,0,0,0,0,0,0,0,0,0,0,0,0,0,0,0,0,0,0,
0,2684361215,0,0,0,0,0,0,0,0,0,0,0,0,0,0,0,0,5206,0,6652,6650,6651,5188,0,0,0,6889,6889,6889,0,0,0,0,0,0,0,0,0,0,0,0,0,0,0,0,0,0,0,0,0,0,0,0,0,0,0,0,0,0,0,0,0,0,0,0,0,0,0,0,0,0,0,0,0,0,0,0,0,0,0,0,0,0,0,0,0,0,0,0,0,0,0,0,0,0,0,0,0,0,
0,3758103039,0,0,0,0,0,0,0,0,0,0,0,0,0,0,0,0,0,0,0,0,0,0,0,0,0,0,0,0,0,0,0,0,0,0,0,0,0,0,0,0,0,0,0,0,0,0,0,0,0,0,0,0,0,0,0,0,0,0,0,0,0,0,0,0,0,0,0,0,0,0,0,0,0,0,0,0,0,0,0,0,0,0,0,0,0,0,0,0,0,0,0,0,0,0,0,0,0,0,
0,1073748479,0,0,0,0,0,0,0,0,0,0,0,0,0,0,6671,5305,0,0,0,0,0,0,0,0,0,0,0,0,0,0,0,0,0,0,0,0,0,0,0,0,0,0,0,0,0,0,0,0,0,0,0,0,0,0,0,0,0,0,0,0,0,0,0,0,0,0,0,0,0,0,0,0,0,0,0,0,0,0,0,0,0,0,0,0,0,0,0,0,0,0,0,0,0,0,0,0,0,0,
0,0,0,0,0,0,0,0,0,0,0,0,0,0,0,0,0,0,0,0,0,0,0,0,0,0,0,0,0,6887,6887,6887,6887,0,0,0,0,0,0,0,0,0,0,0,0,0,0,0,0,0,0,0,0,0,0,0,0,0,0,0,0,0,0,0,0,0,0,0,0,0,0,0,0,0,0,0,0,0,0,0,0,0,0,0,0,0,0,0,0,0,0,0,0,0,0,0,0,0,0,0,
0,0,0,0,0,0,0,0,0,0,0,0,0,0,0,0,0,0,0,5251,5252,5255,5256,0,4819,4820,4823,4824,0,0,0,0,0,0,0,0,0,0,0,0,0,0,0,0,0,0,0,0,0,0,0,0,0,0,0,0,0,0,0,0,0,0,0,0,0,0,0,0,0,0,0,0,0,0,0,0,0,0,0,0,0,0,0,0,0,0,0,0,0,0,0,0,0,0,0,0,0,0,0,0,
0,0,0,0,0,0,0,0,0,0,0,0,0,0,0,0,0,0,0,0,0,0,0,0,0,0,0,0,0,0,0,0,0,0,0,0,0,0,0,0,0,0,0,0,0,0,0,0,0,0,0,0,0,0,0,0,0,0,0,0,0,0,0,0,0,0,0,0,0,0,0,0,0,0,0,0,0,0,0,0,0,0,0,0,0,0,0,0,0,0,0,0,0,0,0,0,0,0,0,0,
0,0,0,0,0,0,0,0,0,0,0,0,0,0,0,0,0,0,0,0,0,0,0,0,0,0,0,0,0,0,0,0,0,0,0,0,0,0,0,0,0,0,0,0,0,0,0,0,0,0,0,0,0,0,0,0,0,0,0,0,0,0,0,0,0,0,0,0,0,0,0,0,0,0,0,0,0,0,0,0,0,0,0,0,0,0,0,0,0,0,0,0,0,0,0,0,0,0,0,0,
0,0,0,0,0,0,0,0,0,0,0,0,0,0,0,0,0,0,0,0,0,0,0,0,0,0,0,0,0,0,0,0,0,0,0,0,0,0,0,0,0,0,0,0,0,0,0,0,0,0,0,0,0,0,0,0,0,0,0,0,0,0,0,0,0,0,0,0,0,0,0,0,0,0,0,0,0,0,0,0,0,0,0,0,0,0,0,0,0,0,0,0,0,0,0,0,0,0,0,0,
0,0,0,0,0,0,0,0,0,0,0,0,0,0,0,0,0,0,0,0,0,0,0,0,0,0,0,0,0,0,0,0,0,0,0,0,0,0,0,0,0,0,0,0,0,0,0,0,0,0,0,0,0,0,0,0,0,0,0,0,0,0,0,0,0,0,0,0,0,0,0,0,0,0,0,0,0,0,0,0,0,0,0,0,0,0,0,0,0,0,0,0,0,0,0,0,0,0,0,0,
0,0,0,0,0,0,0,0,0,0,0,0,0,0,0,0,0,0,0,0,0,0,0,0,0,0,0,0,0,0,0,0,0,0,0,0,0,0,0,0,0,0,0,0,0,0,0,0,0,0,0,0,0,0,0,0,0,0,0,0,0,0,0,0,0,0,0,0,0,0,0,0,0,0,0,0,0,0,0,0,0,0,0,0,0,0,0,0,0,0,0,0,0,0,0,0,0,0,0,0,
0,0,0,0,0,0,0,0,0,0,0,0,0,0,0,0,0,0,0,0,0,0,0,0,0,0,0,0,0,0,0,0,0,0,0,0,0,0,0,0,0,0,0,0,0,0,0,0,0,0,0,0,0,0,0,0,0,0,0,0,0,0,0,0,0,0,0,0,0,0,0,0,0,0,0,0,0,0,0,0,0,0,0,0,0,0,0,0,0,0,0,0,0,0,0,0,0,0,0,0,
0,0,0,0,0,0,0,0,0,0,0,0,0,0,0,0,0,0,0,0,0,0,0,0,0,0,0,0,0,0,0,0,0,0,0,0,0,0,0,0,0,0,0,0,0,0,0,0,0,0,0,0,0,0,0,0,0,0,0,0,0,0,0,0,0,0,0,0,0,0,0,0,0,0,0,0,0,0,0,0,0,0,0,0,0,0,0,0,0,0,0,0,0,0,0,0,0,0,0,0,
0,0,0,0,0,0,0,0,0,0,0,0,0,0,0,0,0,0,0,0,0,0,0,0,0,0,0,0,0,0,0,0,0,0,0,0,0,0,0,0,0,0,0,0,0,0,0,0,0,0,0,0,0,0,0,0,0,0,0,0,0,0,0,0,0,0,0,0,0,0,0,0,0,0,0,0,0,0,0,0,0,0,0,0,0,0,0,0,0,0,0,0,0,0,0,0,0,0,0,0,
0,0,0,0,0,0,0,0,0,0,0,0,0,0,0,0,0,0,0,0,0,0,0,0,0,0,0,0,0,0,0,0,0,0,0,0,0,0,0,0,0,0,0,0,0,0,0,0,0,0,0,0,0,0,0,0,0,0,0,0,0,0,0,0,0,0,0,0,0,0,0,0,0,0,0,0,0,0,0,0,0,0,0,0,0,0,0,0,0,0,0,0,0,0,0,0,0,0,0,0,
0,0,0,0,0,0,0,0,0,0,0,0,0,0,0,0,0,0,0,0,0,0,0,0,0,0,0,0,0,0,0,0,0,0,0,0,0,0,0,0,0,0,0,0,0,0,0,0,0,0,0,0,0,0,0,0,0,0,0,0,0,0,0,0,0,0,0,0,0,0,0,0,0,0,0,0,0,0,0,0,0,0,0,0,0,0,0,0,0,0,0,0,0,0,0,0,0,0,0,0,
0,0,0,0,0,0,0,0,0,0,0,0,0,0,0,0,0,0,0,0,0,0,0,0,0,0,0,0,0,0,0,0,0,0,0,0,0,0,0,0,0,0,0,0,0,0,0,0,0,0,0,0,0,0,0,0,0,0,0,0,0,0,0,0,0,0,0,0,0,0,0,0,0,0,0,0,0,0,0,0,0,0,0,0,0,0,0,0,0,0,0,0,0,0,0,0,0,0,0,0,
0,0,0,0,0,0,0,0,0,0,0,0,0,0,0,0,0,0,0,0,0,0,0,0,0,0,0,0,0,0,0,0,0,0,0,0,0,0,0,0,0,0,0,0,0,0,0,0,0,0,0,0,0,0,0,0,0,0,0,0,0,0,0,0,0,0,0,0,0,0,0,0,0,0,0,0,0,0,0,0,0,0,0,0,0,0,0,0,0,0,0,0,0,0,0,0,0,0,0,0,
0,0,0,0,0,0,0,0,0,0,0,0,0,0,0,0,0,0,0,0,0,0,0,0,0,0,0,0,0,0,0,0,0,0,0,0,0,0,0,0,0,0,0,0,0,0,0,0,0,0,0,0,0,0,0,0,0,0,0,0,0,0,0,0,0,0,0,0,0,0,0,0,0,0,0,0,0,0,0,0,0,0,0,0,0,0,0,0,0,0,0,0,0,0,0,0,0,0,0,0,
0,0,0,0,0,0,0,0,0,0,0,0,0,0,0,0,0,0,0,0,0,0,0,0,0,0,0,0,0,0,0,0,0,0,0,0,0,0,0,0,0,0,0,0,0,0,0,0,0,0,0,0,0,0,0,0,0,0,0,0,0,0,0,0,0,0,0,0,0,0,0,0,0,0,0,0,0,0,0,0,0,0,0,0,0,0,0,0,0,0,0,0,0,0,0,0,0,0,0,0,
0,0,0,0,0,0,0,0,0,0,0,0,0,0,0,0,0,0,0,0,0,0,0,0,0,0,0,0,0,0,0,0,0,0,0,0,0,0,0,0,0,0,0,0,0,0,0,0,0,0,0,0,0,0,0,0,0,0,0,0,0,0,0,0,0,0,0,0,0,0,0,0,0,0,0,0,0,0,0,0,0,0,0,0,0,0,0,0,0,0,0,0,0,0,0,0,0,0,0,0,
0,0,0,0,0,0,0,0,0,0,0,0,0,0,0,0,0,0,0,0,0,0,0,0,0,0,0,0,0,0,0,0,0,0,0,0,0,0,0,0,0,0,0,0,0,0,0,0,0,0,0,0,0,0,0,0,0,0,0,0,0,0,0,0,0,0,0,0,0,0,0,0,0,0,0,0,0,0,0,0,0,0,0,0,0,0,0,0,0,0,0,0,0,0,0,0,0,0,0,0,
0,0,0,0,0,0,0,0,0,0,0,0,0,0,0,0,0,0,0,0,0,0,0,0,0,0,0,0,0,0,0,0,0,0,0,0,0,0,0,0,0,0,0,0,0,0,0,0,0,0,0,0,0,0,0,0,0,0,0,0,0,0,0,0,0,0,0,0,0,0,0,0,0,0,0,0,0,0,0,0,0,0,0,0,0,0,0,0,0,0,0,0,0,0,0,0,0,0,0,0,
0,0,0,0,0,0,0,0,0,0,0,0,0,0,0,0,0,0,0,0,0,0,0,0,0,0,0,0,0,0,0,0,0,0,0,0,0,0,0,0,0,0,0,0,0,0,0,0,0,0,0,0,0,0,0,0,0,0,0,0,0,0,0,0,0,0,0,0,0,0,0,0,0,0,0,0,0,0,0,0,0,0,0,0,0,0,0,0,0,0,0,0,0,0,0,0,0,0,0,0,
0,0,0,0,0,0,0,0,0,0,0,0,0,0,0,0,0,0,0,0,0,0,0,0,0,0,0,0,0,0,0,0,0,0,0,0,0,0,0,0,0,0,0,0,0,0,0,0,0,0,0,0,0,0,0,0,0,0,0,0,0,0,0,0,0,0,0,0,0,0,0,0,0,0,0,0,0,0,0,0,0,0,0,0,0,0,0,0,0,0,0,0,0,0,0,0,0,0,0,0,
0,0,0,0,0,0,0,0,0,0,0,0,0,0,0,0,0,0,0,0,0,0,0,0,0,0,0,0,0,0,0,0,0,0,0,0,0,0,0,0,0,0,0,0,0,0,0,0,0,0,0,0,0,0,0,0,0,0,0,0,0,0,0,0,0,0,0,0,0,0,0,0,0,0,0,0,0,0,0,0,0,0,0,0,0,0,0,0,0,0,0,0,0,0,0,0,0,0,0,0,
0,0,0,0,0,0,0,0,0,0,0,0,0,0,0,0,0,0,0,0,0,0,0,0,0,0,0,0,0,0,0,0,0,0,0,0,0,0,0,0,0,0,0,0,0,0,0,0,0,0,0,0,0,0,0,0,0,0,0,0,0,0,0,0,0,0,0,0,0,0,0,0,0,0,0,0,0,0,0,0,0,0,0,0,0,0,0,0,0,0,0,0,0,0,0,0,0,0,0,0,
0,0,0,0,0,0,0,0,0,0,0,0,0,0,0,0,0,0,0,0,0,0,0,0,0,0,0,0,0,0,0,0,0,0,0,0,0,0,0,0,0,0,0,0,0,0,0,0,0,0,0,0,0,0,0,0,0,0,0,0,0,0,0,0,0,0,0,0,0,0,0,0,0,0,0,0,0,0,0,0,0,0,0,0,0,0,0,0,0,0,0,0,0,0,0,0,0,0,0,0,
0,0,0,0,0,0,0,0,0,0,0,0,0,0,0,0,0,0,0,0,0,0,0,0,0,0,0,0,0,0,0,0,0,0,0,0,0,0,0,0,0,0,0,0,0,0,0,0,0,0,0,0,0,0,0,0,0,0,0,0,0,0,0,0,0,0,0,0,0,0,0,0,0,0,6873,6873,6873,6873,6873,6873,6873,6873,6873,6873,6873,6873,0,0,0,0,0,0,0,0,0,0,0,0,0,0,
0,0,0,0,0,0,0,0,0,0,0,0,0,0,0,0,0,0,0,0,0,0,0,0,0,0,0,0,0,0,0,0,0,0,0,0,0,0,0,0,0,0,0,0,0,0,0,0,0,0,0,0,0,0,0,0,0,0,0,0,0,0,0,0,0,0,0,0,0,0,0,0,0,0,0,0,0,0,0,0,0,0,0,0,0,0,0,0,0,0,0,0,0,0,0,0,0,0,0,0,
0,0,0,0,0,0,0,0,0,0,0,0,0,0,0,0,0,0,0,0,0,0,0,0,0,0,0,0,0,0,0,0,0,0,0,0,0,0,0,0,0,0,0,0,0,0,0,0,0,0,0,0,0,0,0,0,0,0,0,0,0,0,0,0,0,0,0,0,0,0,0,0,0,0,0,0,0,0,0,0,0,0,0,0,0,0,0,0,0,0,0,0,0,0,0,0,0,0,0,0,
0,0,0,0,0,0,0,0,0,0,0,0,0,0,0,0,0,0,0,0,0,0,0,0,0,0,0,0,0,0,0,0,0,0,0,0,0,0,0,0,0,0,0,0,0,0,0,0,0,0,0,0,0,0,0,0,0,0,0,0,0,0,0,0,0,0,0,0,0,0,0,0,0,0,0,0,0,0,0,0,0,0,0,0,0,0,0,0,0,0,0,0,0,0,0,0,0,0,0,0,
0,0,0,0,0,0,0,0,0,0,0,0,0,0,0,0,0,0,0,0,0,0,0,0,0,0,0,0,0,0,0,0,0,0,0,0,0,0,0,0,0,0,0,0,0,0,0,0,0,0,0,0,0,0,0,0,0,0,0,0,0,0,0,0,0,0,0,0,0,0,0,0,0,0,0,0,0,0,0,0,0,0,0,0,0,0,0,0,0,0,0,0,0,0,0,0,0,0,0,0,
0,0,0,0,0,0,0,0,0,0,0,0,0,0,0,0,0,0,0,0,0,0,0,0,0,0,0,0,0,0,0,0,0,0,0,0,0,0,0,0,0,0,0,0,0,0,0,0,0,0,0,0,0,0,0,0,0,0,0,0,0,0,0,0,0,0,0,0,0,0,0,0,0,0,0,0,0,0,0,0,0,0,0,0,0,0,0,0,0,0,0,0,0,0,0,0,0,0,0,0,
0,0,0,0,0,0,0,0,0,0,0,0,0,0,0,0,0,0,0,0,0,0,0,0,0,0,0,0,0,0,0,0,0,0,0,0,0,0,0,0,0,0,0,0,0,0,0,0,0,0,0,0,0,0,0,0,0,0,0,0,0,0,0,0,0,0,0,0,0,0,0,0,0,0,0,0,0,0,0,0,0,0,0,0,0,0,0,0,0,0,0,0,0,0,0,0,0,0,0,0,
0,0,0,0,0,0,0,0,0,0,0,0,0,0,0,0,0,0,0,0,0,0,0,0,0,0,0,0,0,0,0,0,0,0,0,0,0,0,0,0,0,0,0,0,0,0,0,0,0,0,0,0,0,0,0,0,0,0,0,0,0,0,0,0,0,0,0,0,0,0,0,0,0,0,0,0,0,0,0,0,0,0,0,0,0,0,0,4709,0,0,0,0,0,0,0,0,0,0,0,0,
0,0,0,0,0,0,0,0,0,0,0,0,0,0,0,0,0,0,0,0,0,0,0,0,0,0,0,0,0,0,0,0,0,0,0,0,0,0,0,0,0,0,0,0,0,0,0,0,0,0,0,0,0,0,0,0,0,0,0,0,0,0,0,0,0,0,0,0,0,0,0,0,0,0,0,0,0,0,0,0,0,0,0,0,0,0,0,0,0,0,0,0,0,0,0,0,0,0,0,0,
0,0,0,0,0,0,0,0,0,0,0,0,0,0,0,0,0,0,0,0,0,0,0,0,0,0,0,0,0,0,0,0,0,0,0,0,0,0,0,0,0,0,0,0,0,0,0,0,0,0,0,0,0,0,0,0,0,0,0,0,0,0,0,0,0,0,0,0,0,0,0,0,0,0,0,0,0,0,0,0,0,0,0,0,0,0,0,0,0,0,0,0,0,0,0,0,0,0,0,0,
0,0,0,0,0,0,0,0,0,0,0,0,0,0,0,0,0,0,0,0,0,0,0,0,0,0,0,0,0,0,0,0,0,0,0,0,0,0,0,0,0,0,0,0,0,0,0,0,0,0,0,0,0,0,0,0,0,0,0,0,0,0,0,0,0,0,0,0,0,0,0,0,0,0,0,0,0,0,0,0,0,0,0,0,0,0,0,0,0,0,0,0,0,0,0,0,0,0,0,0,
0,0,0,0,0,0,0,0,0,0,0,0,0,0,0,0,0,0,0,0,0,0,0,0,0,0,0,0,0,0,0,0,0,0,0,0,0,0,0,0,0,0,0,0,0,0,0,0,0,0,0,0,0,0,0,0,0,0,0,0,0,0,0,0,0,0,0,0,0,0,0,0,0,0,0,0,0,0,0,0,0,0,0,0,0,0,0,0,0,0,0,0,0,0,0,0,0,0,0,0,
0,0,0,0,0,0,0,0,0,0,0,0,0,0,0,0,0,0,0,0,0,0,0,0,0,0,0,0,0,0,0,0,0,0,0,0,0,0,0,0,0,0,0,0,0,0,0,0,0,0,0,0,0,0,0,0,0,0,0,0,0,0,0,0,0,0,0,0,0,0,0,0,0,0,0,0,0,0,0,0,0,0,0,0,0,0,0,0,0,0,0,0,0,0,0,0,0,0,0,0,
0,0,0,0,0,0,0,0,0,0,0,0,0,0,0,0,0,0,0,0,0,0,0,0,0,0,0,0,0,0,0,0,0,0,0,0,0,0,0,0,0,0,0,0,0,0,0,0,0,0,0,0,0,0,0,0,0,0,0,0,0,0,0,0,0,0,0,0,0,0,0,0,0,0,0,0,0,0,0,0,0,0,0,0,0,0,0,0,0,0,0,0,0,0,0,0,0,0,0,0,
0,0,0,0,0,0,0,0,0,0,0,0,0,0,0,0,0,0,0,0,0,0,0,0,0,0,0,0,0,0,0,0,0,0,0,0,0,0,0,0,0,0,0,0,0,0,0,0,0,0,0,0,0,0,0,0,0,0,0,0,0,0,0,0,0,0,0,0,0,0,0,0,0,0,0,0,0,0,0,0,0,0,0,0,0,0,0,0,0,0,0,0,0,0,0,0,0,0,0,0,
0,0,0,0,0,0,0,0,0,0,0,0,0,0,0,0,0,0,0,0,0,0,0,0,0,0,0,0,0,0,0,0,0,0,0,0,0,0,0,0,0,0,0,0,0,0,0,0,0,0,0,0,0,0,0,0,0,0,0,0,0,0,0,0,0,0,0,0,0,0,0,0,0,0,0,0,0,0,0,0,0,0,0,0,0,0,0,0,0,0,0,0,0,0,0,0,0,0,0,0,
0,0,0,0,0,0,0,0,0,0,0,0,0,0,0,0,0,0,0,0,0,0,0,0,0,0,0,0,0,0,0,0,0,0,0,0,0,0,0,0,0,0,0,0,0,0,0,0,0,0,0,0,0,0,0,0,0,0,0,0,0,0,0,0,0,0,0,0,0,0,0,0,0,0,0,0,0,0,0,0,0,0,0,0,0,0,0,0,0,0,0,0,0,0,0,0,0,0,0,0,
0,0,0,0,0,0,0,0,0,0,0,0,0,0,0,0,0,0,0,0,0,0,0,0,0,0,0,0,0,0,0,0,0,0,0,0,0,0,0,0,0,0,0,0,0,0,0,0,0,0,0,0,0,0,0,0,0,0,0,0,0,0,0,0,0,0,0,0,0,0,0,0,0,0,0,0,0,0,0,0,0,0,0,0,0,0,0,0,0,0,0,0,0,0,0,0,0,0,0,0,
0,0,0,0,0,0,0,0,0,0,0,0,0,0,0,0,0,0,0,0,0,0,0,0,0,0,0,0,0,0,0,0,0,0,0,0,0,0,0,0,0,0,0,0,0,0,0,0,0,0,0,0,0,0,0,0,0,0,0,0,0,0,0,0,0,0,0,0,0,0,0,0,0,0,0,0,0,0,0,0,0,0,0,0,0,0,0,0,0,0,0,0,0,0,0,0,0,0,0,0,
0,0,0,0,0,0,0,0,0,0,0,0,0,0,0,0,0,0,0,0,0,0,0,0,0,0,0,0,0,0,0,0,0,0,0,0,0,0,0,0,0,0,0,0,0,0,0,0,0,0,0,0,0,0,0,0,0,0,0,0,0,0,0,0,0,0,0,0,0,0,0,0,0,0,0,0,0,0,0,0,0,0,0,0,0,0,0,0,0,0,0,0,0,0,0,0,0,0,0,0,
0,0,0,0,0,0,0,0,0,0,0,0,0,0,0,0,0,0,0,0,0,0,0,0,0,0,0,0,0,0,0,0,0,0,0,0,0,0,0,0,0,0,0,0,0,0,0,0,0,0,0,0,0,0,0,0,0,0,0,0,0,0,0,0,0,0,0,0,0,0,0,0,0,0,0,0,0,0,0,0,0,0,0,0,0,0,0,0,0,0,0,0,0,0,0,0,0,0,0,0,
0,0,0,0,0,0,0,0,0,0,0,0,0,0,0,0,0,0,0,0,0,0,0,0,0,0,0,0,0,0,0,0,0,0,0,0,0,0,0,0,0,0,0,0,0,0,0,0,0,0,0,0,0,0,0,0,0,0,0,0,0,0,0,0,0,0,0,0,0,0,0,0,0,0,0,0,0,0,0,0,0,0,0,0,0,0,0,0,0,0,0,0,0,0,0,0,0,0,0,0,
0,0,0,0,0,0,0,0,0,0,0,0,0,0,0,0,0,0,0,0,0,0,0,0,0,0,0,0,0,0,0,0,0,0,0,0,0,0,0,0,0,0,0,0,0,0,0,0,0,0,0,0,0,0,0,0,0,0,0,0,0,0,0,0,0,0,0,0,0,0,0,0,0,0,0,0,0,0,0,0,0,0,0,0,0,0,0,0,0,0,0,0,0,0,0,0,0,0,0,0,
0,0,0,0,0,0,0,0,0,0,0,0,0,0,0,0,0,0,0,0,0,0,0,0,0,0,0,0,0,0,0,0,0,0,0,0,0,0,0,0,0,0,0,0,0,0,0,0,0,0,0,0,0,0,0,0,0,0,0,0,0,0,0,0,0,0,0,0,0,0,0,0,0,0,0,0,0,0,0,0,0,0,0,0,0,0,0,0,0,0,0,0,0,0,0,0,0,0,0,0,
0,0,0,0,0,0,0,0,0,0,0,0,0,0,0,0,0,0,0,0,0,0,0,0,0,0,0,0,0,0,0,0,0,0,0,0,0,0,0,0,0,0,0,0,0,0,0,0,0,0,0,0,0,0,0,0,0,0,0,0,0,0,0,0,0,0,0,0,0,0,0,0,0,0,0,0,0,0,0,0,0,0,0,0,0,0,0,0,0,0,0,0,0,0,0,0,0,0,0,0,
0,0,0,0,0,0,0,0,0,0,0,0,0,0,0,0,0,0,0,0,0,0,0,0,0,0,0,0,0,0,0,0,0,0,0,0,0,0,0,0,0,0,0,0,0,0,0,0,0,0,0,0,0,0,0,0,0,0,0,0,0,0,0,0,0,0,0,0,0,0,0,0,0,0,0,0,0,0,0,0,0,0,0,0,0,0,0,0,0,0,0,0,0,0,0,0,0,0,0,0,
0,0,0,0,0,0,0,0,0,0,0,0,0,0,0,0,0,0,0,0,0,0,0,0,0,0,0,0,0,0,0,0,0,0,0,0,0,0,0,0,0,0,0,0,0,0,0,0,0,0,0,0,0,0,0,0,0,0,0,0,0,0,0,0,0,0,0,0,0,0,0,0,0,0,0,0,0,0,0,0,0,0,0,0,0,0,0,0,0,0,0,0,0,0,0,0,0,0,0,0,
0,0,0,0,0,0,0,0,0,0,0,0,0,0,0,0,0,0,0,0,0,0,0,0,0,0,0,0,0,0,0,0,0,0,0,0,0,0,0,0,0,0,0,0,0,0,0,0,0,0,0,0,0,0,0,0,0,0,0,0,0,0,0,0,0,0,0,0,0,0,0,0,0,0,0,0,0,0,0,0,0,0,0,0,0,0,0,0,0,0,0,0,0,0,0,0,0,0,0,0,
0,0,0,0,0,0,0,0,0,0,0,0,0,0,0,0,0,0,0,0,0,0,0,0,0,0,0,0,0,0,0,0,0,0,0,0,0,0,0,0,0,0,0,0,0,0,0,0,0,0,0,0,0,0,0,0,0,0,0,0,0,0,0,0,0,0,0,0,0,0,0,0,0,0,0,0,0,0,0,0,0,0,0,0,0,0,0,0,0,0,0,0,0,0,0,0,0,0,0,0,
0,0,0,0,0,0,0,0,0,0,0,0,0,0,0,0,0,0,0,0,0,0,0,0,0,0,0,0,0,0,0,0,0,0,0,0,0,0,0,0,0,0,0,0,0,0,0,0,0,0,0,0,0,0,0,0,0,0,0,0,0,0,0,0,0,0,0,0,0,0,0,0,0,0,0,0,0,0,0,0,0,0,0,0,0,0,0,0,0,0,0,0,0,0,0,0,0,0,0,0,
0,0,0,0,0,0,0,0,0,0,0,0,0,0,0,0,0,0,0,0,0,0,0,0,0,0,0,0,0,0,0,0,0,0,0,0,0,0,0,0,0,0,0,0,0,0,0,0,0,0,0,0,0,0,0,0,0,0,0,0,0,0,0,0,0,0,0,0,0,0,0,0,0,0,0,0,0,0,0,0,0,0,0,0,0,0,0,0,0,0,0,0,0,0,0,0,0,0,0,0,
0,0,0,0,0,0,0,0,0,0,0,0,0,0,0,0,0,0,0,0,0,0,0,0,0,0,0,0,0,0,0,0,0,0,0,0,0,0,0,0,0,0,0,0,0,0,0,0,0,0,0,0,0,0,0,0,0,0,0,0,0,0,0,0,0,0,0,0,0,0,0,0,0,0,0,0,0,0,0,0,0,0,0,0,0,0,0,0,0,0,0,0,0,0,0,0,0,0,0,0,
0,0,0,0,0,0,0,0,0,0,0,0,0,0,0,0,0,0,0,0,0,0,0,0,0,0,0,0,0,0,0,0,0,0,0,0,0,0,0,0,0,0,0,0,0,0,0,0,0,0,0,0,0,0,0,0,0,0,0,0,0,0,0,0,0,0,0,0,0,0,0,0,0,0,0,0,0,0,0,0,0,0,0,0,0,0,0,0,0,0,0,0,0,0,0,0,0,0,0,0,
0,0,0,0,0,0,0,0,0,0,0,0,0,0,0,0,0,0,0,0,0,0,0,0,0,0,0,0,0,0,0,0,0,0,0,0,0,0,0,0,0,0,0,0,0,0,0,0,0,0,0,0,0,0,0,0,0,0,0,0,0,0,0,0,0,0,0,0,0,0,0,0,0,0,0,0,0,0,0,0,0,0,0,0,0,0,0,0,0,0,0,0,0,0,0,0,0,0,0,0,
0,0,0,0,0,0,0,0,0,0,0,0,0,0,0,0,0,0,0,0,0,0,0,0,0,0,0,0,0,0,0,0,0,0,0,0,0,0,0,0,0,0,0,0,0,0,0,0,0,0,0,0,0,0,0,0,0,0,0,0,0,0,0,0,0,0,0,0,0,0,0,0,0,0,0,0,0,0,0,0,0,0,0,0,0,0,0,0,0,0,0,0,0,0,0,0,0,0,0,0,
0,0,0,0,0,0,0,0,0,0,0,0,0,0,0,0,0,0,0,0,0,0,0,0,0,0,0,0,0,0,0,0,0,0,0,0,0,0,0,0,0,0,0,0,0,0,0,0,0,0,0,0,0,0,0,0,0,0,0,0,0,0,0,0,0,0,0,0,0,0,0,0,0,0,0,0,0,0,0,0,0,0,0,0,0,0,0,0,0,0,0,0,0,0,0,0,0,0,0,0,
0,0,0,0,0,0,0,0,0,0,0,0,0,0,0,0,0,0,0,0,0,0,0,0,0,0,0,0,0,0,0,0,0,0,0,0,0,0,0,0,0,0,0,0,0,0,0,0,0,0,0,0,0,0,0,0,0,0,0,0,0,0,0,0,0,0,0,0,0,0,0,0,0,0,0,0,0,0,0,0,0,0,0,0,0,0,0,0,0,0,0,0,0,0,0,0,0,0,0,0,
0,0,0,0,0,0,0,0,0,0,0,0,0,0,0,0,0,0,0,0,0,0,0,0,0,0,0,0,0,0,0,0,0,0,0,0,0,0,0,0,0,0,0,0,0,0,0,0,0,0,0,0,0,0,0,0,0,0,0,0,0,0,0,0,0,0,0,0,0,0,0,0,0,0,0,0,0,0,0,0,0,0,0,0,0,0,0,0,0,0,0,0,0,0,0,0,0,0,0,0,
0,0,0,0,0,0,0,0,0,0,0,0,0,0,0,0,0,0,0,0,0,0,0,0,0,0,0,0,0,0,0,0,0,0,0,0,0,0,0,0,0,0,0,0,0,0,0,0,0,0,0,0,0,0,0,0,0,0,0,0,0,0,0,0,0,0,0,0,0,0,0,0,0,0,0,0,0,0,0,0,0,0,0,0,0,0,0,0,0,0,0,0,0,0,0,0,0,0,0,0,
0,0,0,0,0,0,0,0,0,0,0,0,0,0,0,0,0,0,0,0,0,0,0,0,0,0,0,0,0,0,0,0,0,0,0,0,0,0,0,0,0,0,0,0,0,0,0,0,0,0,0,0,0,0,0,0,0,0,0,0,0,0,0,0,0,0,0,0,0,0,0,0,0,0,0,0,0,0,0,0,0,0,0,0,0,0,0,0,0,0,0,0,0,0,0,0,0,0,0,0,
0,0,0,0,0,0,0,0,0,0,0,0,0,0,0,0,0,0,0,0,0,0,0,0,0,0,0,0,0,0,0,0,0,0,0,0,0,0,0,0,0,0,0,0,0,0,0,0,0,0,0,0,0,0,0,0,0,0,0,0,0,0,0,0,0,0,0,0,0,0,0,0,0,0,0,0,0,0,0,0,0,0,0,0,0,0,0,0,0,0,0,0,0,0,0,0,0,0,0,0,
0,0,0,0,0,0,0,0,0,0,0,0,0,0,0,0,0,0,0,0,0,0,0,0,0,0,0,0,0,0,0,0,0,0,0,0,0,0,0,0,0,0,0,0,0,0,0,0,0,0,0,0,0,0,0,0,0,0,0,0,0,0,0,0,0,0,0,0,0,0,0,0,0,0,0,0,0,0,0,0,0,0,0,0,0,0,0,0,0,0,0,0,0,0,0,0,0,0,0,0,
0,0,0,0,0,0,0,0,0,0,0,0,0,0,0,0,0,0,0,0,0,0,0,0,0,0,0,0,0,0,0,0,0,0,0,0,0,0,0,0,0,0,0,0,0,0,0,0,0,0,0,0,0,0,0,0,0,0,0,0,0,0,0,0,0,0,0,0,0,0,0,0,0,0,0,0,0,0,0,0,0,0,0,0,0,0,0,0,0,0,0,0,0,0,0,0,0,0,0,0,
0,0,0,0,0,0,0,0,0,0,0,0,0,0,0,0,0,0,0,0,0,0,0,0,0,0,0,0,0,0,0,0,0,0,0,0,0,0,0,0,0,0,0,0,0,0,0,0,0,0,0,0,0,0,0,0,0,0,0,0,0,0,0,0,0,0,0,0,0,0,0,0,0,0,0,0,0,0,0,0,0,0,0,0,0,0,0,0,0,0,0,0,0,0,0,0,0,0,0,0,
0,0,0,0,0,0,0,0,0,0,0,0,0,0,0,0,0,0,0,0,0,0,0,0,0,0,0,0,0,0,0,0,0,0,0,0,0,0,0,0,0,0,0,0,0,0,0,0,0,0,0,0,0,0,0,0,0,0,0,0,0,0,0,0,0,0,0,0,0,0,0,0,0,0,0,0,0,0,0,0,0,0,0,0,0,0,0,0,0,0,0,0,0,0,0,0,0,0,0,0,
0,0,0,0,0,0,0,0,0,0,0,0,0,0,0,0,0,0,0,0,0,0,0,0,0,0,0,0,0,0,0,0,0,0,0,0,0,0,0,0,0,0,0,0,0,0,0,0,0,0,0,0,0,0,0,0,0,0,0,0,0,0,0,0,0,0,0,0,0,0,0,0,0,0,0,0,0,0,0,0,0,0,0,0,0,0,0,0,0,0,0,0,0,0,0,0,0,0,0,0,
0,0,0,0,0,0,0,0,0,0,0,0,0,0,0,0,0,0,0,0,0,0,0,0,0,0,0,0,0,0,0,0,0,0,0,0,0,0,0,0,0,0,0,0,0,0,0,0,0,0,0,0,0,0,0,0,0,0,0,0,0,0,0,0,0,0,0,0,0,0,0,0,0,0,0,0,0,0,0,0,0,0,0,0,0,0,0,0,0,0,0,0,0,0,0,0,0,0,0,0,
0,0,0,0,0,0,0,0,0,0,0,0,0,0,0,0,0,0,0,0,0,0,0,0,0,0,0,0,0,0,0,0,0,0,0,0,0,0,0,0,0,0,0,0,0,0,0,0,0,0,0,0,0,0,0,0,0,0,0,0,0,0,0,0,0,0,0,0,0,0,0,0,0,0,0,0,0,0,0,0,0,0,0,0,0,0,0,0,0,0,0,0,0,0,0,0,0,0,0,0,
0,0,0,0,0,0,0,0,0,0,0,0,0,0,0,0,0,0,0,0,0,0,0,0,0,0,0,0,0,0,0,0,0,0,0,0,0,0,0,0,0,0,0,0,0,0,0,0,0,0,0,0,0,0,0,0,0,0,0,0,0,0,0,0,0,0,0,0,0,0,0,0,0,0,0,0,0,0,0,0,0,0,0,0,0,0,0,0,0,0,0,0,0,0,0,0,0,0,0,0,
0,0,0,0,0,0,0,0,0,0,0,0,0,0,0,0,0,0,0,0,0,0,0,0,0,0,0,0,0,0,0,0,0,0,0,0,0,0,0,0,0,0,0,0,0,0,0,0,0,0,0,0,0,0,0,0,0,0,0,0,0,0,0,0,0,0,0,0,0,0,0,0,0,0,0,0,0,0,0,0,0,0,0,0,0,0,0,0,0,0,0,0,0,0,0,0,0,0,0,0,
0,0,0,0,0,0,0,0,0,0,0,0,0,0,0,0,0,0,0,0,0,0,0,0,0,0,0,0,0,0,0,0,0,0,0,0,0,0,0,0,0,0,0,0,0,0,0,0,0,0,0,0,0,0,0,0,0,0,0,0,0,0,0,0,0,0,0,0,0,0,0,0,0,0,0,0,0,0,0,0,0,0,0,0,0,0,0,0,0,0,0,0,0,0,0,0,0,0,0,0,
0,0,0,0,0,0,0,0,0,0,0,0,0,0,0,0,0,0,0,0,0,0,0,0,0,0,0,0,0,0,0,0,0,0,0,0,0,0,0,0,0,0,0,0,0,0,0,0,0,0,0,0,0,0,0,0,0,0,0,0,0,0,0,0,0,0,0,0,0,0,0,0,0,0,0,0,0,0,0,0,0,0,0,0,0,0,0,0,0,0,0,0,0,0,0,0,0,0,0,0,
0,0,0,0,0,0,0,0,0,0,0,0,0,0,0,0,0,0,0,0,0,0,0,0,0,0,0,0,0,0,0,0,0,0,0,0,0,0,0,0,0,0,0,0,0,0,0,0,0,0,0,0,0,0,0,0,0,0,0,0,0,0,0,0,0,0,0,0,0,0,0,0,0,0,0,0,0,0,0,0,0,0,0,0,0,0,0,0,0,0,0,0,0,0,0,0,0,0,0,0,
0,0,0,0,0,0,0,0,0,0,0,0,0,0,0,0,0,0,0,0,0,0,0,0,0,0,0,0,0,0,0,0,0,0,0,0,0,0,0,0,0,0,0,0,0,0,0,0,0,0,0,0,0,0,0,0,0,0,0,0,0,0,0,0,0,0,0,0,0,0,0,0,0,0,0,0,0,0,0,0,0,0,0,0,0,0,0,0,0,0,0,0,0,0,0,0,0,0,0,0,
0,0,0,0,0,0,0,0,0,0,0,0,0,0,0,0,0,0,0,0,0,0,0,0,0,0,0,0,0,0,0,0,0,0,0,0,0,0,0,0,0,0,0,0,0,0,0,0,0,0,0,0,0,0,0,0,0,0,0,0,0,0,0,0,0,0,0,0,0,0,0,0,0,0,0,0,0,0,0,0,0,0,0,0,0,0,0,0,0,0,0,0,0,0,0,0,0,0,0,0,
0,0,0,0,0,0,0,0,0,0,0,0,0,0,0,0,0,0,0,0,0,0,0,0,0,0,0,0,0,0,0,0,0,0,0,0,0,0,0,0,0,0,0,0,0,0,0,0,0,0,0,0,0,0,0,0,0,0,0,0,0,0,0,0,0,0,0,0,0,0,0,0,0,0,0,0,0,0,0,0,0,0,0,0,0,0,0,0,0,0,0,0,0,0,0,0,0,0,0,0,
0,0,0,0,0,0,0,0,0,0,0,0,0,0,0,0,0,0,0,0,0,0,0,0,0,0,0,0,0,0,0,0,0,0,0,0,0,0,0,0,0,0,0,0,0,0,0,0,0,0,0,0,0,0,0,0,0,0,0,0,0,0,0,0,0,0,0,0,0,0,0,0,0,0,0,0,0,0,0,0,0,0,0,0,0,0,0,0,0,0,0,0,0,0,0,0,0,0,0,0,
0,0,0,0,0,0,0,0,0,0,0,0,0,0,0,0,0,0,0,0,0,0,0,0,0,0,0,0,0,0,0,0,0,0,0,0,0,0,0,0,0,0,0,0,0,0,0,0,0,0,0,0,0,0,0,0,0,0,0,0,0,0,0,0,0,0,0,0,0,0,0,0,0,0,0,0,0,0,0,0,0,0,0,0,0,0,0,0,0,0,0,0,0,0,0,0,0,0,0,0,
0,0,0,0,0,0,0,0,0,0,0,0,0,0,0,0,0,0,0,0,0,0,0,0,0,0,0,0,0,0,0,0,0,0,0,0,0,0,0,0,0,0,0,0,0,0,0,0,0,0,0,0,0,0,0,0,0,0,0,0,0,0,0,0,0,0,0,0,0,0,0,0,0,0,0,0,0,0,0,0,0,0,0,0,0,0,0,0,0,0,0,0,0,0,0,0,0,0,0,0,
0,0,0,0,0,0,0,0,0,0,0,0,0,0,0,0,0,0,0,0,0,0,0,0,0,0,0,0,0,0,0,0,0,0,0,0,0,0,0,0,0,0,0,0,0,0,0,0,0,0,0,0,0,0,0,0,0,0,0,0,0,0,0,0,0,0,0,0,0,0,0,0,0,0,0,0,0,0,0,0,0,0,0,0,0,0,0,0,0,0,0,0,0,0,0,0,0,0,0,0,
0,6734,6735,6736,6737,6738,6739,6740,6740,0,0,0,0,0,0,0,0,0,0,0,0,0,0,0,0,0,0,0,0,0,0,0,0,0,0,0,0,0,0,0,0,0,0,0,0,0,0,0,0,0,0,0,0,0,0,0,0,0,0,0,0,0,0,0,0,0,0,0,0,0,0,0,0,0,0,0,0,0,0,0,0,0,0,0,0,0,0,0,0,0,0,0,0,0,0,0,0,0,0,0,
0,0,0,0,0,0,0,0,0,0,0,0,0,0,0,0,0,0,0,0,0,0,0,0,0,0,0,0,0,0,0,0,0,0,0,0,0,0,0,0,0,0,0,0,0,0,0,0,0,0,0,0,0,0,0,0,0,0,0,0,0,0,0,0,0,0,0,0,0,0,0,0,0,0,0,0,0,0,0,0,0,0,0,0,0,0,0,0,0,0,0,0,0,0,0,0,0,0,0,0,
0,0,0,0,6880,0,0,0,0,0,0,6880,0,0,0,0,0,0,6880,0,0,0,0,0,0,6880,0,0,0,0,0,0,6880,0,0,0,0,0,0,6880,0,0,0,0,0,0,6880,0,0,0,0,0,0,0,0,0,0,0,0,0,0,0,0,0,0,0,0,0,0,0,0,0,0,0,0,0,0,0,0,0,0,0,0,0,0,0,0,0,0,0,0,0,0,0,0,0,0,0,0,0,
0,0,0,6880,6880,6880,0,0,0,0,6880,6880,6880,0,0,0,0,6880,6880,6880,0,0,0,0,6880,6880,6880,0,0,0,0,6880,6880,6880,0,0,0,0,6880,6880,6880,0,0,0,0,6880,6880,6880,0,0,0,0,0,0,0,0,0,0,0,0,0,0,0,0,0,0,0,0,0,0,0,0,0,0,0,0,0,0,0,0,0,0,0,0,0,0,0,0,0,0,0,0,0,0,0,0,0,0,0,0,
0,0,0,0,0,0,0,0,0,0,0,0,0,0,0,0,0,0,0,0,0,0,0,0,0,0,0,0,0,0,0,0,0,0,0,0,0,0,0,0,0,0,0,0,0,0,0,0,0,0,0,0,0,0,0,0,0,0,0,0,0,0,0,0,0,0,0,0,0,0,0,0,0,0,0,0,0,0,0,0,0,0,0,0,0,0,0,0,0,0,0,0,0,0,0,0,0,0,0,0,
0,6880,6880,6880,6880,6880,6880,0,6880,6880,6880,6880,6880,6880,0,6880,6880,6880,6880,6880,6880,0,6880,6880,6880,6880,6880,6880,0,6880,6880,6880,6880,6880,6880,0,6880,6880,6880,6880,6880,6880,0,6880,6880,6880,6880,6880,6880,0,0,0,0,0,0,0,0,0,0,0,0,0,0,0,0,0,0,0,0,0,0,0,0,0,0,0,0,0,0,0,0,0,0,0,0,0,0,0,0,0,0,0,0,0,0,0,0,0,0,0,
0,6880,6880,6880,6880,6880,6880,0,6880,6880,6880,6880,6880,6880,0,6880,6880,6880,6880,6880,6880,0,6880,6880,6880,6880,6880,6880,0,6880,6880,6880,6880,6880,6880,0,6880,6880,6880,6880,6880,6880,0,6880,6880,6880,6880,6880,6880,0,0,0,0,0,0,0,0,0,0,0,0,0,0,0,0,0,0,0,0,0,0,0,0,0,0,0,0,0,0,0,0,0,0,0,0,0,0,0,0,0,0,0,0,0,0,0,0,0,0,0,
0,6880,6880,6880,6880,6880,6880,0,6880,6880,6880,6880,6880,6880,0,6880,6880,6880,6880,6880,6880,0,6880,6880,6880,6880,6880,6880,0,6880,6880,6880,6880,6880,6880,0,6880,6880,6880,6880,6880,6880,0,6880,6880,6880,6880,6880,6880,0,0,0,0,0,0,0,0,0,0,0,0,0,0,0,0,0,0,0,0,0,0,0,0,0,0,0,0,0,0,0,0,0,0,0,0,0,0,0,0,0,0,0,0,0,0,0,0,0,0,0,
0,6880,6880,6880,6880,6880,6880,0,6880,6880,6880,6880,6880,6880,0,6880,6880,6880,6880,6880,6880,0,6880,6880,6880,6880,6880,6880,0,6880,6880,6880,6880,6880,6880,0,6880,6880,6880,6880,6880,6880,0,6880,6880,6880,6880,6880,6880,0,0,0,0,0,0,0,0,0,0,0,0,0,0,0,0,0,0,0,0,0,0,0,0,0,0,0,0,0,0,0,0,0,0,0,0,0,0,0,0,0,0,0,0,0,0,0,0,0,0,0,
0,0,0,0,0,0,0,0,0,0,0,0,0,0,0,0,0,0,0,0,0,0,0,0,0,0,0,0,0,0,0,0,0,0,0,0,0,0,0,0,0,0,0,0,0,0,0,0,0,0,0,0,0,0,0,0,0,0,0,0,0,0,0,0,0,0,0,0,0,0,0,0,0,0,0,0,0,0,0,0,0,0,0,0,0,0,0,0,0,0,0,0,0,0,0,0,0,0,0,0
</data>
 </layer>
 <layer id="16" name="woda" width="100" height="100">
  <data encoding="csv">
0,0,0,0,0,0,0,0,0,0,0,0,0,0,0,0,0,0,0,0,0,0,0,0,0,0,0,0,0,0,0,0,0,0,0,0,0,0,0,0,0,0,0,0,0,0,0,0,0,0,0,0,0,0,0,0,0,0,0,0,0,0,0,0,0,0,0,0,0,0,0,0,0,0,0,0,0,0,0,0,0,0,0,0,0,0,0,0,0,0,0,0,0,0,0,0,0,0,0,0,
0,0,0,0,0,0,0,0,0,0,0,0,0,0,0,0,0,0,0,0,0,0,0,0,0,0,0,0,0,0,0,0,0,0,0,0,0,0,0,0,0,0,0,0,0,0,0,0,0,0,0,0,0,0,0,0,0,0,0,0,0,0,0,0,0,0,0,0,0,0,0,0,0,0,0,0,0,0,0,0,0,0,0,0,0,0,0,0,0,0,0,0,0,0,0,0,0,0,0,0,
0,0,0,0,0,0,0,0,0,0,0,0,0,0,0,0,0,0,0,0,0,0,0,0,0,0,0,0,0,0,0,0,0,0,0,0,0,0,0,0,0,0,0,0,0,0,0,0,0,0,0,0,0,0,0,0,0,0,0,0,0,0,0,0,0,0,0,0,0,0,0,0,0,0,0,0,0,0,0,0,0,0,0,0,0,0,0,0,0,0,0,0,0,0,0,0,0,0,0,0,
0,0,0,0,0,0,0,0,0,0,0,0,0,0,0,0,0,0,0,0,0,0,0,0,0,0,0,0,0,0,0,0,0,0,0,0,0,0,0,0,0,0,0,0,0,0,0,0,0,0,0,0,0,0,0,0,0,0,0,0,0,0,0,0,0,0,0,0,0,0,0,0,0,0,0,0,0,0,0,0,0,0,0,0,0,0,0,0,0,0,0,0,0,0,0,0,0,0,0,0,
0,0,0,0,0,0,0,0,0,0,0,0,0,0,0,0,0,0,0,0,0,0,0,0,0,0,0,0,0,0,0,0,0,0,0,0,0,0,0,0,0,0,0,0,0,0,0,0,0,0,0,0,0,0,0,0,0,0,0,0,0,0,0,0,0,0,0,0,0,0,0,0,0,0,0,0,0,0,0,0,0,0,0,0,0,0,0,0,0,0,0,0,0,0,0,0,0,0,0,0,
0,0,0,0,0,0,0,0,0,0,0,0,0,0,0,0,0,0,0,0,0,0,0,0,0,0,0,0,0,0,0,0,0,0,0,0,0,0,0,0,0,0,0,0,0,0,0,0,0,0,0,0,0,0,0,0,0,0,0,0,0,0,0,0,0,0,0,0,0,0,0,0,0,0,0,0,0,0,0,0,0,0,0,0,0,0,0,0,0,0,0,0,0,0,0,0,0,0,0,0,
0,0,0,0,0,0,0,0,0,0,0,0,0,0,0,0,0,0,0,0,0,0,0,0,0,0,0,0,0,0,0,0,0,0,0,0,0,0,0,0,0,0,0,0,0,0,0,0,0,0,0,0,0,0,0,0,0,0,0,0,0,0,0,0,0,0,0,0,0,0,0,0,0,0,0,0,0,0,0,0,0,0,0,0,0,0,0,0,0,0,0,0,0,0,0,0,0,0,0,0,
0,0,0,0,0,0,0,0,0,0,0,0,0,0,0,0,0,0,0,0,0,0,0,0,0,0,0,0,0,0,0,0,0,0,0,0,0,0,0,0,0,0,0,0,0,0,0,0,0,0,0,0,0,0,0,0,0,0,0,0,0,0,0,0,0,0,0,0,0,0,0,0,0,0,0,0,0,0,0,0,0,0,0,0,0,0,0,0,0,0,0,0,0,0,0,0,0,0,0,0,
0,0,0,0,0,0,0,0,0,0,0,0,0,0,0,0,0,0,0,0,0,0,0,0,0,0,0,0,0,0,0,0,0,0,0,0,0,0,0,0,0,0,0,0,0,0,0,0,0,0,0,0,0,0,0,0,0,0,0,0,0,0,0,0,0,0,0,0,0,0,0,0,0,0,0,0,0,0,0,0,0,0,0,0,0,0,0,0,0,0,0,0,0,0,0,0,0,0,0,0,
0,0,0,0,0,0,0,0,0,0,0,0,0,0,0,0,0,0,0,0,0,0,0,0,0,0,0,0,0,0,0,0,0,0,0,0,0,0,0,0,0,0,0,0,0,0,0,0,0,0,0,0,0,0,0,0,0,0,0,0,0,0,0,0,0,0,0,0,0,0,0,0,0,0,0,0,0,0,0,0,0,0,0,0,0,0,0,0,0,0,0,0,0,0,0,0,0,0,0,0,
0,0,0,0,0,0,0,0,0,0,0,0,0,0,0,0,0,0,0,0,0,0,0,0,0,0,0,0,0,0,0,0,0,0,0,0,0,0,0,0,0,0,0,0,0,0,0,0,0,0,0,0,0,0,0,0,0,0,0,0,0,0,0,0,0,0,0,0,0,0,0,0,0,0,0,0,0,0,0,0,0,0,0,0,0,0,0,0,0,0,0,0,0,0,0,0,0,0,0,0,
0,0,0,0,0,0,0,0,0,0,0,0,0,0,0,0,0,0,0,0,0,0,0,0,0,0,0,0,0,0,0,0,0,0,0,0,0,0,0,0,0,0,0,0,0,0,0,0,0,0,0,0,0,0,0,0,0,0,0,0,0,0,0,0,0,0,0,0,0,0,0,0,0,0,0,0,0,0,0,0,0,0,0,0,0,0,0,0,0,0,0,0,0,0,0,0,0,0,0,0,
0,0,0,0,0,0,0,0,0,0,0,0,0,0,0,0,0,0,0,0,0,0,0,0,0,0,0,0,0,0,0,0,0,0,0,0,0,0,0,0,0,0,0,0,0,0,0,0,0,0,0,0,0,0,0,0,0,0,0,0,0,0,0,0,0,0,0,0,0,0,0,0,0,0,0,0,0,0,0,0,0,0,0,0,0,0,0,0,0,0,0,0,0,0,0,0,0,0,0,0,
0,0,0,0,0,0,0,0,0,0,0,0,0,0,0,0,0,0,0,0,0,0,0,0,0,0,0,0,0,0,0,0,0,0,0,0,0,0,0,0,0,0,0,0,0,0,0,0,0,0,0,0,0,0,0,0,0,0,0,0,0,0,0,0,0,0,0,0,0,0,0,0,0,0,0,0,0,0,0,0,0,0,0,0,0,0,0,0,0,0,0,0,0,0,0,0,0,0,0,0,
0,0,0,0,0,0,0,0,0,0,0,0,0,0,0,0,0,0,0,0,0,0,0,0,0,0,0,0,0,0,0,0,0,0,0,0,0,0,0,0,0,0,0,0,0,0,0,0,0,0,0,0,0,0,0,0,0,0,0,0,0,0,0,0,0,0,0,0,0,0,0,0,0,0,0,0,0,0,0,0,0,0,0,0,0,0,0,0,0,0,0,0,0,0,0,0,0,0,0,0,
0,0,0,0,0,0,0,0,0,0,0,0,0,0,0,0,0,0,0,0,0,0,0,0,0,0,0,0,0,0,0,0,0,0,0,0,0,0,0,0,0,0,0,0,0,0,0,0,0,0,0,0,0,0,0,0,0,0,0,0,0,0,0,0,0,0,0,0,0,0,0,0,0,0,0,0,0,0,0,0,0,0,0,0,0,0,0,0,0,0,0,0,0,0,0,0,0,0,0,0,
0,0,0,0,0,0,0,0,0,0,0,0,0,0,0,0,0,0,0,0,0,0,0,0,0,0,0,0,0,0,0,0,0,0,0,0,0,0,0,0,0,0,0,0,0,0,0,0,0,0,0,0,0,0,0,0,0,0,0,0,0,0,0,0,0,0,0,0,0,0,0,0,0,0,0,0,0,0,0,0,0,0,0,0,0,0,0,0,0,0,0,0,0,0,0,0,0,0,0,0,
0,0,0,0,0,0,0,0,0,0,0,0,0,0,0,0,0,0,0,0,0,0,0,0,0,0,0,0,0,0,0,0,0,0,0,0,0,0,0,0,0,0,0,0,0,0,0,0,0,0,0,0,0,0,0,0,0,0,0,0,0,0,0,0,0,0,0,0,0,0,0,0,0,0,0,0,0,0,0,0,0,0,0,0,0,0,0,0,0,0,0,0,0,0,0,0,0,0,0,0,
0,0,0,0,0,0,0,0,0,0,0,0,0,0,0,0,0,0,0,0,0,0,0,0,0,0,0,0,0,0,0,0,0,0,0,0,0,0,0,0,0,0,0,0,0,0,0,0,0,0,0,0,0,0,0,0,0,0,0,0,0,0,0,0,0,0,0,0,0,0,0,0,0,0,0,0,0,0,0,0,0,0,0,0,0,0,0,0,0,0,0,0,0,0,0,0,0,0,0,0,
0,0,0,0,0,0,0,0,0,0,0,0,0,0,0,0,0,0,0,0,0,0,0,0,0,0,0,0,0,0,0,0,0,0,0,0,0,0,0,0,0,0,0,0,0,0,0,0,0,0,0,0,0,0,0,0,0,0,0,0,0,0,0,0,0,0,0,0,0,0,0,0,0,0,0,0,0,0,0,0,0,0,0,0,0,0,0,0,0,0,0,0,0,0,0,0,0,0,0,0,
0,0,0,0,0,0,0,0,0,0,0,0,0,0,0,0,0,0,0,0,0,0,0,0,0,0,0,0,0,0,0,0,0,0,0,0,0,0,0,0,0,0,0,0,0,0,0,0,0,0,0,0,0,0,0,0,0,0,0,0,0,0,0,0,0,0,0,0,0,0,0,0,0,0,0,0,0,0,0,0,0,0,0,0,0,0,0,0,0,0,0,0,0,0,0,0,0,0,0,0,
0,0,0,0,0,0,0,0,0,0,0,0,0,0,0,0,0,0,0,0,0,0,0,0,0,0,0,0,0,0,0,0,0,0,0,0,0,0,0,0,0,0,0,0,0,0,0,0,0,0,0,0,0,0,0,0,0,0,0,0,0,0,0,0,0,0,0,0,0,0,0,0,0,0,0,0,0,0,0,0,0,0,0,0,0,0,0,0,0,0,0,0,0,0,0,0,0,0,0,0,
0,0,0,0,0,0,0,0,0,0,0,0,0,0,0,0,0,0,0,0,0,0,0,0,0,0,0,0,0,0,0,0,0,0,0,0,0,0,0,0,0,0,0,0,0,0,0,0,0,0,0,0,0,0,0,0,0,0,0,0,0,0,0,0,0,0,0,0,0,0,0,0,0,0,0,0,0,0,0,0,0,0,0,0,0,0,0,0,0,0,0,0,0,0,0,0,0,0,0,0,
0,0,0,0,0,0,0,0,0,0,0,0,0,0,0,0,0,0,0,0,0,0,0,0,0,0,0,0,0,0,0,0,0,0,0,0,0,0,0,0,0,0,0,0,0,0,0,0,0,0,0,0,0,0,0,0,0,0,0,0,0,0,0,0,0,0,0,0,0,0,0,0,0,0,0,0,0,0,0,0,0,0,0,0,0,0,0,0,0,0,0,0,0,0,0,0,0,0,0,0,
0,0,0,0,0,0,0,0,0,0,0,0,0,0,0,0,0,0,0,0,0,0,0,0,0,0,0,0,0,0,0,0,0,0,0,0,0,0,0,0,0,0,0,0,0,0,0,0,0,0,0,0,0,0,0,0,0,0,0,0,0,0,0,0,0,0,0,0,0,0,0,0,0,0,0,0,0,0,0,0,0,0,0,0,0,0,0,0,0,0,0,0,0,0,0,0,0,0,0,0,
0,0,0,0,0,0,0,0,0,0,0,0,0,0,0,0,0,0,0,0,0,0,0,0,0,0,0,0,0,0,0,0,0,0,0,0,0,0,0,0,0,0,0,0,0,0,0,0,0,0,0,0,0,0,0,0,0,0,0,0,0,0,0,0,0,0,0,0,0,0,0,0,0,0,0,0,0,0,0,0,0,0,0,0,0,0,0,0,0,0,0,0,0,0,0,0,0,0,0,0,
0,0,0,0,0,0,0,0,0,0,0,0,0,0,0,0,0,0,0,0,0,0,0,0,0,0,0,0,0,0,0,0,0,0,0,0,0,0,0,0,0,0,0,0,0,0,0,0,0,0,0,0,0,0,0,0,0,0,0,0,0,0,0,0,0,0,0,0,0,0,0,0,0,0,0,0,0,0,0,0,0,0,0,0,0,0,0,0,0,0,0,0,0,0,0,0,0,0,0,0,
0,0,0,0,0,0,0,0,0,0,0,0,0,0,0,0,0,0,0,0,0,0,0,0,0,0,0,0,0,0,0,0,0,0,0,0,0,0,0,0,0,0,0,0,0,0,0,0,0,0,0,0,0,0,0,0,0,0,0,0,0,0,0,0,0,0,0,0,0,0,0,0,0,0,0,0,0,0,0,0,0,0,0,0,0,0,0,0,0,0,0,0,0,0,0,0,0,0,0,0,
0,0,0,0,0,0,0,0,0,0,0,0,0,0,0,0,0,0,0,0,0,0,0,0,0,0,0,0,0,0,0,0,0,0,0,0,0,0,0,0,0,0,0,0,0,0,0,0,0,0,0,0,0,0,0,0,0,0,0,0,0,0,0,0,0,0,0,0,0,0,0,0,0,0,0,0,0,0,0,0,0,0,0,0,0,0,0,0,0,0,0,0,0,0,0,0,0,0,0,0,
0,0,0,0,0,0,0,0,0,0,0,0,0,0,0,0,0,0,0,0,0,0,0,0,0,0,0,0,0,0,0,0,0,0,0,0,0,0,0,0,0,0,0,0,0,0,0,0,0,0,0,0,0,0,0,0,0,0,0,0,0,0,0,0,0,0,0,0,0,0,0,0,0,0,0,0,0,0,0,0,0,0,0,0,0,0,0,0,0,0,0,0,0,0,0,0,0,0,0,0,
0,0,0,0,0,0,0,0,0,0,0,0,0,0,0,0,0,0,0,0,0,0,0,0,0,0,0,0,0,0,0,0,0,0,0,0,0,0,0,0,0,0,0,0,0,0,0,0,0,0,0,0,0,0,0,0,0,0,0,0,0,0,0,0,0,0,0,0,0,0,0,0,0,0,0,0,0,0,0,0,0,0,0,0,0,0,0,0,0,0,0,0,0,0,0,0,0,0,0,0,
0,0,0,0,0,0,0,0,0,0,0,0,0,0,0,0,0,0,0,0,0,0,0,0,0,0,0,0,0,0,0,0,0,0,0,0,0,0,0,0,0,0,0,0,0,0,0,0,0,0,0,0,0,0,0,0,0,0,0,0,0,0,0,0,0,0,0,0,0,0,0,0,0,0,0,0,0,0,0,0,0,0,0,0,0,0,0,0,0,0,0,0,0,0,0,0,0,0,0,0,
0,0,0,0,0,0,0,0,0,0,0,0,0,0,0,0,0,0,0,0,0,0,0,0,0,0,0,0,0,0,0,0,0,0,0,0,0,0,0,0,0,0,0,0,0,0,0,0,0,0,0,0,0,0,0,0,0,0,0,0,0,0,0,0,0,0,0,0,0,0,0,0,0,0,0,0,0,0,0,0,0,0,0,0,0,0,0,0,0,0,0,0,0,0,0,0,0,0,0,0,
0,0,0,0,0,0,0,0,0,0,0,0,0,0,0,0,0,0,0,0,0,0,0,0,0,0,0,0,0,0,0,0,0,0,0,0,0,0,0,0,0,0,0,0,0,0,0,0,0,0,0,0,0,0,0,0,0,0,0,0,0,0,0,0,0,0,0,0,0,0,0,0,0,0,0,0,0,0,0,0,0,0,0,0,0,0,0,0,0,0,0,0,0,0,0,0,0,0,0,0,
0,0,0,0,0,0,0,0,0,0,0,0,0,0,0,0,0,0,0,0,0,0,0,0,0,0,0,0,0,0,0,0,0,0,0,0,0,0,0,0,0,0,0,0,0,0,0,0,0,0,0,0,0,0,0,0,0,0,0,0,0,0,0,0,0,0,0,0,0,0,0,0,0,0,0,0,0,0,0,0,0,0,0,0,0,0,0,0,0,0,0,0,0,0,0,0,0,0,0,0,
0,0,0,0,0,0,0,0,0,0,0,0,0,0,0,0,0,0,0,0,0,0,0,0,0,0,0,0,0,0,0,0,0,0,0,0,0,0,0,0,0,0,0,0,0,0,0,0,0,0,0,0,0,0,0,0,0,0,0,0,0,0,0,0,0,0,0,0,0,0,0,0,0,0,0,0,0,0,0,0,0,0,0,0,0,0,0,0,0,0,0,0,0,0,0,0,0,0,0,0,
0,0,0,0,0,0,0,0,0,0,0,0,0,0,0,0,0,0,0,0,0,0,0,0,0,0,0,0,0,0,0,0,0,0,0,0,0,0,0,0,0,0,0,0,0,0,0,0,0,0,0,0,0,0,0,0,0,0,0,0,0,0,0,0,0,0,0,0,0,0,0,0,0,0,0,0,0,0,0,0,0,0,0,0,0,0,0,0,0,0,0,0,0,0,0,0,0,0,0,0,
0,0,0,0,0,0,0,0,0,0,0,0,0,0,0,0,0,0,0,0,0,0,0,0,0,0,0,0,0,0,0,0,0,0,0,0,0,0,0,0,0,0,0,0,0,0,0,0,0,0,0,0,0,0,0,0,0,0,0,0,0,0,0,0,0,0,0,0,0,0,0,0,0,0,0,0,0,0,0,0,0,0,0,0,0,0,0,0,0,0,0,0,0,0,0,0,0,0,0,0,
0,0,0,0,0,0,0,0,0,0,0,0,0,0,0,0,0,0,0,0,0,0,0,0,0,0,0,0,0,0,0,0,0,0,0,0,0,0,0,0,0,0,0,0,0,0,0,0,0,0,0,0,0,0,0,0,0,0,0,0,0,0,0,0,0,0,0,0,0,0,0,0,0,0,0,0,0,0,0,0,0,0,0,0,0,0,0,0,0,0,0,0,0,0,0,0,0,0,0,0,
0,0,0,0,0,0,0,0,0,0,0,0,0,0,0,0,0,0,0,0,0,0,0,0,0,0,0,0,0,0,0,0,0,0,0,0,0,0,0,0,0,0,0,0,0,0,0,0,0,0,0,0,0,0,0,0,0,0,0,0,0,0,0,0,0,0,0,0,0,0,0,0,0,0,0,0,0,0,0,0,0,0,0,0,0,0,0,0,0,0,0,0,0,0,0,0,0,0,0,0,
0,0,0,0,0,0,0,0,0,0,0,0,0,0,0,0,0,0,0,0,0,0,0,0,0,0,0,0,0,0,0,0,0,0,0,0,0,0,0,0,0,0,0,0,0,0,0,0,0,0,0,0,0,0,0,0,0,0,0,0,0,0,0,0,0,0,0,0,0,0,0,0,0,0,0,0,0,0,0,0,0,0,0,0,0,0,0,0,0,0,0,0,0,0,0,0,0,0,0,0,
0,0,0,0,0,0,0,0,0,0,0,0,0,0,0,0,0,0,0,0,0,0,0,0,0,0,0,0,0,0,0,0,0,0,0,0,0,0,0,0,0,0,0,0,0,0,0,0,0,0,0,0,0,0,0,0,0,0,0,0,0,0,0,0,0,0,0,0,0,0,0,0,0,0,0,0,0,0,0,0,0,0,0,0,0,0,0,0,0,0,0,0,0,0,0,0,0,0,0,0,
0,0,0,0,0,0,0,0,0,0,0,0,0,0,0,0,0,0,0,0,0,0,0,0,0,0,0,0,0,0,0,0,0,0,0,0,0,0,0,0,0,0,0,0,0,0,0,0,0,0,0,0,0,0,0,0,0,0,0,0,0,0,0,0,0,0,0,0,0,0,0,0,0,0,0,0,0,0,0,0,0,0,0,0,0,0,0,0,0,0,0,0,0,0,0,0,0,0,0,0,
0,0,0,0,0,0,0,0,0,0,0,0,0,0,0,0,0,0,0,0,0,0,0,0,0,0,0,0,0,0,0,0,0,0,0,0,0,0,0,0,0,0,0,0,0,0,0,0,0,0,0,0,0,0,0,0,0,0,0,0,0,0,0,0,0,0,0,0,0,0,0,0,0,0,0,0,0,0,0,0,0,0,0,0,0,0,0,0,0,0,0,0,0,0,0,0,0,0,0,0,
0,0,0,0,0,0,0,0,0,0,0,0,0,0,0,0,0,0,0,0,0,0,0,0,0,0,0,0,0,0,0,0,0,0,0,0,0,0,0,0,0,0,0,0,0,0,0,0,0,0,0,0,0,0,0,0,0,0,0,0,0,0,0,0,0,0,0,0,0,0,0,0,0,0,0,0,0,0,0,0,0,0,0,0,0,0,0,0,0,0,0,0,0,0,0,0,0,0,0,0,
0,0,0,0,0,0,0,0,0,0,0,0,0,0,0,0,0,0,0,0,0,0,0,0,0,0,0,0,0,0,0,0,0,0,0,0,0,0,0,0,0,0,0,0,0,0,0,0,0,0,0,0,0,0,0,0,0,0,0,0,0,0,0,0,0,0,0,0,0,0,0,0,0,0,0,0,0,0,0,0,0,0,0,0,0,0,0,0,0,0,0,0,0,0,0,0,0,0,0,0,
0,0,0,0,0,0,0,0,0,0,0,0,0,0,0,0,0,0,0,0,0,0,0,0,0,0,0,0,0,0,0,0,0,0,0,0,0,0,0,0,0,0,0,0,0,0,0,0,0,0,0,0,0,0,0,0,0,0,0,0,0,0,0,0,0,0,0,0,0,0,0,0,0,0,0,0,0,0,0,0,0,0,0,0,0,0,0,0,0,0,0,0,0,0,0,0,0,0,0,0,
0,0,0,0,0,0,0,0,0,0,0,0,0,0,0,0,0,0,0,0,0,0,0,0,0,0,0,0,0,0,0,0,0,0,0,0,0,0,0,0,0,0,0,0,0,0,0,0,0,0,0,0,0,0,0,0,0,0,0,0,0,0,0,0,0,0,0,0,0,0,0,0,0,0,0,0,0,0,0,0,0,0,0,0,0,0,0,0,0,0,0,0,0,0,0,0,0,0,0,0,
0,0,0,0,0,0,0,0,0,0,0,0,0,0,0,0,0,0,0,0,0,0,0,0,0,0,0,0,0,0,0,0,0,0,0,0,0,0,0,0,0,0,0,0,0,0,0,0,0,0,0,0,0,0,0,0,0,0,0,0,0,0,0,0,0,0,0,0,0,0,0,0,0,0,0,0,0,0,0,0,0,0,0,0,0,0,0,0,0,0,0,0,0,0,0,0,0,0,0,0,
0,0,0,0,0,0,0,0,0,0,0,0,0,0,0,0,0,0,0,0,0,0,0,0,0,0,0,0,0,0,0,0,0,0,0,0,0,0,0,0,0,0,0,0,0,0,0,0,0,0,0,0,0,0,0,0,0,0,0,0,0,0,0,0,0,0,0,0,0,0,0,0,0,0,0,0,0,0,0,0,0,0,0,0,0,0,0,0,0,0,0,0,0,0,0,0,0,0,0,0,
0,0,0,0,0,0,0,0,0,0,0,0,0,0,0,0,0,0,0,0,0,0,0,0,0,0,0,0,0,0,0,0,0,0,0,0,0,0,0,0,0,0,0,0,0,0,0,0,0,0,0,0,0,0,0,0,0,0,0,0,0,0,0,0,0,0,0,0,0,0,0,0,0,0,0,0,0,0,0,0,0,0,0,0,0,0,0,0,0,0,0,0,0,0,0,0,0,0,0,0,
0,0,0,0,0,0,0,0,0,0,0,0,0,0,0,0,0,0,0,0,0,0,0,0,0,0,0,0,0,0,0,0,0,0,0,0,0,0,0,0,0,0,0,0,0,0,0,0,0,0,0,0,0,0,0,0,0,0,0,0,0,0,0,0,0,0,0,0,0,0,0,0,0,0,0,0,0,0,0,0,0,0,0,0,0,0,0,0,0,0,0,0,0,0,0,0,0,0,0,0,
0,0,0,0,0,0,0,0,0,0,0,0,0,0,0,0,0,0,0,0,0,0,0,0,0,0,0,0,0,0,0,0,0,0,0,0,0,0,0,0,0,0,0,0,0,0,0,0,0,0,0,0,0,0,0,0,0,0,0,0,0,0,0,0,0,0,0,0,0,0,0,0,0,0,0,0,0,0,0,0,0,0,0,0,0,0,0,0,0,0,0,0,0,0,0,0,0,0,0,0,
0,0,0,0,0,0,0,0,0,0,0,0,0,0,0,0,0,0,0,0,0,0,0,0,0,0,0,0,0,0,0,0,0,0,0,0,0,0,0,0,0,0,0,0,0,0,0,0,0,0,0,0,0,0,0,0,0,0,0,0,0,0,0,0,0,0,0,0,0,0,0,0,0,0,0,0,0,0,0,0,0,0,0,0,0,0,0,0,0,0,0,0,0,0,0,0,0,0,0,0,
0,0,0,0,0,0,0,0,0,0,0,0,0,0,0,0,0,0,0,0,0,0,0,0,0,0,0,0,0,0,0,0,0,0,0,0,0,0,0,0,0,0,0,0,0,0,0,0,0,0,0,0,0,0,0,0,0,0,0,0,0,0,0,0,0,0,0,0,0,0,0,0,0,0,0,0,0,0,0,0,0,0,0,0,0,0,0,0,0,0,0,0,0,0,0,0,0,0,0,0,
0,0,0,0,0,0,0,0,0,0,0,0,0,0,0,0,0,0,0,0,0,0,0,0,0,0,0,0,0,0,0,0,0,0,0,0,0,0,0,0,0,0,0,0,0,0,0,0,0,0,0,0,0,0,0,0,0,0,0,0,0,0,0,0,0,0,0,0,0,0,0,0,0,0,0,0,0,0,0,0,0,0,0,0,0,0,0,0,0,0,0,0,0,0,0,0,0,0,0,0,
0,0,0,0,0,0,0,0,0,0,0,0,0,0,0,0,0,0,0,0,0,0,0,0,0,0,0,0,0,0,0,0,0,0,0,0,0,0,0,0,0,0,0,0,0,0,0,0,0,0,0,0,0,0,0,0,0,0,0,0,0,0,0,0,0,0,0,0,0,0,0,0,0,0,0,0,0,0,0,0,0,0,0,0,0,0,0,0,0,0,0,0,0,0,0,0,0,0,0,0,
0,0,0,0,0,0,0,0,0,0,0,0,0,0,0,0,0,0,0,0,0,0,0,0,0,0,0,0,0,0,0,0,0,0,0,0,0,0,0,0,0,0,0,0,0,0,0,0,0,0,0,0,0,0,0,0,0,0,0,0,0,0,0,0,0,0,0,0,0,0,0,0,0,0,0,0,0,0,0,0,0,0,0,0,0,0,0,0,0,0,0,0,0,0,0,0,0,0,0,0,
0,0,0,0,0,0,0,0,0,0,0,0,0,0,0,0,0,0,0,0,0,0,0,0,0,0,0,0,0,0,0,0,0,0,0,0,0,0,0,0,0,0,0,0,0,0,0,0,0,0,0,0,0,0,0,0,0,0,0,0,0,0,0,0,0,0,0,0,0,0,0,0,0,0,0,0,0,0,0,0,0,0,0,0,0,0,0,0,0,0,0,0,0,0,0,0,0,0,0,0,
0,0,0,0,0,0,0,0,0,0,0,0,0,0,0,0,0,0,0,0,0,0,0,0,0,0,0,0,0,0,0,0,0,0,0,0,0,0,0,0,0,0,0,0,0,0,0,0,0,0,0,0,0,0,0,0,0,0,0,0,0,0,0,0,0,0,0,0,0,0,0,0,0,0,0,0,0,0,0,0,0,0,0,0,0,0,0,0,0,0,0,0,0,0,0,0,0,0,0,0,
0,0,0,0,0,0,0,0,0,0,0,0,0,0,0,0,0,0,0,0,0,0,0,0,0,0,0,0,0,0,0,0,0,0,0,0,0,0,0,0,0,0,0,0,0,0,0,0,0,0,0,0,0,0,0,0,0,0,0,0,0,0,0,0,0,0,0,0,0,0,0,0,0,0,0,0,0,0,0,0,0,0,0,0,0,0,0,0,0,0,0,0,0,0,0,0,0,0,0,0,
0,0,0,0,0,0,0,0,0,0,0,0,0,0,0,0,0,0,0,0,0,0,0,0,0,0,0,0,0,0,0,0,0,0,0,0,0,0,0,0,0,0,0,0,0,0,0,0,0,0,0,0,0,0,0,0,0,0,0,0,0,0,0,0,0,0,0,0,0,0,0,0,0,0,0,0,0,0,0,0,0,0,0,0,0,0,0,0,0,0,0,0,0,0,0,0,0,0,0,0,
0,0,0,0,0,0,0,0,0,0,0,0,0,0,0,0,0,0,0,0,0,0,0,0,0,0,0,0,0,0,0,0,0,0,0,0,0,0,0,0,0,0,0,0,0,0,0,0,0,0,0,0,0,0,0,0,0,0,0,0,0,0,0,0,0,0,0,0,0,0,0,0,0,0,0,0,0,0,0,0,0,0,0,0,0,0,0,0,0,0,0,0,0,0,0,0,0,0,0,0,
0,0,0,0,0,0,0,0,0,0,0,0,0,0,0,0,0,0,0,0,0,0,0,0,0,0,0,0,0,0,0,0,0,0,0,0,0,0,0,0,0,0,0,0,0,0,0,0,0,0,0,0,0,0,0,0,0,0,0,0,0,0,0,0,0,0,0,0,0,0,0,0,0,0,0,0,0,0,0,0,0,0,0,0,0,0,0,0,0,0,0,0,0,0,0,0,0,0,0,0,
0,0,0,0,0,0,0,0,0,0,0,0,0,0,0,0,0,0,0,0,0,0,0,0,0,0,0,0,0,0,0,0,0,0,0,0,0,0,0,0,0,0,0,0,0,0,0,0,0,0,0,0,0,0,0,0,0,0,0,0,0,0,0,0,0,0,0,0,0,0,0,0,0,0,0,0,0,0,0,0,0,0,0,0,0,0,0,0,0,0,0,0,0,0,0,0,0,0,0,0,
0,0,0,0,0,0,0,0,0,0,0,0,0,0,0,0,0,0,0,0,0,0,0,0,0,0,0,0,0,0,0,0,0,0,0,0,0,0,0,0,0,0,0,0,0,0,0,0,0,0,0,0,0,0,0,0,0,0,0,0,0,0,0,0,0,0,0,0,0,0,0,0,0,0,0,0,0,0,0,0,0,0,0,0,0,0,0,0,0,0,0,0,0,0,0,0,0,0,0,0,
0,0,0,0,0,0,0,0,0,0,0,0,0,0,0,0,0,0,0,0,0,0,0,0,0,0,0,0,0,0,0,0,0,0,0,0,0,0,0,0,0,0,0,0,0,0,0,0,0,0,0,0,0,0,0,0,0,0,0,0,0,0,0,0,0,0,0,0,0,0,0,0,0,0,0,0,0,0,0,0,0,0,0,0,0,0,0,0,0,0,0,0,0,0,0,0,0,0,0,0,
0,0,0,0,0,0,0,0,0,0,0,0,0,0,0,0,0,0,0,0,0,0,0,0,0,0,0,0,0,0,0,0,0,0,0,0,0,0,0,0,0,0,0,0,0,0,0,0,0,0,0,0,0,0,0,0,0,0,0,0,0,0,0,0,0,0,0,0,0,0,0,0,0,0,0,0,0,0,0,0,0,0,0,0,0,0,0,0,0,0,0,0,0,0,0,0,0,0,0,0,
0,0,0,0,0,0,0,0,0,0,0,0,0,0,0,0,0,0,0,0,0,0,0,0,0,0,0,0,0,0,0,0,0,0,0,0,0,0,0,0,0,0,0,0,0,0,0,0,0,0,0,0,0,0,0,0,0,0,0,0,0,0,0,0,0,0,0,0,0,0,0,0,0,0,0,0,0,0,0,0,0,0,0,0,0,0,0,0,0,0,0,0,0,0,0,0,0,0,0,0,
0,0,0,0,0,0,0,0,0,0,0,0,0,0,0,0,0,0,0,0,0,0,0,0,0,0,0,0,0,0,0,0,0,0,0,0,0,0,0,0,0,0,0,0,0,0,0,0,0,0,0,0,0,0,0,0,0,0,0,0,0,0,0,0,0,0,0,0,0,0,0,0,0,0,0,0,0,0,0,0,0,0,0,0,0,0,0,0,0,0,0,0,0,0,0,0,0,0,0,0,
0,0,0,0,0,0,0,0,0,0,0,0,0,0,0,0,0,0,0,0,0,0,0,0,0,0,0,0,0,0,0,0,0,0,0,0,0,0,0,0,0,0,0,0,0,0,0,0,0,0,0,0,0,0,0,0,0,0,0,0,0,0,0,0,0,0,0,0,0,0,0,0,0,0,0,0,0,0,0,0,0,0,0,0,0,0,0,0,0,0,0,0,0,0,0,0,0,0,0,0,
0,0,0,0,0,0,0,0,0,0,0,0,0,0,0,0,0,0,0,0,0,0,0,0,0,0,0,0,0,0,0,0,0,0,0,0,0,0,0,0,0,0,0,0,0,0,0,0,0,0,0,0,0,0,0,0,0,0,0,0,0,0,0,0,0,0,0,0,0,0,0,0,0,0,0,0,0,0,0,0,0,0,0,0,0,0,0,0,0,0,0,0,0,0,0,0,0,0,0,0,
0,0,0,0,0,0,0,0,0,0,0,0,0,0,0,0,0,0,0,0,0,0,0,0,0,0,0,0,0,0,0,0,0,0,0,0,0,0,0,0,0,0,0,0,0,0,0,0,0,0,0,0,0,0,0,0,0,0,0,0,0,0,0,0,0,0,0,0,0,0,0,0,0,0,0,0,0,0,0,0,0,0,0,0,0,0,0,0,0,0,0,0,0,0,0,0,0,0,0,0,
0,0,0,0,0,0,0,0,0,0,0,0,0,0,0,0,0,0,0,0,0,0,0,0,0,0,0,0,0,0,0,0,0,0,0,0,0,0,0,0,0,0,0,0,0,0,0,0,0,0,0,0,0,0,0,0,0,0,0,0,0,0,0,0,0,0,0,0,0,0,0,0,0,0,0,0,0,0,0,0,0,0,0,0,0,0,0,0,0,0,0,0,0,0,0,0,0,0,0,0,
0,0,0,0,0,0,0,0,0,0,0,0,0,0,0,0,0,0,0,0,0,0,0,0,0,0,0,0,0,0,0,0,0,0,0,0,0,0,0,0,0,0,0,0,0,0,0,0,0,0,0,0,0,0,0,0,0,0,0,0,0,0,0,0,0,0,0,0,0,0,0,0,0,0,0,0,0,0,0,0,0,0,0,0,0,0,0,0,0,0,0,0,0,0,0,0,0,0,0,0,
0,0,0,0,0,0,0,0,0,0,0,0,0,0,0,0,0,0,0,0,0,0,0,0,0,0,0,0,0,0,0,0,0,0,0,0,0,0,0,0,0,0,0,0,0,0,0,0,0,0,0,0,0,0,0,0,0,0,0,0,0,0,0,0,0,0,0,0,0,0,0,0,0,0,0,0,0,0,0,0,0,0,0,0,0,0,0,0,0,0,0,0,0,0,0,0,0,0,0,0,
0,0,0,0,0,0,0,0,0,0,0,0,0,0,0,0,0,0,0,0,0,0,0,0,0,0,0,0,0,0,0,0,0,0,0,0,0,0,0,0,0,0,0,0,0,0,0,0,0,0,0,0,0,0,0,0,0,0,0,0,0,0,0,0,0,0,0,0,0,0,0,0,0,0,0,0,0,0,0,0,0,0,0,0,0,0,0,0,0,0,0,0,0,0,0,0,0,0,0,0,
0,0,0,0,0,0,0,0,0,0,0,0,0,0,0,0,0,0,0,0,0,0,0,0,0,0,0,0,0,0,0,0,0,0,0,0,0,0,0,0,0,0,0,0,0,0,0,0,0,0,0,0,0,0,0,0,0,0,0,0,0,0,0,0,0,0,0,0,0,0,0,0,0,0,0,0,0,0,0,0,0,0,0,0,0,0,0,0,0,0,0,0,0,0,0,0,0,0,0,0,
0,0,0,0,0,0,0,0,0,0,0,0,0,0,0,0,0,0,0,0,0,0,0,0,0,0,0,0,0,0,0,0,0,0,0,0,0,0,0,0,0,0,0,0,0,0,0,0,0,0,0,0,0,0,0,0,0,0,0,0,0,0,0,0,0,0,0,0,0,0,0,0,0,0,0,0,0,0,0,0,0,0,0,0,0,0,0,0,0,0,0,0,0,0,0,0,0,0,0,0,
0,0,0,0,0,0,0,0,0,0,0,0,0,0,0,0,0,0,0,0,0,0,0,0,0,0,0,0,0,0,0,0,0,0,0,0,0,0,0,0,0,0,0,0,0,0,0,0,0,0,0,0,0,0,0,0,0,0,0,0,0,0,0,0,0,0,0,0,0,0,0,0,0,0,0,0,0,0,0,0,0,0,0,0,0,0,0,0,0,0,0,0,0,0,0,0,0,0,0,0,
0,0,0,0,0,0,0,0,0,0,0,0,0,0,0,0,0,0,0,0,0,0,0,0,0,0,0,0,0,0,0,0,0,0,0,0,0,0,0,0,0,0,0,0,0,0,0,0,0,0,0,0,0,0,0,0,0,0,0,0,0,0,0,0,0,0,0,0,0,0,0,0,0,0,0,0,0,0,0,0,0,0,0,0,0,0,0,0,0,0,0,0,0,0,0,0,0,0,0,0,
0,0,0,0,0,0,0,0,0,0,0,0,0,0,0,0,0,0,0,0,0,0,0,0,0,0,0,0,0,0,0,0,0,0,0,0,0,0,0,0,0,0,0,0,0,0,0,0,0,0,0,0,0,0,0,0,0,0,0,0,0,0,0,0,0,0,0,0,0,0,0,0,0,0,0,0,0,0,0,0,0,0,0,0,0,0,0,0,0,0,0,0,0,0,0,0,0,0,0,0,
0,0,0,0,0,0,0,0,0,0,0,0,0,0,0,0,0,0,0,0,0,0,0,0,0,0,0,0,0,0,0,0,0,0,0,0,0,0,0,0,0,0,0,0,0,0,0,0,0,0,0,0,0,0,0,0,0,0,0,0,0,0,0,0,0,0,0,0,0,0,0,0,0,0,0,0,0,0,0,0,0,0,0,0,0,0,0,0,0,0,0,0,0,0,0,0,0,0,0,0,
0,0,0,0,0,0,0,0,0,0,0,0,0,0,0,0,0,0,0,0,0,0,0,0,0,0,0,0,0,0,0,0,0,0,0,0,0,0,0,0,0,0,0,0,0,0,0,0,0,0,0,0,0,0,0,0,0,0,0,0,0,0,0,0,0,0,0,0,0,0,0,0,0,0,0,0,0,0,0,0,0,0,0,0,0,0,0,0,0,0,0,0,0,0,0,0,0,0,0,0,
0,0,0,0,0,0,0,0,0,0,0,0,0,0,0,0,0,0,0,0,0,0,0,0,0,0,0,0,0,0,0,0,0,0,0,0,0,0,0,0,0,0,0,0,0,0,0,0,0,0,0,0,0,0,0,0,0,0,0,0,0,0,0,0,0,0,0,0,0,0,0,0,0,0,0,0,0,0,0,0,0,0,0,0,0,0,0,0,0,0,0,0,0,0,0,0,0,0,0,0,
0,0,0,0,0,0,0,0,0,0,0,0,0,0,0,0,0,0,0,0,0,0,0,0,0,0,0,0,0,0,0,0,0,0,0,0,0,0,0,0,0,0,0,0,0,0,0,0,0,0,0,0,0,0,0,0,0,0,0,0,0,0,0,0,0,0,0,0,0,0,0,0,0,0,0,0,0,0,0,0,0,0,0,0,0,0,0,0,0,0,0,0,0,0,0,0,0,0,0,0,
0,0,0,0,0,0,0,0,0,0,0,0,0,0,0,0,0,0,0,0,0,0,0,0,0,0,0,0,0,0,0,0,0,0,0,0,0,0,0,0,0,0,0,0,0,0,0,0,0,0,0,0,0,0,0,0,0,0,0,0,0,0,0,0,0,0,0,0,0,0,0,0,0,0,0,0,0,0,0,0,0,0,0,0,0,0,0,0,0,0,0,0,0,0,0,0,0,0,0,0,
0,0,0,0,0,0,0,0,0,0,0,0,0,0,0,0,0,0,0,0,0,0,0,0,0,0,0,0,0,0,0,0,0,0,0,0,0,0,0,0,0,0,0,0,0,0,0,0,0,0,0,0,0,0,0,0,0,0,0,0,0,0,0,0,0,0,0,0,0,0,0,0,0,0,0,0,0,0,0,0,0,0,0,0,0,0,0,0,0,0,0,0,0,0,0,0,0,0,0,0,
0,0,0,0,0,0,0,0,0,0,0,0,0,0,0,0,0,0,0,0,0,0,0,0,0,0,0,0,0,0,0,0,0,0,0,0,0,0,0,0,0,0,0,0,0,0,0,0,0,0,0,0,0,0,0,0,0,0,0,0,0,0,0,0,0,0,0,0,0,0,0,0,0,0,0,0,0,0,0,0,0,0,0,0,0,0,0,0,0,0,0,0,0,0,0,0,0,0,0,0,
0,0,0,0,0,0,0,0,0,0,0,0,0,0,0,0,0,0,0,0,0,0,0,0,0,0,0,0,0,0,0,0,0,0,0,0,0,0,0,0,0,0,0,0,0,0,0,0,0,0,0,0,0,0,0,0,0,0,0,0,0,0,0,0,0,0,0,0,0,0,0,0,0,0,0,0,0,0,0,0,0,0,0,0,0,0,0,0,0,0,0,0,0,0,0,0,0,0,0,0,
0,0,0,0,0,0,0,0,0,0,0,0,0,0,0,0,0,0,0,0,0,0,0,0,0,0,0,0,0,0,0,0,0,0,0,0,0,0,0,0,0,0,0,0,0,0,0,0,0,0,0,0,0,0,0,0,0,0,0,0,0,0,0,0,0,0,0,0,0,0,0,0,0,0,0,0,0,0,0,0,0,0,0,0,0,0,0,0,0,0,0,0,0,0,0,0,0,0,0,0,
0,0,0,0,0,0,0,0,0,0,0,0,0,0,0,0,0,0,0,0,0,0,0,0,0,0,0,0,0,0,0,0,0,0,0,0,0,0,0,0,0,0,0,0,0,0,0,0,0,0,0,0,0,0,0,0,0,0,0,0,0,0,0,0,0,0,0,0,0,0,0,0,0,0,0,0,0,0,0,0,0,0,0,0,0,0,0,0,0,0,0,0,0,0,0,0,0,0,0,0,
0,0,0,0,0,0,0,0,0,0,0,0,0,0,0,0,0,0,0,0,0,0,0,0,0,0,0,0,0,0,0,0,0,0,0,0,0,0,0,0,0,0,0,0,0,0,0,0,0,0,0,0,0,0,0,0,0,0,0,0,0,0,0,0,0,0,0,0,0,0,0,0,0,0,0,0,0,0,0,0,0,0,0,0,0,0,0,0,0,0,0,0,0,0,0,0,0,0,0,0,
0,0,0,0,0,0,0,0,0,0,0,0,0,0,0,0,0,0,0,0,0,0,0,0,0,0,0,0,0,0,0,0,0,0,0,0,0,0,0,0,0,0,0,0,0,0,0,0,0,0,0,0,0,0,0,0,0,0,0,0,0,0,0,0,0,0,0,0,0,0,0,0,0,0,0,0,0,0,0,0,0,0,0,0,0,0,0,0,0,0,0,0,0,0,0,0,0,0,0,0,
0,0,0,0,0,0,0,0,0,0,0,0,0,0,0,0,0,0,0,0,0,0,0,0,0,0,0,0,0,0,0,0,0,0,0,0,0,0,0,0,0,0,0,0,0,0,0,0,0,0,0,0,0,0,0,0,0,0,0,0,0,0,0,0,0,0,0,0,0,0,0,0,0,0,0,0,0,0,0,0,0,0,0,0,0,0,0,0,0,0,0,0,0,0,0,0,0,0,0,0,
0,0,0,0,0,0,0,0,0,0,0,0,0,0,0,0,0,0,0,0,0,0,0,0,0,0,0,0,0,0,0,0,0,0,0,0,0,0,0,0,0,0,0,0,0,0,0,0,0,0,0,0,0,0,0,0,0,0,0,0,0,0,0,0,0,0,0,0,0,0,0,0,0,0,0,0,0,0,0,0,0,0,0,0,0,0,0,0,0,0,0,0,0,0,0,0,0,0,0,0,
0,0,0,0,0,0,0,0,0,0,0,0,0,0,0,0,0,0,0,0,0,0,0,0,0,0,0,0,0,0,0,0,0,0,0,0,0,0,0,0,0,0,0,0,0,0,0,0,0,0,0,0,0,0,0,0,0,0,0,0,0,0,0,0,0,0,0,0,0,0,0,0,0,0,0,0,0,0,0,0,0,0,0,0,0,0,0,0,0,0,0,0,0,0,0,0,0,0,0,0,
0,0,0,0,0,0,0,0,0,0,0,0,0,0,0,0,0,0,0,0,0,0,0,0,0,0,0,0,0,0,0,0,0,0,0,0,0,0,0,0,0,0,0,0,0,0,0,0,0,0,0,0,0,0,0,0,0,0,0,0,0,0,0,0,0,0,0,0,0,0,0,0,0,0,0,0,0,0,0,0,0,0,0,0,0,0,0,0,0,0,0,0,0,0,0,0,0,0,0,0,
0,0,0,0,0,0,0,0,0,0,0,0,0,0,0,0,0,0,0,0,0,0,0,0,0,0,0,0,0,0,0,0,0,0,0,0,0,0,0,0,0,0,0,0,0,0,0,0,0,0,0,0,0,0,0,0,0,0,0,0,0,0,0,0,0,0,0,0,0,0,0,0,0,0,0,0,0,0,0,0,0,0,0,0,0,0,0,0,0,0,0,0,0,0,0,0,0,0,0,0,
0,0,0,0,0,0,0,0,0,0,0,0,0,0,0,0,0,0,0,0,0,0,0,0,0,0,0,0,0,0,0,0,0,0,0,0,0,0,0,0,0,0,0,0,0,0,0,0,0,0,0,0,0,0,0,0,0,0,0,0,0,0,0,0,0,0,0,0,0,0,0,0,0,0,0,0,0,0,0,0,0,0,0,0,0,0,0,0,0,0,0,0,0,0,0,0,0,0,0,0
</data>
 </layer>
</map>
